Desert Affinity Presets/Desert Affinity Preset #6.cube
TITLE "32x32x32 Adobe/IRIDAS cube 3D LUT exported with GrossGrade v0.1.027.1 (beta) 64 bit"
DOMAIN_MIN 0 0 0
DOMAIN_MAX 1 1 1
LUT_3D_SIZE 32
0.095036097 0.041879136 0.000000000
0.119915202 0.041479819 0.000000000
0.146090448 0.040769920 0.000000000
0.171796635 0.040222816 0.000000000
0.196331754 0.040043313 0.000000000
0.220665634 0.039975505 0.000000000
0.245300949 0.039917540 0.000000000
0.271095037 0.039692141 0.000000000
0.298666328 0.039209515 0.000000000
0.328627884 0.038227525 0.000000000
0.360912174 0.036522601 0.000000000
0.394390136 0.034334175 0.000000000
0.428699106 0.031747334 0.000000000
0.463880152 0.028767712 0.000000000
0.499689728 0.025525253 0.000000000
0.535849929 0.022124270 0.000000000
0.572223306 0.018592820 0.000000000
0.608682632 0.014962738 0.000000000
0.644909382 0.011353685 0.000000000
0.680661142 0.007857334 0.000000000
0.715667546 0.004537274 0.000000000
0.749972224 0.001398175 0.000000000
0.783762872 0.000126256 0.000000000
0.817208409 0.000000000 0.000000000
0.850428700 0.000000000 0.000000000
0.883494258 0.000000000 0.000000000
0.916397691 0.000000000 0.000000000
0.949130774 0.000000000 0.000000000
0.981994987 0.000000000 0.000000000
0.996113896 0.000000000 0.000000000
0.998387098 0.000000000 0.000000000
1.000000000 0.000000000 0.000000000
0.091784954 0.066795655 0.000000000
0.119590156 0.066134878 0.000000000
0.148624122 0.064494543 0.000000000
0.172406450 0.064399160 0.000000000
0.196539268 0.064603969 0.000000000
0.221162498 0.064959310 0.000000000
0.246214613 0.065320805 0.000000000
0.272159129 0.065217957 0.000000000
0.299606442 0.064572610 0.000000000
0.329267532 0.063243650 0.000000000
0.361166626 0.061098710 0.000000000
0.394315630 0.058537092 0.000000000
0.428394467 0.055670179 0.000000000
0.463406980 0.052468870 0.000000000
0.499072403 0.049030952 0.000000000
0.535111189 0.045456044 0.000000000
0.571402609 0.041797407 0.000000000
0.607827485 0.038079884 0.000000000
0.644040823 0.034406316 0.000000000
0.679788589 0.030852407 0.000000000
0.714815259 0.027502418 0.000000000
0.749182343 0.024370825 0.000000000
0.783082426 0.021400509 0.000000000
0.816643059 0.018537767 0.000000000
0.849972844 0.015767591 0.000000000
0.883172035 0.013124649 0.000000000
0.916240931 0.010610289 0.000000000
0.949161768 0.008171208 0.000000000
0.982175410 0.005754577 0.000000000
0.996128857 0.003590921 0.000000000
0.998387098 0.002390081 0.000000000
1.000000000 0.002302637 0.000000000
0.087566130 0.092871346 0.000000000
0.117259711 0.091080002 0.000000000
0.145125329 0.091892667 0.000000000
0.177128628 0.090261564 0.000000000
0.201722339 0.089868881 0.000000000
0.223617733 0.090279400 0.000000000
0.246568128 0.090473905 0.000000000
0.271207392 0.090185367 0.000000000
0.297889501 0.089323081 0.000000000
0.327066183 0.087739781 0.000000000
0.358692765 0.085429743 0.000000000
0.391626477 0.082711503 0.000000000
0.425526649 0.079705656 0.000000000
0.460453898 0.076433763 0.000000000
0.496096820 0.072977133 0.000000000
0.532108426 0.069382571 0.000000000
0.568385661 0.065719292 0.000000000
0.604827464 0.062027030 0.000000000
0.641101003 0.058420788 0.000000000
0.676925719 0.054944545 0.000000000
0.712027133 0.051670279 0.000000000
0.746480465 0.048624706 0.000000000
0.780507803 0.045792822 0.000000000
0.814245999 0.043111514 0.000000000
0.847759485 0.040534928 0.000000000
0.881134152 0.038071580 0.000000000
0.914426208 0.035780255 0.000000000
0.947659492 0.033641871 0.000000000
0.980994582 0.031545077 0.000000000
0.996051252 0.029515151 0.000000000
0.998387098 0.027899085 0.000000000
1.000000000 0.026261974 0.000000000
0.084726274 0.119906232 0.000000000
0.116217226 0.117355391 0.000000000
0.142033368 0.117527798 0.000000000
0.170631751 0.117835544 0.000000000
0.201640531 0.116010129 0.000000000
0.229092985 0.114486761 0.000000000
0.252036452 0.113887332 0.000000000
0.274583012 0.113527127 0.000000000
0.299336523 0.112747364 0.000000000
0.327033818 0.111262187 0.000000000
0.357632816 0.109050892 0.000000000
0.389902115 0.106415682 0.000000000
0.423388630 0.103460409 0.000000000
0.458052844 0.100192435 0.000000000
0.493561387 0.096738629 0.000000000
0.529548049 0.093197867 0.000000000
0.565845609 0.089597680 0.000000000
0.602319777 0.085967153 0.000000000
0.638728440 0.082509138 0.000000000
0.674764454 0.079259634 0.000000000
0.710060000 0.076195873 0.000000000
0.744689941 0.073336862 0.000000000
0.778891802 0.070695758 0.000000000
0.812878549 0.068265572 0.000000000
0.846722424 0.066006534 0.000000000
0.880396664 0.063851781 0.000000000
0.913976431 0.061849453 0.000000000
0.947565973 0.060070120 0.000000000
0.981370389 0.058453564 0.000000000
0.996062458 0.056897871 0.000000000
0.998387098 0.055546924 0.000000000
1.000000000 0.054469079 0.000000000
0.081972949 0.145653799 0.000000000
0.114031859 0.142372489 0.000000000
0.141842380 0.140912130 0.000000000
0.165885597 0.142142072 0.000000000
0.194261864 0.142075107 0.000000000
0.225031018 0.140154213 0.000000000
0.254339993 0.138103440 0.000000000
0.280948132 0.136435241 0.000000000
0.305910170 0.135129631 0.000000000
0.332191199 0.133615106 0.000000000
0.361265600 0.131552577 0.000000000
0.392252862 0.129125208 0.000000000
0.424753159 0.126415059 0.000000000
0.458659559 0.123398080 0.000000000
0.493572235 0.120162874 0.000000000
0.529181421 0.116833702 0.000000000
0.565310001 0.113476224 0.000000000
0.601773202 0.110094838 0.000000000
0.638163507 0.106782459 0.000000000
0.674302816 0.103716664 0.000000000
0.709890783 0.101000570 0.000000000
0.744842291 0.098517515 0.000000000
0.779349267 0.096190639 0.000000000
0.813625395 0.094072908 0.000000000
0.847838283 0.092209928 0.000000000
0.881996274 0.090554148 0.000000000
0.916036189 0.089008100 0.000000000
0.950022101 0.087646864 0.000000000
0.984311402 0.086509630 0.000000000
0.996233582 0.085584715 0.000000000
0.998387098 0.084815070 0.000000000
1.000000000 0.084021017 0.000000000
0.078504600 0.170491770 0.000000000
0.110974483 0.166837454 0.000000000
0.140323207 0.164521232 0.000000000
0.164819300 0.164476857 0.000000000
0.188295379 0.166013360 0.000000000
0.217107907 0.165625811 0.000000000
0.248141691 0.163658082 0.000000000
0.279348195 0.161247134 0.000000000
0.309710860 0.158861786 0.000000000
0.339074343 0.156464651 0.000000000
0.368546516 0.154055029 0.000000000
0.398633808 0.151655003 0.000000000
0.429995507 0.149157286 0.000000000
0.462882280 0.146465734 0.000000000
0.496995211 0.143588185 0.000000000
0.531917512 0.140589356 0.000000000
0.567523837 0.137582734 0.000000000
0.603659749 0.134626433 0.000000000
0.639882743 0.131754339 0.000000000
0.675866306 0.129029930 0.000000000
0.711411893 0.126645476 0.000000000
0.746596634 0.124646679 0.000000000
0.781522274 0.122911945 0.000000000
0.816203296 0.121302731 0.000000000
0.850779772 0.119880736 0.000000000
0.885410666 0.118743651 0.000000000
0.920036972 0.117823035 0.000000000
0.954540133 0.117004193 0.000000000
0.988891661 0.116250739 0.000000000
0.996530056 0.115628444 0.000000000
0.998387098 0.115212068 0.000000000
1.000000000 0.114759564 0.000000000
0.074381188 0.195053667 0.000000000
0.107197836 0.191216111 0.000000000
0.137581259 0.188459635 0.000000000
0.163813576 0.187378064 0.000000000
0.186060175 0.188571602 0.000000000
0.210565105 0.190042481 0.000000000
0.240138650 0.189460307 0.000000000
0.272313267 0.187338784 0.000000000
0.305674225 0.184571892 0.000000000
0.339707464 0.181498483 0.000000000
0.373613060 0.178292587 0.000000000
0.406197160 0.175340936 0.000000000
0.438093126 0.172658548 0.000000000
0.470502406 0.170100972 0.000000000
0.503866494 0.167584822 0.000000000
0.538094521 0.165028319 0.000000000
0.573063552 0.162434384 0.000000000
0.608701766 0.159943730 0.000000000
0.644643962 0.157654956 0.000000000
0.680493176 0.155552760 0.000000000
0.715896726 0.153699949 0.000000000
0.750976503 0.152182445 0.000000000
0.785990119 0.151037961 0.000000000
0.820964575 0.150155321 0.000000000
0.855808020 0.149336860 0.000000000
0.890592694 0.148596331 0.000000000
0.925399601 0.148023859 0.000000000
0.960157752 0.147582233 0.000000000
0.992220879 0.147156820 0.000000000
0.996774197 0.146777332 0.000000000
0.998387098 0.146562696 0.000000000
1.000000000 0.146357045 0.000000000
0.069187857 0.219935879 0.000000000
0.102306247 0.216021627 0.000000000
0.133525938 0.213030413 0.000000000
0.161228806 0.211407945 0.000000000
0.184473515 0.211809874 0.000000000
0.206738532 0.213621348 0.000000000
0.232791752 0.214908153 0.000000000
0.263915062 0.214109614 0.000000000
0.297949374 0.211845517 0.000000000
0.334072918 0.208734393 0.000000000
0.371559739 0.205178395 0.000000000
0.408519447 0.201726004 0.000000000
0.444146901 0.198542148 0.000000000
0.478720754 0.195682496 0.000000000
0.512826085 0.193192393 0.000000000
0.547005594 0.191001996 0.000000000
0.581601262 0.188931242 0.000000000
0.616755068 0.186925933 0.000000000
0.652258039 0.185173899 0.000000000
0.687856078 0.183725387 0.000000000
0.723138213 0.182554856 0.000000000
0.758039892 0.181595281 0.000000000
0.792766869 0.180834025 0.000000000
0.827512562 0.180328533 0.000000000
0.862300754 0.179992661 0.000000000
0.897024810 0.179671973 0.000000000
0.931690037 0.179384723 0.000000000
0.966346622 0.179218531 0.000000000
0.992789090 0.179082513 0.000000000
0.996774197 0.178963780 0.000000000
0.998387098 0.178963333 0.000000000
1.000000000 0.178949907 0.000000000
0.062671229 0.245606706 0.000000000
0.096112721 0.241720095 0.000000000
0.128040150 0.238646209 0.000000000
0.156863630 0.236829832 0.000000000
0.181757510 0.236616388 0.000000000
0.204094321 0.238070190 0.000000000
0.227500796 0.240228072 0.000000000
0.255857021 0.241259679 0.000000000
0.289166421 0.240315393 0.000000000
0.325881183 0.237858310 0.000000000
0.364968061 0.234569713 0.000000000
0.404776573 0.231116667 0.000000000
0.444195509 0.227770567 0.000000000
0.482744366 0.224618137 0.000000000
0.520066261 0.221843451 0.000000000
0.556219280 0.219598576 0.000000000
0.591739714 0.217765018 0.000000000
0.627057612 0.216187447 0.000000000
0.662252963 0.214820251 0.000000000
0.697365761 0.213726267 0.000000000
0.732156694 0.212955728 0.000000000
0.766666472 0.212416515 0.000000000
0.800968587 0.212020040 0.000000000
0.835271180 0.211760163 0.000000000
0.869702995 0.211704016 0.000000000
0.904210210 0.211769387 0.000000000
0.938632727 0.211803153 0.000000000
0.973042667 0.211882949 0.000000000
0.993409097 0.212004438 0.000000000
0.996774197 0.212166339 0.000000000
0.998387098 0.212426022 0.000000000
1.000000000 0.212629661 0.000000000
0.054431830 0.272513688 0.000000000
0.088296592 0.268800199 0.000000000
0.120893054 0.265782207 0.000000000
0.150730699 0.263944983 0.000000000
0.177130952 0.263497740 0.000000000
0.200693190 0.264601558 0.000000000
0.223520756 0.266820967 0.000000000
0.249225661 0.269106179 0.000000000
0.280429274 0.269943595 0.000000000
0.316741258 0.268894553 0.000000000
0.356423914 0.266391993 0.000000000
0.397515982 0.263384104 0.000000000
0.439236462 0.260277629 0.000000000
0.480966628 0.257203877 0.000000000
0.521898091 0.254291773 0.000000000
0.561492860 0.251736104 0.000000000
0.599613070 0.249617025 0.000000000
0.636508822 0.247893274 0.000000000
0.672382355 0.246559694 0.000000000
0.707455933 0.245568961 0.000000000
0.741856873 0.244959950 0.000000000
0.775876522 0.244660676 0.000000000
0.809710264 0.244551331 0.000000000
0.843515933 0.244548425 0.000000000
0.877408922 0.244694352 0.000000000
0.911517859 0.245047256 0.000000000
0.945668459 0.245413467 0.000000000
0.979782403 0.245766968 0.000000000
0.994050264 0.246114537 0.000000000
0.996774197 0.246503606 0.000000000
0.998387098 0.247028649 0.000000000
1.000000000 0.247454464 0.000000000
0.044823274 0.301138729 0.000000000
0.079130396 0.297683835 0.000000000
0.112423278 0.294838727 0.000000000
0.143153399 0.293067724 0.000000000
0.170822278 0.292691290 0.000000000
0.196054325 0.293611318 0.000000000
0.219634652 0.295861334 0.000000000
0.244341224 0.298629969 0.000000000
0.273103505 0.300918192 0.000000000
0.307752490 0.301529348 0.000000000
0.347181171 0.300391316 0.000000000
0.388791591 0.298183024 0.000000000
0.431476742 0.295502126 0.000000000
0.474872649 0.292590201 0.000000000
0.518185973 0.289666295 0.000000000
0.560684562 0.286906004 0.000000000
0.601936162 0.284430236 0.000000000
0.641670465 0.282300174 0.000000000
0.679671586 0.280639261 0.000000000
0.716054559 0.279458582 0.000000000
0.750997901 0.278755188 0.000000000
0.784983039 0.278479874 0.000000000
0.818498552 0.278519213 0.000000000
0.851902187 0.278735161 0.000000000
0.885287464 0.279053092 0.000000000
0.918853581 0.279550433 0.000000000
0.952643335 0.280233830 0.000000000
0.985913754 0.280844837 0.000000000
0.994646430 0.281427652 0.000000000
0.996774197 0.282010943 0.000000000
0.998387098 0.282721817 0.000000000
1.000000000 0.283359617 0.000000000
0.035152961 0.331415176 0.000000000
0.069937535 0.328287035 0.000000000
0.104040183 0.325819045 0.000000000
0.135763690 0.324366659 0.000000000
0.164419368 0.324072689 0.000000000
0.191240802 0.325004220 0.000000000
0.216139838 0.327207565 0.000000000
0.241108268 0.330180168 0.000000000
0.268479556 0.333197653 0.000000000
0.300805151 0.335179329 0.000000000
0.338706881 0.335383415 0.000000000
0.379904270 0.334212393 0.000000000
0.422844708 0.332134455 0.000000000
0.466895640 0.329542428 0.000000000
0.511442900 0.326751173 0.000000000
0.555789948 0.323979795 0.000000000
0.599443793 0.321368039 0.000000000
0.641917050 0.318946302 0.000000000
0.682677031 0.316877484 0.000000000
0.721534312 0.315319180 0.000000000
0.758297682 0.314330339 0.000000000
0.793378055 0.313838929 0.000000000
0.827378452 0.313764125 0.000000000
0.860809445 0.314004064 0.000000000
0.893954098 0.314437985 0.000000000
0.927056730 0.314996570 0.000000000
0.960337162 0.315782398 0.000000000
0.989755094 0.316684663 0.000000000
0.995161295 0.317456067 0.000000000
0.996774197 0.318237603 0.000000000
0.998387098 0.319100380 0.000000000
1.000000000 0.319892079 0.000000000
0.026144840 0.363634497 0.000000000
0.061473239 0.360921234 0.000000000
0.096284486 0.358805001 0.000000000
0.128944635 0.357724816 0.000000000
0.158686504 0.357739955 0.000000000
0.186515391 0.358548790 0.000000000
0.212810054 0.360580832 0.000000000
0.238451883 0.363432556 0.000000000
0.265456825 0.366584063 0.000000000
0.296022207 0.369323492 0.000000000
0.331734031 0.370756000 0.000000000
0.371572673 0.370727986 0.000000000
0.414078057 0.369528979 0.000000000
0.458272159 0.367457420 0.000000000
0.503303289 0.364956468 0.000000000
0.548598051 0.362326443 0.000000000
0.593758941 0.359756649 0.000000000
0.638260365 0.357299834 0.000000000
0.681362033 0.354994506 0.000000000
0.722719908 0.353080392 0.000000000
0.761987209 0.351718992 0.000000000
0.799206555 0.350885868 0.000000000
0.834739089 0.350506306 0.000000000
0.869108796 0.350510508 0.000000000
0.902700782 0.350836188 0.000000000
0.935888112 0.351395398 0.000000000
0.968810916 0.352107018 0.000000000
0.990772665 0.353125662 0.000000000
0.995161295 0.354066789 0.000000000
0.996774197 0.354981393 0.000000000
0.998387098 0.355969131 0.000000000
1.000000000 0.356873304 0.000000000
0.017847013 0.397872061 0.000000000
0.053741276 0.395614237 0.000000000
0.089126252 0.393758476 0.000000000
0.122398451 0.392829061 0.000000000
0.152946517 0.392967165 0.000000000
0.181666926 0.393842846 0.000000000
0.208962083 0.395446748 0.000000000
0.235616535 0.398118228 0.000000000
0.262832314 0.401166201 0.000000000
0.292605430 0.404121399 0.000000000
0.326450884 0.406372398 0.000000000
0.364314109 0.407495558 0.000000000
0.405618340 0.407311559 0.000000000
0.449413478 0.406041145 0.000000000
0.494535714 0.404032677 0.000000000
0.540208936 0.401675791 0.000000000
0.586087584 0.399244905 0.000000000
0.631844163 0.396881968 0.000000000
0.676627815 0.394584745 0.000000000
0.719947338 0.392471492 0.000000000
0.761426151 0.390804529 0.000000000
0.800983250 0.389619678 0.000000000
0.838748455 0.388874263 0.000000000
0.874950051 0.388516217 0.000000000
0.909843326 0.388523042 0.000000000
0.943848789 0.388860434 0.000000000
0.977161646 0.389457017 0.000000000
0.991863132 0.390345573 0.000000000
0.995161295 0.391312897 0.000000000
0.996774197 0.392251909 0.000000000
0.998387098 0.393294066 0.000000000
1.000000000 0.394272327 0.000000000
0.010121049 0.433602244 0.000000000
0.046390351 0.431637436 0.000000000
0.082270056 0.429992944 0.000000000
0.116047390 0.429166883 0.000000000
0.147210717 0.429332286 0.000000000
0.176648661 0.430241764 0.000000000
0.204914644 0.431713760 0.000000000
0.232444137 0.433922112 0.000000000
0.260308027 0.436844558 0.000000000
0.289974958 0.439755261 0.000000000
0.322741747 0.442362607 0.000000000
0.358738840 0.444347382 0.000000000
0.398287654 0.445236474 0.000000000
0.440998465 0.444876492 0.000000000
0.485726684 0.443578720 0.000000000
0.531441689 0.441675186 0.000000000
0.577578306 0.439458430 0.000000000
0.623930454 0.437283903 0.000000000
0.669736385 0.435078263 0.000000000
0.714432955 0.432971448 0.000000000
0.757574916 0.431145996 0.000000000
0.799053788 0.429703206 0.000000000
0.838910341 0.428627968 0.000000000
0.877242148 0.427908152 0.000000000
0.914136589 0.427517176 0.000000000
0.949673295 0.427468121 0.000000000
0.983939648 0.427775919 0.000000000
0.992843151 0.428439915 0.000000000
0.995161295 0.429212630 0.000000000
0.996774197 0.430012167 0.000000000
0.998387098 0.430991858 0.000000000
1.000000000 0.431936741 0.000000000
0.003172307 0.470384777 0.000000000
0.039426614 0.468590260 0.000000000
0.075701967 0.467116624 0.000000000
0.109968655 0.466400117 0.000000000
0.141656592 0.466605693 0.000000000
0.171707138 0.467505217 0.000000000
0.200722516 0.468943059 0.000000000
0.229269221 0.470876366 0.000000000
0.257850111 0.473454028 0.000000000
0.287823468 0.476247370 0.000000000
0.320188075 0.478858620 0.000000000
0.354897916 0.481313258 0.000000000
0.392635226 0.483067751 0.000000000
0.433763593 0.483686537 0.000000000
0.477512985 0.483202487 0.000000000
0.522820771 0.481928587 0.000000000
0.568951011 0.480121344 0.000000000
0.615386009 0.478031844 0.000000000
0.661777556 0.476118058 0.000000000
0.707273722 0.474079877 0.000000000
0.751537681 0.472250253 0.000000000
0.794408500 0.470671713 0.000000000
0.835929513 0.469364613 0.000000000
0.876096666 0.468334973 0.000000000
0.914923608 0.467593133 0.000000000
0.952390313 0.467139482 0.000000000
0.986763597 0.467002302 0.000000000
0.993548393 0.467340738 0.000000000
0.995161295 0.467749357 0.000000000
0.996774197 0.468271255 0.000000000
0.998387098 0.469042897 0.000000000
1.000000000 0.469799995 0.000000000
0.000000000 0.507992744 0.000000000
0.032880940 0.506336331 0.000000000
0.069469593 0.504984677 0.000000000
0.104170173 0.504383206 0.000000000
0.136366740 0.504666448 0.000000000
0.166978404 0.505552709 0.000000000
0.196581244 0.506950557 0.000000000
0.225990593 0.508695960 0.000000000
0.255463719 0.510979593 0.000000000
0.285946548 0.513535678 0.000000000
0.318290561 0.516017556 0.000000000
0.352335155 0.518543959 0.000000000
0.388662368 0.520827353 0.000000000
0.428059578 0.522293210 0.000000000
0.470367044 0.522690773 0.000000000
0.514773369 0.522135258 0.000000000
0.560488641 0.520876110 0.000000000
0.606852591 0.519140720 0.000000000
0.653269947 0.517292440 0.000000000
0.699240029 0.515526533 0.000000000
0.744118392 0.513736010 0.000000000
0.787901580 0.512135684 0.000000000
0.830587745 0.510701001 0.000000000
0.872161090 0.509455621 0.000000000
0.912571013 0.508419573 0.000000000
0.951775134 0.507615805 0.000000000
0.986974001 0.507051885 0.000000000
0.993548393 0.506875575 0.000000000
0.995161295 0.506941020 0.000000000
0.996774197 0.507058501 0.000000000
0.998387098 0.507467330 0.000000000
1.000000000 0.507931650 0.000000000
0.000000000 0.546267211 0.000000000
0.026810367 0.544780254 0.000000000
0.063671134 0.543525219 0.000000000
0.098713882 0.542990029 0.000000000
0.131355777 0.543334007 0.000000000
0.162503839 0.544249952 0.000000000
0.192627221 0.545603096 0.000000000
0.222686723 0.547220051 0.000000000
0.253012687 0.549208403 0.000000000
0.284195900 0.551504970 0.000000000
0.316812754 0.553786874 0.000000000
0.350610524 0.556186438 0.000000000
0.386030197 0.558619916 0.000000000
0.423939019 0.560640037 0.000000000
0.464605302 0.561845303 0.000000000
0.507694125 0.562078893 0.000000000
0.552544832 0.561450124 0.000000000
0.598499775 0.560198307 0.000000000
0.644798815 0.558664203 0.000000000
0.690809011 0.557013214 0.000000000
0.735963881 0.555351138 0.000000000
0.780203521 0.553758085 0.000000000
0.823616266 0.552275658 0.000000000
0.866162002 0.550905824 0.000000000
0.907755494 0.549661577 0.000000000
0.948332965 0.548563421 0.000000000
0.986681819 0.547645867 0.000000000
0.993548393 0.547020078 0.000000000
0.995161295 0.546670794 0.000000000
0.996774197 0.546345353 0.000000000
0.998387098 0.546281695 0.000000000
1.000000000 0.546323776 0.000000000
0.000000000 0.585015953 0.000000000
0.021406613 0.583685398 0.000000000
0.058540445 0.582536697 0.000000000
0.093891792 0.582051158 0.000000000
0.126877904 0.582404792 0.000000000
0.158486873 0.583327532 0.000000000
0.189105093 0.584662676 0.000000000
0.219663620 0.586178422 0.000000000
0.250735343 0.587903142 0.000000000
0.282662481 0.589907408 0.000000000
0.315734297 0.591930807 0.000000000
0.349573672 0.594142973 0.000000000
0.384563446 0.596484005 0.000000000
0.421376735 0.598715961 0.000000000
0.460519880 0.600483060 0.000000000
0.502042770 0.601459384 0.000000000
0.545677185 0.601525843 0.000000000
0.590828061 0.600847244 0.000000000
0.636684954 0.599723458 0.000000000
0.682514668 0.598301947 0.000000000
0.727690518 0.596767843 0.000000000
0.772086501 0.595226049 0.000000000
0.815811336 0.593727589 0.000000000
0.858919859 0.592275441 0.000000000
0.901308656 0.590889931 0.000000000
0.942889214 0.589584231 0.000000000
0.983437657 0.588380158 0.000000000
0.993548393 0.587448776 0.000000000
0.995161295 0.586646318 0.000000000
0.996774197 0.585882008 0.000000000
0.998387098 0.585342884 0.000000000
1.000000000 0.584874928 0.000000000
0.000000000 0.624037445 0.000000000
0.016819766 0.622863889 0.000000000
0.054196760 0.621801198 0.000000000
0.089831524 0.621373057 0.000000000
0.123120584 0.621728480 0.000000000
0.155087382 0.622606456 0.000000000
0.186142251 0.623900533 0.000000000
0.217151389 0.625350893 0.000000000
0.248736605 0.626807868 0.000000000
0.281387538 0.628494978 0.000000000
0.315075278 0.630259633 0.000000000
0.349141628 0.632225633 0.000000000
0.383968502 0.634387732 0.000000000
0.420165539 0.636568666 0.000000000
0.458082199 0.638582170 0.000000000
0.498070687 0.640102029 0.000000000
0.540211022 0.640844524 0.000000000
0.584176004 0.640736699 0.000000000
0.629324853 0.640155733 0.000000000
0.674644232 0.639047801 0.000000000
0.719593704 0.637686312 0.000000000
0.763963938 0.636248827 0.000000000
0.807791710 0.634771168 0.000000000
0.851089478 0.633265197 0.000000000
0.893905878 0.631769896 0.000000000
0.936122417 0.630306423 0.000000000
0.977595270 0.628899097 0.000000000
0.992976069 0.627745152 0.000000000
0.995161295 0.626511276 0.000000000
0.996774197 0.625334859 0.000000000
0.998387098 0.624371529 0.000000000
1.000000000 0.623433888 0.000000000
0.000000000 0.663222730 0.000000000
0.013252787 0.662145019 0.000000000
0.050792538 0.661122739 0.000000000
0.086662963 0.660717130 0.000000000
0.120221555 0.661074221 0.000000000
0.152499542 0.661908448 0.000000000
0.183913603 0.663117230 0.000000000
0.215302289 0.664475322 0.000000000
0.247335881 0.665790975 0.000000000
0.280528307 0.667069674 0.000000000
0.314872324 0.668555796 0.000000000
0.349319160 0.670227706 0.000000000
0.384185135 0.672136128 0.000000000
0.420066208 0.674140394 0.000000000
0.457177281 0.676154196 0.000000000
0.495847046 0.677947402 0.000000000
0.536456883 0.679193258 0.000000000
0.578999817 0.679690242 0.000000000
0.622915506 0.679518938 0.000000000
0.667618513 0.678937852 0.000000000
0.712044477 0.677833855 0.000000000
0.756151021 0.676533043 0.000000000
