Desert Affinity Presets/Desert Affinity Preset #20.cube
TITLE "32x32x32 Adobe/IRIDAS cube 3D LUT exported with GrossGrade v0.1.027.1 (beta) 64 bit"
LUT_3D_SIZE 8
DOMAIN_MIN 0.000000 0.000000 0.000000
DOMAIN_MAX 0.903226 0.903226 0.903226
0.037486807 0.037283890 0.037936255
0.114066534 0.049350258 0.041608870
0.253397554 0.033421405 0.013939628
0.394360423 0.010527905 0.000000000
0.553158104 0.000000000 0.000000000
0.711917281 0.000000000 0.000000000
0.821689606 0.000000000 0.000000000
0.952345490 0.170178279 0.077890605
0.046546865 0.101544879 0.049298290
0.108353145 0.104458570 0.049095426
0.225344285 0.097025447 0.021110510
0.371622175 0.079670787 0.000000000
0.550995290 0.052328359 0.000000000
0.715885878 0.009601468 0.000000000
0.841314971 0.027996026 0.000000000
0.957174242 0.200528204 0.083527252
0.031577580 0.188244879 0.039160922
0.093082003 0.186857074 0.044645067
0.204012260 0.190127820 0.037053350
0.367981315 0.180417061 0.003544054
0.558093786 0.163596883 0.000000000
0.751275003 0.147182599 0.000000000
0.888062775 0.175132811 0.000000000
0.968461335 0.290163785 0.098112397
0.000924009 0.293045223 0.018642884
0.055886049 0.297071069 0.023843247
0.175529212 0.310544968 0.037249774
0.359101772 0.321520507 0.017833434
0.563096225 0.310006171 0.000000000
0.761900246 0.308356106 0.000000000
0.899735093 0.340467483 0.000000000
0.974031806 0.417661399 0.110093020
0.000000000 0.434556991 0.000617251
0.019997954 0.438868225 0.004064980
0.152144343 0.455033839 0.023884824
0.345722109 0.469816267 0.028377207
0.555161417 0.482368022 0.007090915
0.770154655 0.483864665 0.000000000
0.896452785 0.501751125 0.000000000
0.982193589 0.563268781 0.122067235
0.000000000 0.597282887 0.000000000
0.007572019 0.598644495 0.000000000
0.126771793 0.614145756 0.012843040
0.330592185 0.635403872 0.013072176
0.545311928 0.658924878 0.025664588
0.767282963 0.675998807 0.000271217
0.900336325 0.686883450 0.005032471
0.982612610 0.724354208 0.125564247
0.000000000 0.771312833 0.000000000
0.006451614 0.771314681 0.000000000
0.115370177 0.802420318 0.021904942
0.325342327 0.818321049 0.031764638
0.556828022 0.840681553 0.054331228
0.769048870 0.851340652 0.065293074
0.907215774 0.861258686 0.044308417
0.984378159 0.876732111 0.152516708
0.054687530 0.943161368 0.083951391
0.061139144 0.943161368 0.083951391
0.149236456 0.953148305 0.100906394
0.352367431 0.971855879 0.114049792
0.577972829 0.976478755 0.114083394
0.785929322 0.973972499 0.116563298
0.920512915 0.978431165 0.129428566
0.994331479 0.982107460 0.248370200
0.040847123 0.037703831 0.100113042
0.106072165 0.038603995 0.085165747
0.248868078 0.025781505 0.058674868
0.387267828 0.007730617 0.018821932
0.551757872 0.000000000 0.006451614
0.714704812 0.000000000 0.006451614
0.825509071 0.000000000 0.006451614
0.953549147 0.165227249 0.100060925
0.036761563 0.103515312 0.107481077
0.091396660 0.092179924 0.089056760
0.211971104 0.090150036 0.066442482
0.361856580 0.075196624 0.029405432
0.544930279 0.044486072 0.006451614
0.715180993 0.007966686 0.006451614
0.842803597 0.022432830 0.006451614
0.958420873 0.196330801 0.105402634
0.025776349 0.188170508 0.095655262
0.078440964 0.162966773 0.085743278
0.190287307 0.173688829 0.080414802
0.362591505 0.172242552 0.045054186
0.555036068 0.157687783 0.011272725
0.753089190 0.143364534 0.006451614
0.893063605 0.173503593 0.007540220
0.970238030 0.287370026 0.120339669
0.003152665 0.295726925 0.073198505
0.040163402 0.277101606 0.068886206
0.163962871 0.285930783 0.079199940
0.351071239 0.309951305 0.063873366
0.562180340 0.305874377 0.015603294
0.763275087 0.306441903 0.006818225
0.905477583 0.340921640 0.017038416
0.975895345 0.416389823 0.131867021
0.000000000 0.439607739 0.057865437
0.008896300 0.435544699 0.056774937
0.139096320 0.427664220 0.068395197
0.337155044 0.456412494 0.074164167
0.551130950 0.478412628 0.043462895
0.769692779 0.482326448 0.007525258
0.900848150 0.503366947 0.018390736
0.984036624 0.563017368 0.143270805
0.000000000 0.603098035 0.039615847
0.006451614 0.602813065 0.039483946
0.119083717 0.588787198 0.056313887
0.322808355 0.621185541 0.063692369
0.541533232 0.653714955 0.064781480
0.768892944 0.677069545 0.034627277
0.903663278 0.689425111 0.032084405
0.984230042 0.724801719 0.145962119
0.000000000 0.777237833 0.038072664
0.006451614 0.777237833 0.038072664
0.103933424 0.782806754 0.053310387
0.312570661 0.805483401 0.068423264
0.551845789 0.836588681 0.085138172
0.767589331 0.850386441 0.089832574
0.908560753 0.862210512 0.068787962
0.985337257 0.877227426 0.171605140
0.053208008 0.938827753 0.103762083
0.059659623 0.938827753 0.103762083
0.135925561 0.941599250 0.112383418
0.341229796 0.965855479 0.130617395
0.572522759 0.973941386 0.132190228
0.783692479 0.973356843 0.132841378
0.920439482 0.978523612 0.144741461
0.994449794 0.981966674 0.261924118
0.050497763 0.035287630 0.188740402
0.057329994 0.035314739 0.188598946
0.201544285 0.030047091 0.128064141
0.354031652 0.010870652 0.089870349
0.531720698 0.000000000 0.049801342
0.708333313 0.000000000 0.016704008
0.830011487 0.000000000 0.017414778
0.955321431 0.141838074 0.166470096
0.035492897 0.097678654 0.196419507
0.041942634 0.097676814 0.196430787
0.163413271 0.088661619 0.135426074
0.328499645 0.070189923 0.097649164
0.522445202 0.019393343 0.052100141
0.706953585 0.006451614 0.016642276
0.838661253 0.008995442 0.021151939
0.962188184 0.175378099 0.173437282
0.024297746 0.177657306 0.191083491
0.030749358 0.177657306 0.191083491
0.151361361 0.150827110 0.140418574
0.338825405 0.156117022 0.112641603
0.537560165 0.140818283 0.082475945
0.746398449 0.129955918 0.057734899
0.898537338 0.163228229 0.078586787
0.976548851 0.273103803 0.190014452
0.007039479 0.292687565 0.168611750
0.013491096 0.292687565 0.168611750
0.129929706 0.254897743 0.138518557
0.327258676 0.284448445 0.133504033
0.551443934 0.288800985 0.099476546
0.764385283 0.298478961 0.079942420
0.913746893 0.336675912 0.100378990
0.982656062 0.408679575 0.201458558
0.000000000 0.433551878 0.159089342
0.006451614 0.433551878 0.159089342
0.106850386 0.388090909 0.129702881
0.312776774 0.427029938 0.144012481
0.535580695 0.464519501 0.130901292
0.772286832 0.477131069 0.090841554
0.911159992 0.504865229 0.106697097
0.991349161 0.560347736 0.214011669
0.000000000 0.599317789 0.150443599
0.006451614 0.599317789 0.150443599
0.093420997 0.543842673 0.126450196
0.297425151 0.588014722 0.141903996
0.526049018 0.636413336 0.151697978
0.765144289 0.673348486 0.134019211
0.914333940 0.694653928 0.126583248
0.991075575 0.725371957 0.221477598
0.000000000 0.779661894 0.155289799
0.006451614 0.779661894 0.155289799
0.065018475 0.742591381 0.124480046
0.272434682 0.769431710 0.141648874
0.529028594 0.817137837 0.165722907
0.759744644 0.844695151 0.176086530
0.913050056 0.865161836 0.162267193
0.989062428 0.877958834 0.243927807
0.054874182 0.934530258 0.207735941
0.061325796 0.934530258 0.207735941
0.092388794 0.919336140 0.184250876
0.291554838 0.938051760 0.189101011
0.544459224 0.958960474 0.201898962
0.771680474 0.968546867 0.208497390
0.917763174 0.975650549 0.219007179
0.994827390 0.980492294 0.323888510
0.063142538 0.030710194 0.303178698
0.069594160 0.030710194 0.303178698
0.108718954 0.031440556 0.284979075
0.306957990 0.013191880 0.193759248
0.483130574 0.000000000 0.169361889
0.686374247 0.000000000 0.144550517
0.829579055 0.000000000 0.155234978
0.952667415 0.097305238 0.278635114
0.034329016 0.085304625 0.299552023
0.040780626 0.085304625 0.299552023
0.064620510 0.080433965 0.292350441
0.278169185 0.069364116 0.206457913
0.477295160 0.014965504 0.171130478
0.685807884 0.006451614 0.142456457
0.830768228 0.006451614 0.155488878
0.964655519 0.137118608 0.290160060
0.025101122 0.159901425 0.302231431
0.031552732 0.159901425 0.302231431
0.049611490 0.158511505 0.296950519
0.281429440 0.150797591 0.228028119
0.498989552 0.132312670 0.204477191
0.723964155 0.101289093 0.182024553
0.894975901 0.131437108 0.218525678
0.985707521 0.245356977 0.309822917
0.008977755 0.277135819 0.296899229
0.015429375 0.277135819 0.296899229
0.029204279 0.276546896 0.294758648
0.270358652 0.262238294 0.243435606
0.516799390 0.270411015 0.219960108
0.754382074 0.277118027 0.210215494
0.916853070 0.314938128 0.242222175
0.993022919 0.391364753 0.319794714
0.000000000 0.424580485 0.295431435
0.006451614 0.424580485 0.295431435
0.014321034 0.423114091 0.293285370
0.254956305 0.404908925 0.252845407
0.501043320 0.441375613 0.252713382
0.763440847 0.460104227 0.225389674
0.915442705 0.493355036 0.251150727
0.995007038 0.550735295 0.332268894
0.000000000 0.587188065 0.294749826
0.006451614 0.587188065 0.294749826
0.012903227 0.585257292 0.293127596
0.239298999 0.564053655 0.253975302
0.492354810 0.607452869 0.271590382
0.745483756 0.655350208 0.268646538
0.917156935 0.685696959 0.268718421
0.995161295 0.720106781 0.337962002
0.000000000 0.773729026 0.306370109
0.006451614 0.773729026 0.306370109
0.012903227 0.773115098 0.305467665
0.197432667 0.739406407 0.251284987
0.487751275 0.788073361 0.280447572
0.732875824 0.825824380 0.300181925
0.907050729 0.856679738 0.300106972
0.993098915 0.875451446 0.357323587
0.049129974 0.934852481 0.360303223
0.055581588 0.934863865 0.360303223
0.062136084 0.934848487 0.360247701
0.209403947 0.914830744 0.296792179
0.497732103 0.940154016 0.309549809
0.741460919 0.956123471 0.324548453
0.909306765 0.968385339 0.339529634
0.994744658 0.977101862 0.422856748
0.071221523 0.025913374 0.408678263
0.077673137 0.025913374 0.408678263
0.084124751 0.025913374 0.408678263
0.231312782 0.016666256 0.351657420
0.433770180 0.000000000 0.310830653
0.627208292 0.000000000 0.297967196
0.811122119 0.000000000 0.319409877
0.934670150 0.040854543 0.411102206
0.036776066 0.072383963 0.404759467
0.043227680 0.072383963 0.404759467
0.049679291 0.072383963 0.404759467
0.172860950 0.059485745 0.364801228
0.429676801 0.008498833 0.314916790
0.627476752 0.006451614 0.298035085
0.811251104 0.006451614 0.318052262
0.949569821 0.075800776 0.426040500
0.023844182 0.145374805 0.418668240
0.030295793 0.145374805 0.418668240
0.036747407 0.145374805 0.418668240
0.158667967 0.144326746 0.394111395
0.441163391 0.126930282 0.361013919
0.669304073 0.104218759 0.352299213
0.870041549 0.090725578 0.376483470
0.990544617 0.203773335 0.464781493
0.009696008 0.260381490 0.429879457
0.016147621 0.260381490 0.429879457
0.022599233 0.260381490 0.429879457
0.133903801 0.263767034 0.418441296
0.448368430 0.268432438 0.394976497
0.703355968 0.268523276 0.384218216
0.907749474 0.275712758 0.405504227
0.995161295 0.359002084 0.472016215
0.000000000 0.406176955 0.436519623
0.006451614 0.406176955 0.436519623
0.012903227 0.406176955 0.436519623
0.104665235 0.411380768 0.427202791
0.437969208 0.428289860 0.416547984
0.718783438 0.437640816 0.388918877
0.910186470 0.464140981 0.408701122
0.995161295 0.529554367 0.475441068
0.000000000 0.577692151 0.443164408
0.006451614 0.577692151 0.443164408
0.012903227 0.577692151 0.443164408
0.085796870 0.579493880 0.433551073
0.425696462 0.594775558 0.431230575
0.694527090 0.622376323 0.422561795
0.911489010 0.660490394 0.426001996
0.995161295 0.706560552 0.479672849
0.000000000 0.765391231 0.457770348
0.006451614 0.765391231 0.457770348
0.012903227 0.765391231 0.457770348
0.076118186 0.755623996 0.439995468
0.420499712 0.771974087 0.433044344
0.679719746 0.794385314 0.441721439
0.891378641 0.837875366 0.451124609
0.994786739 0.868155062 0.493516535
0.025187615 0.928574324 0.517571032
0.031639233 0.928574324 0.517571032
0.038090851 0.928574324 0.517571032
0.111707844 0.925166965 0.493196994
0.420584261 0.929027081 0.457457572
0.682279229 0.937213838 0.458060533
0.891690612 0.955716014 0.477678418
0.992915332 0.971553862 0.537996352
0.077009670 0.020033073 0.531502068
0.083461285 0.020033073 0.531502068
0.089912899 0.020033073 0.531502068
0.097394653 0.020060230 0.531171441
0.356010467 0.000000000 0.456102282
0.560839236 0.000000000 0.434041470
0.768272281 0.000000000 0.460374862
0.883618474 0.000000000 0.518608034
0.044656754 0.051274434 0.528176725
0.051108368 0.051274434 0.528176725
0.057559982 0.051274434 0.528176725
0.064918317 0.049904268 0.528578162
0.353591561 0.006451614 0.461805701
0.562357068 0.006451614 0.435612410
0.768226504 0.006451614 0.459447622
0.894120395 0.006451614 0.530568480
0.029334871 0.129886806 0.549180269
0.035786483 0.129886806 0.549180269
0.042238101 0.129886806 0.549180269
0.048790287 0.129618645 0.549568534
0.321434945 0.115815945 0.510235310
0.588803113 0.089566380 0.491024584
0.820482671 0.074979134 0.521849155
0.967844665 0.127955899 0.609835565
0.009347169 0.241742104 0.566357136
0.015798785 0.241742104 0.566357136
0.022250397 0.241742104 0.566357136
0.028702000 0.241726011 0.566406250
0.317926824 0.258264065 0.561530590
0.623147964 0.255982876 0.540210664
0.866923571 0.263703316 0.573619962
0.994682968 0.301182002 0.642562568
0.000000000 0.392336249 0.587426841
0.006451614 0.392336249 0.587426841
0.012903227 0.392336249 0.587426841
0.019354852 0.392330855 0.587426841
0.293221354 0.425729811 0.598279893
0.623093486 0.425661504 0.564142704
0.876830578 0.442892939 0.583861232
0.995161295 0.480429471 0.641055942
0.000000000 0.566254556 0.606544912
0.006451614 0.566254556 0.606544912
0.012903227 0.566254556 0.606544912
0.019354852 0.566254556 0.606544912
0.256284654 0.599356592 0.611053705
0.603021979 0.590885878 0.577160954
0.885265410 0.626297176 0.584254563
0.995161295 0.673833787 0.631369472
0.000000000 0.753674924 0.622331083
0.006451614 0.753674924 0.622331083
0.012903227 0.753674924 0.622331083
0.019354852 0.753674924 0.622331083
0.216853067 0.778779984 0.613161564
0.586218059 0.766905129 0.586743772
0.860672116 0.808075130 0.598406076
0.994270504 0.851987243 0.635531783
0.022415105 0.922193408 0.680763841
0.028866718 0.922193408 0.680763841
0.035318341 0.922193408 0.680763841
0.041769955 0.922193408 0.680763841
0.232739165 0.930104375 0.643164337
0.591456771 0.918131053 0.593789935
0.859551549 0.938272297 0.619732678
0.988270640 0.963262320 0.671093106
0.078540206 0.012735953 0.668550670
0.084991820 0.012735953 0.668550670
0.091443427 0.012735953 0.668550670
0.097895049 0.012735953 0.668550670
0.162395865 0.009121300 0.654069066
0.481095195 0.000000000 0.608364999
0.717328846 0.000000000 0.611182272
0.863366723 0.000000000 0.663115144
0.072814211 0.023607468 0.669321299
0.079265818 0.023607468 0.669321299
0.085717440 0.023607468 0.669321299
0.092169061 0.023607468 0.669319451
0.149314746 0.016820524 0.664113343
0.481882066 0.006451614 0.613521099
0.719240189 0.006451614 0.613523841
0.864418149 0.006451614 0.663882136
0.036787756 0.110003434 0.692037702
0.043239374 0.110003434 0.692037702
0.049690992 0.110003434 0.692037702
0.056142598 0.110003434 0.692037702
0.099345602 0.103199601 0.697609484
0.482247651 0.057058275 0.663786829
0.739804208 0.018923299 0.647038519
0.905904174 0.032097414 0.711563647
0.016731262 0.228035524 0.718225837
0.023182873 0.228035524 0.718225837
0.029634489 0.228035524 0.718225837
0.036086101 0.228035524 0.718225837
0.082505234 0.232443959 0.730579019
0.518729985 0.241650909 0.735632002
0.811339557 0.225633964 0.736798763
0.976359546 0.251771808 0.790730000
0.000000000 0.383831710 0.740060508
0.006451614 0.383831710 0.740060508
0.012903227 0.383831710 0.740060508
0.019354852 0.383831710 0.740060508
0.045782007 0.389793605 0.748829067
0.505102575 0.424087018 0.775241435
0.821208656 0.419449747 0.761479557
0.991848111 0.444825739 0.808662236
0.000000000 0.556814313 0.757914960
0.006451614 0.556814313 0.757914960
0.012903227 0.556814313 0.757914960
0.019354852 0.556814313 0.757914960
0.025917754 0.560533762 0.762447357
0.473819792 0.605550766 0.796472788
0.822054386 0.608991385 0.779126465
0.994103551 0.644141495 0.823729038
0.000000000 0.735524356 0.764053762
0.006451614 0.735524356 0.764053762
0.012903227 0.735524356 0.764053762
0.019354852 0.735524356 0.764053762
0.025806461 0.739621699 0.767304599
0.447358996 0.793971896 0.801494479
0.800371170 0.788209438 0.779282987
0.992705941 0.828074396 0.804389536
0.018209850 0.909268558 0.819748878
0.024661463 0.909268558 0.819748878
0.031113077 0.909268558 0.819748878
0.037564687 0.909268558 0.819748878
0.050405309 0.911444366 0.820945382
0.441542238 0.947523475 0.819509923
0.803744733 0.929333806 0.791101694
0.972108006 0.949566662 0.817926645
0.078308232 0.005666097 0.805815279
0.084759839 0.005666097 0.805815279
0.091211461 0.005666097 0.805815279
0.097663090 0.005666097 0.805815279
0.104114704 0.005666097 0.805815279
0.336505771 0.000000000 0.777651191
0.634025455 0.000000000 0.751874924
0.830010831 0.000000000 0.770287633
0.078168444 0.012867766 0.807295561
0.084620059 0.012867766 0.807295561
0.091071658 0.012867766 0.807295561
0.097523279 0.012867766 0.807295561
0.103974894 0.012867766 0.807295561
0.332386166 0.006451614 0.782400250
0.634449244 0.006451614 0.753888845
0.830718458 0.006451614 0.771295428
0.046020836 0.093108654 0.827726364
0.052472450 0.093108654 0.827726364
0.058924060 0.093108654 0.827726364
0.065375678 0.093108654 0.827726364
0.071827285 0.093108654 0.827726364
0.289517045 0.033222992 0.814116955
0.636776745 0.012903227 0.765813887
0.835157633 0.012903227 0.776972473
0.035481691 0.222143367 0.851808071
0.041933309 0.222143367 0.851808071
0.048384923 0.222143367 0.851808071
0.054836534 0.222143367 0.851808071
0.061288141 0.222143367 0.851808071
0.284336478 0.217806399 0.885315180
0.705829501 0.169520631 0.866366029
0.912007749 0.112792909 0.863740385
0.009987788 0.380462646 0.862515748
0.016439401 0.380462646 0.862515748
0.022891017 0.380462646 0.862515748
0.029342633 0.380462646 0.862515748
0.035794254 0.380462646 0.862515748
0.252603769 0.407271862 0.908303797
0.721226394 0.389354527 0.900513649
0.958399534 0.366125643 0.917502522
0.000000000 0.548587203 0.867615521
0.006451614 0.548587203 0.867615521
0.012903227 0.548587203 0.867615521
0.019354852 0.548587203 0.867615521
0.025806461 0.548587203 0.867615521
0.204409689 0.586995661 0.911310554
0.710944474 0.592611432 0.922936976
0.978802025 0.606447458 0.944868565
0.000000000 0.723106802 0.866763175
0.006451614 0.723106802 0.866763175
0.012903227 0.723106802 0.866763175
0.019354852 0.723106802 0.866763175
0.025806461 0.723106802 0.866763175
0.151592255 0.770948589 0.911524713
0.675821424 0.794856668 0.932964921
0.962715924 0.811252415 0.937058032
0.016376307 0.898094594 0.913571954
0.022827920 0.898094594 0.913571954
0.029279530 0.898094594 0.913571954
0.035731148 0.898094594 0.913571954
0.042182755 0.898094594 0.913571954
0.139915407 0.933097839 0.944329381
0.665481210 0.950790405 0.947934031
0.944949567 0.939842820 0.930492282
