Desert Affinity Presets/Desert Affinity Preset #10.cube
TITLE "32x32x32 Adobe/IRIDAS cube 3D LUT exported with GrossGrade v0.1.027.1 (beta) 64 bit"
LUT_3D_SIZE 8
DOMAIN_MIN 0.000000 0.000000 0.000000
DOMAIN_MAX 0.903226 0.903226 0.903226
0.000000000 0.096050702 0.000000000
0.006451614 0.084317572 0.000000000
0.185298845 0.031106262 0.000000000
0.367819905 0.008785108 0.000000000
0.528871417 0.000000000 0.000000000
0.674886107 0.000000000 0.000000000
0.801631570 0.000000000 0.000000000
0.918332934 0.000000000 0.000000000
0.000000000 0.190149903 0.000000000
0.006451614 0.176916733 0.000000000
0.213683441 0.116748817 0.000000000
0.382052094 0.093624875 0.000000000
0.539268613 0.075612843 0.000000000
0.686765909 0.062127303 0.000000000
0.817464650 0.055502106 0.000000000
0.940216601 0.054344773 0.000000000
0.000000000 0.284044474 0.000000000
0.006451614 0.265439302 0.000000000
0.202868029 0.217922255 0.000000000
0.416488647 0.190443784 0.000000000
0.584960282 0.175520942 0.000000000
0.726180732 0.171391323 0.000000000
0.854938745 0.173844755 0.000000000
0.978551090 0.179693222 0.000000000
0.000000000 0.402013332 0.000000000
0.006451614 0.387776613 0.000000000
0.181744650 0.346244812 0.000000000
0.385634333 0.336832255 0.000000000
0.589791715 0.322790653 0.000000000
0.768024385 0.314119101 0.000000000
0.903601587 0.316265911 0.000000000
0.994816184 0.325484723 0.000000000
0.000000000 0.552256346 0.000000000
0.006451614 0.541074693 0.000000000
0.171735182 0.497292399 0.000000000
0.359170526 0.494917274 0.000000000
0.552288234 0.492495805 0.000000000
0.745532990 0.485596716 0.000000000
0.914113939 0.482793301 0.000000000
0.995161295 0.485688984 0.000000000
0.000000000 0.715921879 0.000000000
0.006451614 0.706213176 0.000000000
0.161643282 0.660978675 0.000000000
0.352914274 0.654959023 0.000000000
0.524599075 0.659447432 0.000000000
0.706845164 0.659482360 0.000000000
0.879565537 0.656607151 0.000000000
0.995161295 0.654651761 0.000000000
0.000000000 0.881824374 0.000000000
0.006451614 0.871574998 0.000000000
0.155246288 0.823879182 0.000000000
0.352353811 0.812031746 0.000000000
0.516825020 0.812604666 0.000000000
0.676680446 0.817686856 0.000000000
0.838558912 0.818619549 0.000000000
0.993052840 0.816293716 0.000000000
0.000000000 0.995161295 0.000000000
0.006451614 0.995161295 0.000000000
0.142069772 0.979617178 0.000000000
0.342475832 0.962846100 0.000000000
0.508960962 0.957915664 0.000000000
0.657785177 0.962234557 0.000000000
0.801534891 0.969526291 0.000000000
0.953208029 0.971673667 0.000000000
0.000000000 0.093891509 0.078496620
0.006451614 0.081335105 0.015841784
0.183179691 0.029046867 0.006451614
0.365092605 0.006016341 0.006451614
0.525919795 0.000000000 0.006451614
0.671981215 0.000000000 0.006451614
0.798958361 0.000000000 0.006451614
0.915937245 0.000000000 0.006451614
0.000000000 0.209627494 0.012511907
0.006451614 0.171407759 0.027040267
0.193116546 0.116470650 0.007113756
0.373507142 0.092031680 0.006451614
0.534850597 0.073675044 0.006451614
0.683320582 0.060589314 0.006451614
0.814937174 0.054992855 0.006451614
0.938660443 0.054973722 0.006451614
0.000000000 0.303789884 0.006451614
0.006451614 0.266630948 0.015724424
0.198305815 0.213791341 0.006451614
0.398668021 0.189442009 0.006451614
0.555662513 0.180084959 0.006451614
0.708343267 0.175679579 0.006451614
0.846224248 0.176917538 0.006451614
0.975304127 0.182159007 0.006451614
0.000000000 0.421219707 0.006451614
0.006451614 0.394771874 0.009289096
0.186513916 0.343435526 0.006451614
0.384000391 0.335624427 0.006451614
0.586069167 0.321732908 0.006451614
0.746671021 0.317086816 0.006451614
0.873548329 0.322943270 0.006451614
0.992557585 0.332112879 0.006451614
0.000000000 0.571243823 0.006451614
0.006451614 0.550787032 0.006451614
0.171890616 0.499740332 0.006451614
0.363953173 0.492768317 0.006451614
0.551727295 0.492369711 0.006451614
0.744450629 0.485055566 0.006451614
0.905466259 0.483501613 0.006451614
0.995161295 0.489467233 0.006451614
0.000000000 0.734547913 0.006451614
0.006451614 0.717431426 0.006451614
0.156994581 0.666329980 0.006451614
0.359200180 0.654325068 0.006451614
0.527323306 0.657783985 0.006451614
0.705802917 0.658868492 0.006451614
0.878370225 0.655627966 0.006451614
0.995161295 0.653367937 0.006451614
0.000000000 0.899966598 0.006451614
0.006451614 0.883184314 0.006451614
0.146669000 0.830167770 0.006451614
0.353902102 0.813470304 0.006451614
0.522509515 0.809926033 0.006451614
0.676937699 0.815297425 0.006451614
0.836701572 0.817185998 0.006451614
0.992876053 0.814435184 0.006451614
0.000000000 0.995161295 0.006451614
0.006451614 0.995161295 0.006451614
0.129935920 0.986071646 0.006451614
0.339255512 0.965631247 0.006451614
0.513616383 0.956172884 0.006451614
0.661852002 0.958649397 0.006451614
0.800727844 0.967101932 0.006451614
0.950979054 0.969878972 0.006451614
0.000000000 0.086231485 0.330074519
0.006451614 0.065768220 0.253588349
0.176623091 0.020663928 0.164303124
0.356533110 0.000000000 0.139557794
0.516972482 0.000000000 0.120624058
0.662984014 0.000000000 0.105386212
0.790068626 0.000000000 0.095548689
0.907384336 0.000000000 0.089397073
0.000000000 0.207312196 0.276294529
0.006451614 0.163551867 0.278413564
0.185133651 0.107618161 0.172391117
0.364938825 0.083535649 0.147604674
0.526815116 0.065603033 0.130072877
0.676048279 0.053110275 0.118017219
0.808519781 0.048183940 0.113533609
0.933458626 0.049193475 0.114978470
0.000000000 0.317588091 0.182993919
0.006451614 0.281197727 0.199343145
0.188573301 0.204480246 0.175387055
0.375250906 0.186317846 0.157220498
0.544730604 0.176108301 0.147007495
0.701627791 0.171449840 0.142355919
0.840461850 0.173073158 0.143979266
0.969615638 0.178493559 0.149399683
0.000000000 0.443750262 0.106508441
0.006451614 0.412458330 0.147561058
0.172984585 0.342495412 0.157816812
0.376924127 0.328966945 0.124545671
0.565143585 0.317625910 0.127640978
0.713497996 0.317782104 0.145164728
0.851517498 0.323052168 0.153552651
0.982503951 0.330875278 0.162156239
0.000000000 0.594591677 0.066029936
0.006451614 0.566633880 0.123246707
0.152010798 0.502869248 0.134859443
0.364612341 0.485845447 0.145625755
0.545646429 0.486720741 0.079220898
0.735952199 0.479207605 0.068072468
0.878981650 0.481317610 0.102925293
0.992693663 0.490694433 0.137073249
0.000000000 0.756672323 0.043740593
0.006451614 0.731900513 0.104297303
0.133712098 0.671175182 0.114581570
0.354073286 0.651500285 0.133873612
0.526594341 0.650120080 0.111131020
0.699254513 0.652753592 0.036927439
0.871175528 0.648969889 0.023629375
0.994992971 0.647563338 0.039491836
0.000000000 0.920015156 0.033482503
0.006451614 0.896155715 0.092256099
0.120624483 0.835346758 0.099507779
0.342730433 0.812302470 0.120006293
0.522299588 0.802795351 0.122832790
0.672899187 0.806868196 0.065139614
0.829258978 0.810174823 0.015525613
0.987701774 0.806920350 0.012903227
0.000000000 0.995161295 0.020058669
0.006451614 0.995161295 0.074752815
0.101565883 0.990599275 0.078479677
0.323970586 0.965205789 0.098975286
0.508868277 0.951308310 0.109462574
0.661228120 0.949665427 0.088614739
0.795116246 0.958838642 0.021475546
0.943079233 0.962410986 0.012903227
0.000000000 0.082974561 0.526009679
0.006451614 0.057150986 0.454925060
0.187809244 0.009784875 0.336409509
0.354393333 0.000000000 0.285477996
0.512746751 0.000000000 0.264238507
0.658541024 0.000000000 0.248784870
0.785774052 0.000000000 0.239127919
0.903464377 0.000000000 0.233386025
0.000000000 0.204174697 0.484170616
0.006451614 0.159970507 0.474033117
0.193119347 0.096010640 0.354046762
0.362366766 0.079136752 0.293006361
0.523231506 0.062184829 0.274351001
0.673124254 0.050543517 0.263000101
0.806536913 0.046659980 0.259508610
0.932044864 0.048291504 0.261571527
0.000000000 0.322394639 0.388771355
0.006451614 0.284234196 0.408438742
0.166101411 0.202874199 0.372977614
0.374505401 0.184703052 0.304708272
0.543965936 0.175414547 0.294717163
0.701187968 0.170970067 0.290681481
0.840562284 0.172966599 0.293105751
0.970207274 0.178690702 0.299262464
0.000000000 0.461747348 0.280773461
0.006451614 0.433855146 0.305627823
0.103304006 0.364737421 0.289265186
0.374214262 0.326688826 0.303968906
0.548253179 0.321037352 0.298317432
0.708620429 0.319856107 0.297135830
0.850539207 0.324553788 0.301833659
0.982183397 0.332461536 0.309741616
0.000000000 0.621273637 0.200914681
0.006451614 0.595202625 0.236589342
0.091266073 0.526378810 0.240129292
0.356617182 0.490443230 0.284402400
0.543834627 0.485335350 0.259544164
0.720031619 0.480101377 0.268766582
0.850590944 0.486806422 0.292828828
0.978239894 0.495189905 0.304327279
0.000000000 0.786539197 0.154909655
0.006451614 0.760366857 0.205168292
0.082505867 0.691875398 0.221862167
0.338686317 0.659116566 0.264490783
0.531479359 0.647421241 0.280579984
0.697011113 0.650937974 0.216817528
0.866234720 0.646680534 0.208918899
0.992836773 0.648754179 0.243737966
0.000000000 0.949564099 0.134787440
0.006451614 0.922195196 0.191967532
0.074279517 0.853554308 0.208667636
0.322826892 0.820521772 0.246655971
0.520521462 0.803313673 0.268405139
0.675405025 0.802446306 0.246175155
0.826062024 0.807411849 0.174304128
0.984617293 0.803830028 0.158679038
0.000000000 0.995161295 0.118189178
0.006451614 0.995161295 0.175423652
0.057904635 0.993334770 0.188733831
0.301286042 0.973749042 0.223125637
0.501462281 0.953905642 0.246825963
0.664775431 0.946294188 0.251541734
0.795118511 0.954450071 0.197937146
0.939627588 0.959391773 0.129781544
0.000000000 0.079599798 0.724545062
0.006451614 0.051247798 0.659625530
0.193210334 0.000371754 0.530748963
0.364736706 0.000000000 0.455158949
0.510785341 0.000000000 0.413092583
0.654332638 0.000000000 0.395151109
0.781615138 0.000000000 0.385514736
0.899697065 0.000000000 0.380169839
0.000000000 0.199921265 0.690109670
0.006451614 0.156142622 0.672122538
0.186508417 0.086558290 0.557262897
0.373243272 0.067946725 0.467501879
0.521817803 0.058014121 0.423689753
0.670564890 0.047926288 0.411002904
0.804911613 0.045201488 0.408437610
0.930959642 0.047510568 0.411077440
0.000000000 0.322204769 0.602431953
0.006451614 0.282077998 0.620013475
0.143698305 0.201351166 0.573362887
0.385258585 0.175871745 0.491858393
0.544442832 0.174064651 0.445872247
0.700740516 0.170689464 0.440799564
0.840216398 0.172976002 0.443379670
0.970211744 0.179147393 0.449948281
0.000000000 0.470419675 0.489971161
0.006451614 0.441667199 0.517113864
0.060474202 0.370500118 0.503794014
0.354174346 0.327523917 0.506713748
0.549106896 0.321013242 0.450099438
0.709163725 0.320473999 0.448854566
0.851136744 0.325112671 0.453909755
0.983038187 0.333121061 0.462347090
0.000000000 0.638950527 0.386574924
0.006451614 0.614825547 0.415196419
0.023864109 0.548905075 0.402029455
0.287860870 0.513603985 0.419474691
0.541776538 0.483695954 0.442328215
0.703507721 0.483878464 0.442510188
0.845611334 0.488767385 0.447396398
0.976850927 0.496277839 0.454904020
0.000000000 0.811271548 0.309393644
0.006451614 0.787594080 0.343313843
0.020575862 0.720676541 0.338145733
0.277849168 0.682529569 0.372363657
0.522916496 0.651453197 0.421494544
0.694477975 0.648834169 0.399129450
0.849063337 0.646328688 0.411078095
0.966123462 0.653004766 0.435115725
0.000000000 0.977479517 0.263235241
0.006451614 0.951487660 0.305282116
0.019812701 0.881117582 0.311358511
0.270509988 0.840108693 0.355526179
0.503715992 0.809507012 0.400309950
0.679155469 0.798612118 0.417189568
0.822572589 0.804341197 0.355654866
0.978895605 0.800671637 0.348344922
0.000000000 0.995161295 0.229797691
0.006451614 0.995161295 0.278188020
0.017205292 0.995161295 0.289952308
0.253946871 0.990273535 0.333998919
0.480597258 0.961160600 0.375208855
0.662407637 0.946223438 0.399229079
0.796914339 0.949313402 0.380964547
0.936010480 0.956202626 0.311014384
0.000000000 0.077036373 0.914634585
0.006451614 0.047098182 0.854148865
0.190681219 0.000000000 0.724615097
0.374687850 0.000000000 0.632531643
0.521425009 0.000000000 0.571797252
0.653699577 0.000000000 0.536130309
0.778553665 0.000000000 0.523805141
0.896915674 0.000000000 0.518688202
0.000000000 0.196271971 0.884788632
0.006451614 0.153113827 0.861739516
0.171722680 0.080442369 0.752499282
0.379569918 0.057029795 0.653517663
0.534087837 0.048702054 0.586049795
0.671499789 0.045264121 0.553502142
0.804338157 0.044399541 0.549191773
0.930830598 0.047412354 0.552234232
0.000000000 0.320872188 0.806400478
0.006451614 0.280160278 0.819036961
0.122323737 0.200840876 0.765512645
0.382574886 0.170338228 0.689734817
0.559200466 0.166757151 0.615002275
0.703105330 0.170306385 0.584668696
0.840950131 0.173657209 0.585418522
0.970972061 0.180083185 0.592015147
0.000000000 0.475677490 0.697264433
0.006451614 0.445587963 0.725636065
0.036885820 0.372135133 0.709902227
0.334900975 0.329121679 0.700964868
0.562323093 0.314644933 0.630459845
0.711677015 0.321150005 0.592796266
0.852501512 0.326647133 0.596586585
0.984206855 0.334635317 0.604872882
0.000000000 0.650423586 0.587226570
0.006451614 0.625843525 0.617490470
0.012903227 0.558792591 0.606334925
0.246847749 0.521192074 0.626572490
0.523184657 0.485978484 0.637256503
0.705428481 0.484930426 0.586111963
0.846909761 0.490147918 0.590623915
0.977889538 0.497283489 0.598177016
0.000000000 0.829400241 0.491107255
0.006451614 0.806739569 0.521188021
0.012903227 0.741268337 0.508478045
0.201502815 0.705769002 0.525721192
0.454458266 0.674909830 0.547617793
0.692382038 0.647166908 0.572630227
0.832236350 0.649815083 0.575266182
0.960689068 0.654531538 0.579990029
0.000000000 0.983960032 0.419647962
0.006451614 0.976517141 0.450811476
0.012903227 0.908174515 0.440068573
0.188144252 0.868654132 0.462299317
0.442446619 0.832493007 0.498504490
0.670248687 0.802298427 0.548510909
0.819834352 0.802038550 0.528510034
0.961720407 0.800325692 0.541245937
0.000000000 0.995161295 0.361972570
0.006451614 0.995161295 0.397060215
0.012903227 0.995161295 0.393575162
0.177544206 0.994333625 0.427419007
0.428265631 0.980739653 0.474819928
0.645982862 0.952800214 0.522266269
0.800891519 0.945711017 0.542963386
0.933056295 0.953674078 0.483652234
0.000000000 0.076210499 0.988709688
0.006451614 0.044737678 0.988709688
0.183004022 0.000000000 0.902068019
0.380388498 0.000000000 0.802008390
0.534264863 0.000000000 0.725477934
0.665816605 0.000000000 0.675464928
0.780408502 0.000000000 0.647634745
0.896161377 0.000000000 0.639654875
0.000000000 0.194041342 0.988709688
0.006451614 0.151541293 0.988709688
0.154663101 0.077306084 0.928365052
0.379091322 0.049557794 0.829748929
0.547051787 0.039754242 0.746754408
0.686287761 0.039052825 0.696674645
0.808425307 0.044102613 0.675204813
0.932400882 0.048609015 0.675478458
0.000000000 0.320316941 0.981502712
0.006451614 0.279943049 0.984614789
0.102690473 0.202078700 0.939710438
0.372647226 0.169088989 0.870154679
0.570389509 0.160704583 0.786196232
0.719723523 0.165340081 0.731699169
0.845820308 0.174919590 0.712165177
0.973630607 0.182513624 0.716313243
0.000000000 0.480118752 0.887253523
0.006451614 0.448937625 0.914619803
0.024559926 0.374430776 0.893459141
0.317000270 0.332090735 0.876907110
0.562747717 0.312219292 0.811772168
0.729239762 0.316654444 0.745057464
0.857398570 0.328786075 0.723309994
0.987160444 0.337540358 0.729453683
0.000000000 0.659541368 0.776302218
0.006451614 0.633890390 0.807905018
0.012903227 0.565385640 0.797857046
0.224097028 0.525105476 0.815284729
0.505998492 0.489664555 0.813927591
0.720382571 0.480293244 0.748527706
0.850957036 0.492368549 0.716430962
0.980283320 0.499844432 0.722203851
0.000000000 0.843337476 0.673000395
0.006451614 0.819976211 0.703915477
0.012903227 0.753891587 0.692688406
0.154186428 0.716858387 0.711557806
0.414413571 0.683467090 0.736005366
0.674325943 0.649983525 0.748417795
0.834748209 0.651445746 0.699781120
0.962261796 0.656173289 0.703808844
0.000000000 0.988035440 0.585210323
0.006451614 0.982922435 0.613529861
0.012903227 0.927791834 0.598740935
0.116034575 0.889473677 0.613172174
0.366512179 0.856132925 0.632589400
0.602141142 0.826108098 0.655314207
0.818500817 0.801133156 0.683097482
0.945649207 0.804555297 0.686508715
0.000000000 0.995161295 0.506424904
0.006451614 0.995161295 0.534100652
0.012903227 0.995161295 0.519915640
0.094729789 0.995161295 0.537052751
0.346836567 0.993531168 0.562853873
0.585590065 0.976660848 0.601658046
0.793232322 0.950636685 0.655842125
0.931325972 0.952375352 0.637830019
0.000000000 0.076312028 0.995161295
0.006451614 0.043321755 0.995161295
0.171578750 0.000000000 0.995161295
0.380959600 0.000000000 0.966888964
0.544637084 0.000000000 0.879769206
0.680123091 0.000000000 0.816035569
0.793668747 0.000000000 0.776771307
0.900319457 0.000000000 0.755261183
0.000000000 0.192707881 0.995161295
0.006451614 0.150738314 0.995161295
0.136458084 0.075595982 0.995161295
0.373129368 0.044815231 0.990597427
0.555456877 0.032610469 0.908388197
0.702697515 0.032285489 0.843373835
0.824727476 0.039836083 0.808168232
0.938412964 0.049481101 0.792919755
0.000000000 0.320132464 0.995161295
0.006451614 0.280792326 0.995161295
0.084089339 0.204346314 0.995161295
0.359457552 0.169820055 0.995161295
0.573940456 0.157260835 0.955921769
0.736335576 0.160041273 0.885504842
0.863463819 0.171567321 0.847653389
0.980166554 0.184656695 0.834228516
0.000000000 0.484081298 0.995161295
0.006451614 0.451980799 0.995161295
0.020370096 0.377546728 0.995161295
0.300059766 0.336018920 0.995161295
0.555029631 0.313177496 0.983638108
0.742425621 0.312593102 0.907701075
0.875682056 0.325490683 0.861457229
0.992288291 0.340220273 0.847074807
0.000000000 0.667351007 0.957693696
0.006451614 0.640533686 0.985214114
0.012903227 0.570628822 0.978176951
0.206635818 0.529020846 0.986782491
0.489414603 0.493958652 0.980641305
0.721751213 0.478820711 0.920242786
0.868992925 0.488335758 0.858609796
0.985443175 0.502241433 0.838629305
0.000000000 0.854636848 0.851732433
0.006451614 0.830310941 0.883654535
0.012903227 0.762913406 0.873531401
0.122314990 0.723901987 0.892975271
0.391835868 0.687545598 0.914337575
0.656984925 0.653504789 0.914373159
0.849284232 0.646377444 0.851220608
0.965983570 0.658062994 0.818733990
0.000000000 0.988709688 0.756094515
0.006451614 0.986335099 0.784904420
0.012903227 0.941009939 0.770910382
0.065348059 0.901718676 0.786467850
0.319014221 0.867052317 0.807707250
0.561912835 0.834483385 0.832968891
0.800517797 0.804013550 0.848410726
0.948343396 0.806356907 0.800657034
0.000000000 0.995161295 0.662934840
0.006451614 0.995161295 0.688809037
0.012903227 0.995161295 0.672195554
0.035553508 0.995161295 0.685212135
0.275143623 0.995161295 0.703595340
0.509923697 0.992561817 0.725462437
0.725660205 0.974984348 0.752634168
0.930506945 0.951990366 0.782386184
