Desert Affinity Presets/Desert Affinity Preset #6.cube
TITLE "32x32x32 Adobe/IRIDAS cube 3D LUT exported with GrossGrade v0.1.027.1 (beta) 64 bit"
LUT_3D_SIZE 8
DOMAIN_MIN 0.000000 0.000000 0.000000
DOMAIN_MAX 0.903226 0.903226 0.903226
0.095036097 0.041879136 0.000000000
0.196331754 0.040043313 0.000000000
0.298666328 0.039209515 0.000000000
0.428699106 0.031747334 0.000000000
0.572223306 0.018592820 0.000000000
0.715667546 0.004537274 0.000000000
0.850428700 0.000000000 0.000000000
0.981994987 0.000000000 0.000000000
0.081972949 0.145653799 0.000000000
0.194261864 0.142075107 0.000000000
0.305910170 0.135129631 0.000000000
0.424753159 0.126415059 0.000000000
0.565310001 0.113476224 0.000000000
0.709890783 0.101000570 0.000000000
0.847838283 0.092209928 0.000000000
0.984311402 0.086509630 0.000000000
0.062671229 0.245606706 0.000000000
0.181757510 0.236616388 0.000000000
0.289166421 0.240315393 0.000000000
0.444195509 0.227770567 0.000000000
0.591739714 0.217765018 0.000000000
0.732156694 0.212955728 0.000000000
0.869702995 0.211704016 0.000000000
0.993409097 0.212004438 0.000000000
0.026144840 0.363634497 0.000000000
0.158686504 0.357739955 0.000000000
0.265456825 0.366584063 0.000000000
0.414078057 0.369528979 0.000000000
0.593758941 0.359756649 0.000000000
0.761987209 0.351718992 0.000000000
0.902700782 0.350836188 0.000000000
0.995161295 0.354066789 0.000000000
0.000000000 0.507992744 0.000000000
0.136366740 0.504666448 0.000000000
0.255463719 0.510979593 0.000000000
0.388662368 0.520827353 0.000000000
0.560488641 0.520876110 0.000000000
0.744118392 0.513736010 0.000000000
0.912571013 0.508419573 0.000000000
0.995161295 0.506941020 0.000000000
0.000000000 0.663222730 0.000000000
0.120221555 0.661074221 0.000000000
0.247335881 0.665790975 0.000000000
0.384185135 0.672136128 0.000000000
0.536456883 0.679193258 0.000000000
0.712044477 0.677833855 0.000000000
0.886174023 0.672030687 0.000000000
0.995161295 0.665968657 0.000000000
0.000000000 0.819801688 0.000000000
0.113256775 0.817181468 0.000000000
0.243938193 0.819634378 0.000000000
0.386768281 0.820562184 0.000000000
0.532259107 0.824399590 0.000000000
0.687992096 0.828356922 0.000000000
0.854095221 0.825677693 0.000000000
0.995008409 0.819012642 0.000000000
0.000000000 0.972867191 0.000000000
0.104627796 0.967849433 0.000000000
0.236364588 0.967073083 0.000000000
0.382839650 0.963565111 0.000000000
0.530643940 0.962383211 0.000000000
0.675871611 0.966298938 0.000000000
0.826279163 0.969833374 0.000000000
0.989169061 0.966845930 0.000000000
0.072527625 0.040232677 0.010970644
0.194731280 0.037619144 0.006451614
0.296969116 0.037704762 0.006451614
0.426397741 0.029556543 0.006451614
0.569693506 0.016023286 0.006451614
0.713160515 0.001833521 0.006451614
0.848120809 0.000000000 0.006451614
0.979890823 0.000000000 0.006451614
0.011186298 0.165647209 0.006451614
0.189130008 0.137363970 0.006451614
0.289688259 0.134749904 0.006451614
0.417576164 0.125132874 0.006451614
0.561118364 0.112002827 0.006451614
0.706471264 0.099851251 0.006451614
0.845201612 0.091909148 0.006451614
0.982486010 0.087185875 0.006451614
0.001892908 0.265804946 0.006451614
0.170711488 0.238213181 0.006451614
0.285153419 0.236735404 0.006451614
0.428405613 0.227068946 0.006451614
0.569291711 0.221218050 0.006451614
0.718687236 0.216305703 0.006451614
0.862841964 0.214235067 0.006451614
0.993145406 0.214178115 0.006451614
0.000000000 0.382878691 0.006451614
0.142628610 0.364679873 0.006451614
0.269933045 0.363844156 0.006451614
0.412573069 0.368454218 0.006451614
0.589836776 0.358964086 0.006451614
0.743691862 0.354440123 0.006451614
0.879839480 0.356197089 0.006451614
0.994353294 0.359284580 0.006451614
0.000000000 0.526817262 0.006451614
0.117759749 0.514170349 0.006451614
0.255318642 0.513235033 0.006451614
0.392996103 0.518677652 0.006451614
0.559928417 0.520751357 0.006451614
0.742772520 0.513314128 0.006451614
0.904191017 0.509299874 0.006451614
0.995161295 0.510312140 0.006451614
0.000000000 0.681575894 0.006451614
0.099943332 0.672005355 0.006451614
0.242407069 0.670864105 0.006451614
0.390016109 0.671367884 0.006451614
0.538809657 0.677637875 0.006451614
0.711087167 0.677311480 0.006451614
0.884975374 0.671264231 0.006451614
0.995161295 0.665051520 0.006451614
0.000000000 0.837677360 0.006451614
0.091303684 0.828574598 0.006451614
0.235174224 0.825728893 0.006451614
0.388075680 0.821912706 0.006451614
0.537650168 0.821808040 0.006451614
0.688162565 0.826279461 0.006451614
0.852496386 0.824509501 0.006451614
0.994831622 0.817503631 0.006451614
0.000000000 0.989378691 0.006451614
0.080827676 0.978951573 0.006451614
0.224202886 0.973477364 0.006451614
0.379605770 0.966343701 0.006451614
0.535135031 0.960798562 0.006451614
0.679788709 0.962980807 0.006451614
0.825573444 0.967815995 0.006451614
0.987285376 0.965393782 0.006451614
0.047272120 0.035860956 0.213854447
0.202074930 0.025344282 0.147251233
0.293690234 0.032572221 0.110249534
0.421106398 0.024448322 0.100404248
0.563991308 0.010730848 0.086982459
0.707383156 0.000000000 0.073226534
0.842404366 0.000000000 0.061900869
0.974428058 0.000000000 0.052218918
0.000000000 0.166620076 0.142829150
0.163689539 0.132796824 0.154852375
0.284953922 0.129182547 0.101076320
0.412136048 0.119884737 0.091066010
0.556121886 0.107113555 0.078713991
0.702103376 0.095443420 0.067486070
0.841517806 0.088012129 0.060499437
0.979867220 0.084167823 0.057088643
0.000000000 0.282769442 0.040949408
0.096471816 0.255850017 0.066776216
0.278644919 0.230649561 0.094322383
0.411632866 0.226142466 0.089824058
0.561932147 0.219763398 0.083443381
0.714459836 0.214786410 0.078469865
0.859409690 0.213078186 0.076754667
0.992817104 0.213163838 0.076840729
0.000000000 0.408129185 0.012903227
0.078759886 0.385034233 0.017676637
0.259008735 0.365565777 0.072711691
0.408363640 0.364678264 0.055900928
0.573396325 0.357613146 0.064144053
0.719932795 0.356588811 0.076490462
0.864759326 0.357936710 0.080319770
0.993553579 0.360107481 0.083242722
0.000000000 0.552734852 0.012903227
0.064260982 0.532547355 0.013325954
0.237946689 0.518855631 0.049670402
0.395935476 0.514396846 0.073102124
0.556599438 0.517853975 0.020602044
0.736726046 0.510399222 0.019071996
0.883470595 0.509595573 0.039364651
0.994389772 0.512985528 0.061881736
0.000000000 0.706160724 0.012903227
0.052353151 0.688944757 0.012903227
0.221609950 0.678181708 0.031352989
0.387325495 0.671084285 0.063208312
0.540410280 0.672744036 0.044781476
0.707376063 0.674032390 0.012903227
0.880395949 0.667611480 0.012903227
0.995161295 0.662346303 0.012903227
0.000000000 0.860228479 0.012903227
0.046810526 0.844069839 0.012903227
0.211711735 0.833483219 0.021713093
0.379533678 0.823374033 0.052895546
0.539924145 0.817483187 0.059546463
0.686686516 0.820907533 0.017508307
0.848078668 0.820513666 0.012903227
0.994398117 0.813136756 0.012903227
0.000000000 0.993458271 0.012903227
0.037672408 0.991929114 0.012903227
0.198570862 0.981196880 0.017777644
0.367074221 0.968673527 0.038168944
0.533066332 0.958769739 0.052641168
0.681765199 0.956969261 0.032711409
0.822722912 0.962722778 0.012903227
0.982481241 0.961014152 0.012903227
0.022862148 0.032315008 0.416225672
0.196028262 0.016456310 0.355042636
0.304610640 0.021391518 0.288746923
0.418727458 0.019276032 0.252712160
0.559499562 0.006177668 0.236985639
0.702618122 0.000000000 0.222972646
0.837722361 0.000000000 0.211779073
0.970057309 0.000000000 0.202447787
0.000000000 0.163202256 0.357148230
0.138949960 0.128929973 0.356897742
0.292639822 0.117245324 0.289131999
0.409210354 0.115105659 0.242762029
0.552057683 0.103235066 0.229168341
0.698531151 0.092289828 0.218512356
0.838706911 0.085741445 0.212364346
0.977516711 0.082430221 0.209490269
0.000000000 0.287174016 0.253089398
0.050422389 0.258362353 0.282096833
0.255492389 0.228366107 0.297961891
0.410036832 0.223717228 0.243150592
0.560208797 0.218221635 0.236942425
0.712983668 0.213424012 0.232560024
0.858423769 0.212044805 0.231618598
0.992756784 0.212390736 0.232404411
0.000000000 0.425253183 0.142935619
0.008595155 0.405520499 0.175951481
0.188409775 0.386839807 0.210021064
0.404938489 0.361680299 0.237622827
0.559322000 0.359391570 0.235319242
0.714865267 0.357429475 0.233365729
0.862517536 0.358413935 0.234341234
0.993396521 0.360674560 0.236609802
0.000000000 0.578401804 0.063705757
0.006451614 0.560073674 0.107116468
0.176158577 0.541293919 0.160693169
0.386827350 0.517930686 0.217522383
0.553974390 0.515648305 0.199317738
0.721643627 0.510411739 0.209377944
0.860910177 0.512948394 0.225288957
0.993072391 0.515564620 0.230399072
0.000000000 0.734925926 0.026335396
0.006451614 0.716311812 0.077737518
0.169340804 0.697786212 0.144382924
0.370888352 0.677639961 0.199602857
0.544067800 0.669183671 0.219034523
0.704420030 0.671504676 0.161615461
0.874489784 0.664832175 0.156258017
0.994351864 0.662634254 0.183556780
0.000000000 0.888718128 0.019354852
0.006451614 0.869085968 0.067550555
0.164418891 0.850716889 0.134498671
0.358720332 0.830676138 0.185453176
0.537201166 0.817165554 0.210890919
0.688178599 0.815903723 0.189535886
0.844352663 0.817221284 0.124225087
0.993999779 0.809649050 0.110602558
0.000000000 0.995161295 0.019354852
0.006451614 0.994029164 0.056625169
0.154096827 0.992334545 0.120617852
0.343604922 0.976418734 0.168351635
0.524878144 0.960591137 0.196050793
0.684358299 0.952968359 0.200970441
0.821831346 0.957922041 0.147433773
0.978560030 0.957529902 0.085768819
0.000589197 0.028462803 0.623756349
0.180968970 0.010065863 0.568730474
0.309547096 0.009067548 0.492083251
0.428616643 0.007559465 0.431375921
0.557076633 0.001290619 0.394784093
0.697922587 0.000000000 0.378245085
0.833005905 0.000000000 0.367003858
0.965620518 0.000000000 0.357973188
0.000000000 0.158473551 0.572089672
0.113771580 0.124609940 0.563971102
0.285507470 0.107266441 0.501290143
0.419517100 0.103312477 0.426121503
0.549971879 0.098364614 0.387236625
0.695124984 0.088818781 0.375071734
0.836031258 0.083263904 0.369670659
0.975334883 0.080589220 0.367326707
0.000000000 0.286357015 0.475618303
0.022242066 0.255471110 0.502425790
0.232194513 0.225941673 0.506917775
0.419767618 0.213827580 0.438713521
0.559614420 0.215784088 0.396443844
0.711385369 0.212016076 0.390954435
0.856858075 0.210893124 0.390127063
0.992624938 0.211656153 0.391283721
0.000000000 0.432859361 0.360585928
0.006451614 0.412223846 0.395857155
0.144452542 0.391453803 0.432913810
0.383714765 0.361317724 0.448644310
0.558914721 0.358155221 0.395308912
0.714065492 0.356815040 0.393261224
0.861724555 0.357725680 0.394596905
0.993348777 0.360085785 0.397391975
0.000000000 0.594853818 0.257696986
0.006451614 0.578435540 0.294032246
0.097872742 0.562538505 0.330878854
0.316809744 0.539781272 0.360879004
0.550899923 0.513000250 0.386851311
0.707688332 0.512298107 0.386142313
0.855541587 0.513480127 0.387327284
0.992836773 0.515488863 0.389341831
0.000000000 0.758363128 0.182692900
0.006451614 0.742241681 0.224158615
0.085992865 0.725308239 0.268972874
0.308819860 0.699794471 0.315812528
0.534255803 0.672013164 0.368237197
0.700994790 0.668512702 0.348797470
0.858136833 0.663571596 0.359155625
0.991027772 0.664740443 0.373702526
0.000000000 0.915681183 0.139416605
0.006451614 0.897174776 0.189235434
0.086896673 0.877121329 0.245623007
0.305311620 0.849148035 0.302811712
0.519339144 0.822298110 0.351332784
0.690692365 0.811194360 0.368114084
0.840133429 0.813432157 0.310613513
0.993376911 0.805964708 0.304464310
0.000000000 0.995161295 0.111308619
0.006451614 0.995161295 0.167919382
0.083389334 0.994576335 0.230406404
0.295288295 0.991619051 0.287829459
0.503046751 0.966866553 0.333065540
0.680967450 0.951978028 0.357119679
0.822496057 0.952087939 0.337146670
0.974276960 0.953679025 0.272093982
0.000000000 0.025236290 0.825356603
0.162189528 0.005208302 0.774711907
0.306354940 0.000133738 0.697443128
0.437918693 0.000000000 0.620242178
0.567067802 0.000000000 0.564958990
0.696594179 0.000000000 0.530626416
0.829177201 0.000000000 0.516636431
0.961967230 0.000000000 0.507707834
0.000000000 0.154151931 0.778268278
0.089176901 0.120888345 0.765068769
0.269983947 0.100412369 0.707951248
0.425043553 0.091580972 0.623481512
0.561339259 0.088117793 0.560815334
0.694994032 0.085058577 0.528593779
0.834236443 0.081223764 0.521292746
0.973934650 0.079229303 0.519312203
0.000000000 0.284159452 0.690905631
0.008232294 0.252557158 0.712617099
0.209669784 0.224285632 0.710085392
0.415834963 0.207042754 0.647506714
0.573107779 0.207180128 0.576429307
0.712446034 0.210283652 0.545602798
0.856215656 0.210192323 0.542881727
0.992556214 0.211181298 0.544024348
0.000000000 0.436831504 0.578804851
0.006451614 0.414827675 0.615245402
0.118080385 0.391724795 0.649834573
0.363044649 0.361522049 0.653664470
0.570727468 0.350344986 0.586388230
0.715135813 0.356038809 0.547858953
0.861605942 0.357795477 0.547891259
0.993291318 0.360146433 0.550539851
0.000000000 0.604901075 0.469145685
0.006451614 0.587995529 0.507075071
0.047910307 0.570946515 0.545925021
0.274340957 0.545892119 0.578696072
0.530822933 0.513803244 0.592472196
0.708125055 0.511896968 0.540407777
0.855323315 0.513444543 0.541240811
0.992775023 0.515126526 0.543331802
0.000000000 0.774995387 0.375138819
0.006451614 0.759893000 0.412784189
0.020141903 0.744432092 0.450073540
0.231080487 0.721585870 0.479982883
0.464434832 0.694069922 0.505218446
0.697819471 0.665771425 0.529671192
0.843862832 0.665140927 0.529036105
0.985580623 0.664833546 0.528734446
0.000000000 0.937552691 0.306657940
0.006451614 0.920816839 0.345645070
0.017515782 0.902834535 0.385258704
0.221692294 0.876402020 0.420574397
0.456848621 0.844030201 0.460557789
0.680544734 0.813686192 0.510411501
0.836488724 0.810209692 0.491005719
0.988190293 0.804654002 0.500751078
0.000000000 0.995161295 0.254475683
0.006451614 0.995161295 0.297819287
0.016374804 0.995161295 0.345091820
0.217738524 0.994492114 0.392350912
0.449582905 0.985282004 0.443792045
0.663398862 0.957402587 0.491289347
0.825130939 0.947505832 0.509281278
0.970465124 0.950293183 0.452322930
0.000000000 0.023482671 0.986598372
0.142373055 0.002060778 0.964627326
0.297742695 0.000000000 0.889957845
0.442694694 0.000000000 0.804780424
0.578968823 0.000000000 0.733663023
0.707726181 0.000000000 0.684927583
0.829977810 0.000000000 0.655337155
0.960036576 0.000000000 0.643429339
0.000000000 0.150965184 0.968090117
0.065743342 0.118322410 0.951495111
0.251885593 0.096231386 0.898778319
0.423441976 0.082967557 0.814583361
0.573048949 0.077882633 0.736244082
0.708372116 0.077398211 0.686315656
0.836826622 0.079385020 0.661752045
0.973948359 0.078847826 0.656937957
0.000000000 0.282411546 0.889207423
0.006451614 0.250990868 0.905724287
0.188534439 0.224020362 0.898802876
0.404360414 0.204238921 0.842387319
0.582721174 0.199533045 0.762037933
0.727452993 0.203683004 0.706982732
0.859437048 0.209775299 0.683917701
0.992602527 0.211895242 0.682572603
0.000000000 0.439718813 0.783254504
0.006451614 0.416568130 0.818633318
0.097342283 0.392365992 0.847750723
0.343451053 0.362803251 0.843925178
0.569432318 0.346194386 0.781986952
0.730985940 0.349787742 0.714363098
0.864775062 0.358171791 0.688819051
0.993389487 0.361297846 0.689315259
0.000000000 0.612306893 0.672553182
0.006451614 0.594304979 0.711795330
0.020781126 0.575788260 0.751716197
0.249853745 0.548044741 0.781673551
0.511898279 0.515744805 0.783395171
0.721368074 0.505531907 0.717092037
0.857690275 0.513960183 0.681290030
0.992843747 0.516024947 0.681636214
0.000000000 0.787164986 0.571344554
0.006451614 0.771375418 0.609826863
0.012903227 0.755315065 0.648619413
0.182099223 0.730982363 0.680172324
0.422764748 0.700972080 0.708002388
0.678173065 0.666985214 0.719865620
0.844787180 0.665232837 0.667950153
0.985545635 0.664987445 0.667002320
0.000000000 0.954544246 0.486613423
0.006451614 0.937987268 0.522794485
0.012903227 0.920857787 0.558424413
0.148084819 0.895668805 0.585988998
0.379435658 0.866148531 0.609222770
0.610991359 0.836009562 0.631826878
0.833979368 0.808134258 0.656708479
0.974689782 0.806836069 0.655412316
0.000000000 0.995161295 0.413480550
0.006451614 0.995161295 0.449458420
0.012903227 0.995161295 0.486058861
0.133510306 0.995161295 0.516634524
0.366746783 0.993984342 0.546508968
0.601603329 0.979826927 0.585370183
0.816021323 0.951036334 0.636775374
0.967596591 0.947846830 0.617660105
0.000000000 0.022443656 0.995161295
0.121934235 0.000033669 0.995161295
0.285212040 0.000000000 0.995161295
0.442164481 0.000000000 0.984673619
0.588224888 0.000000000 0.904958546
0.720876634 0.000000000 0.842448413
0.841976345 0.000000000 0.801304102
0.962775409 0.000000000 0.775706828
0.000000000 0.148517996 0.995161295
0.042910602 0.116364770 0.995161295
0.232455820 0.093288623 0.995161295
0.416156232 0.076899722 0.991310537
0.579977632 0.069248118 0.914532185
0.723152995 0.068962395 0.849493563
0.851445079 0.073414557 0.811131597
0.978254914 0.077970020 0.790740848
0.000000000 0.280863464 0.995161295
0.006451614 0.250307351 0.995161295
0.168257892 0.224609077 0.995161295
0.389469832 0.203264534 0.995138884
0.584524751 0.194319084 0.948143005
0.742279947 0.196570635 0.877128780
0.875265718 0.204571635 0.835691869
0.993024766 0.212151408 0.816713154
0.000000000 0.441949397 0.978942454
0.006451614 0.417832941 0.993640602
0.078526452 0.393656790 0.995161295
0.324658662 0.364871323 0.995028019
0.559831083 0.345262527 0.970324397
0.742286921 0.343822837 0.893246949
0.881183922 0.352968037 0.843190551
0.993794918 0.362077296 0.823131084
0.000000000 0.618241668 0.870251596
0.006451614 0.599051774 0.909700036
0.013965650 0.579108238 0.948285282
0.230483264 0.550053716 0.972546518
0.493420541 0.518130898 0.966366231
0.720861554 0.502169192 0.905069470
0.873907566 0.508086503 0.839762926
0.993165016 0.516622186 0.814368606
0.000000000 0.796548665 0.766340435
0.006451614 0.779804945 0.805843234
0.012903227 0.762459755 0.845764160
0.148410544 0.736184716 0.877928495
0.398410290 0.703268409 0.902703822
0.659087420 0.668770254 0.902236938
0.857640386 0.658474505 0.835839331
0.987631798 0.665221035 0.798367381
0.000000000 0.967352927 0.673867881
0.006451614 0.950155437 0.710591853
0.012903227 0.932338774 0.747058213
0.095743977 0.906220615 0.775790930
0.330329180 0.875417233 0.800879061
0.569160759 0.842761874 0.826051116
0.814384699 0.809412777 0.838562906
0.975770056 0.807079434 0.786070585
0.000000000 0.995161295 0.586527586
0.006451614 0.995161295 0.620734334
0.012903227 0.995161295 0.654942989
0.062920682 0.995161295 0.681408405
0.293513715 0.995161295 0.703884244
0.524396956 0.992915273 0.725830913
0.746914446 0.973806977 0.750231504
0.965480924 0.946162403 0.775349796
