Desert Affinity Presets/Desert Affinity Preset #33.cube
TITLE "32x32x32 Adobe/IRIDAS cube 3D LUT exported with GrossGrade v0.1.027.1 (beta) 64 bit"
LUT_3D_SIZE 8
DOMAIN_MIN 0.000000 0.000000 0.000000
DOMAIN_MAX 0.903226 0.903226 0.903226
0.002087435 0.001710532 0.002957198
0.074654728 0.020206552 0.012318380
0.144625261 0.031629961 0.018573204
0.232933894 0.039820231 0.023065111
0.341692328 0.037457395 0.020613443
0.439373910 0.029509308 0.012136046
0.524913251 0.032401536 0.001563704
0.624568343 0.026875682 0.000000000
0.019039916 0.083050296 0.031690311
0.066215172 0.097102620 0.026766768
0.155331478 0.112574756 0.023644935
0.270084560 0.120898232 0.020009244
0.372885197 0.122277781 0.011779707
0.472857058 0.125692219 0.002242681
0.584454536 0.129520997 0.000000000
0.688690364 0.116637550 0.000000000
0.019972753 0.168112710 0.053220250
0.061657362 0.182928801 0.048643682
0.146695882 0.210961685 0.039927769
0.257272810 0.226477653 0.025341496
0.379748136 0.229907036 0.000123918
0.499412954 0.236012191 0.000000000
0.628136575 0.240342289 0.000000000
0.747454286 0.243960947 0.000000000
0.019778268 0.275974214 0.081517965
0.036849871 0.293881893 0.078188069
0.122381255 0.311525494 0.052142352
0.226939082 0.343922615 0.030331889
0.348214865 0.360123605 0.023854474
0.501914561 0.377432197 0.000000000
0.636708558 0.384460598 0.000000000
0.768578529 0.401005059 0.000000000
0.001052134 0.388081759 0.117324352
0.006951028 0.414564818 0.118217289
0.084533960 0.420449704 0.077649392
0.198897079 0.459651828 0.048054963
0.332708776 0.498336643 0.014543775
0.472292572 0.523445189 0.013597317
0.617849827 0.549846530 0.002477892
0.770255268 0.567985356 0.000000000
0.000000000 0.517596185 0.159474865
0.006801391 0.545055687 0.158674240
0.066874936 0.554238379 0.121831551
0.194126546 0.578667462 0.083783560
0.326399028 0.629016995 0.035375096
0.464226693 0.673104107 0.006472731
0.598999918 0.703737199 0.029151144
0.734427214 0.729188561 0.061843522
0.002133731 0.652342975 0.203701317
0.009025833 0.683932841 0.203120619
0.035688218 0.711272478 0.185755655
0.192147017 0.716426611 0.130912036
0.313722879 0.763312817 0.106371485
0.458068818 0.809282780 0.069711611
0.587682843 0.842017889 0.075293548
0.712011576 0.863804221 0.107502252
0.009578662 0.796658933 0.256820083
0.025400326 0.823500991 0.253078073
0.046762764 0.849725068 0.240782887
0.186583281 0.843257487 0.184770197
0.309320331 0.884122372 0.176460356
0.453301966 0.921244204 0.164379656
0.578727782 0.935384870 0.203191593
0.694015682 0.945604503 0.261042982
0.004372670 0.001993447 0.082272656
0.052305039 0.009287301 0.070732355
0.137853026 0.024812564 0.057084482
0.229206100 0.031621084 0.054344296
0.327822387 0.034595095 0.041991293
0.423358023 0.029822618 0.025047733
0.510112286 0.030800384 0.010370701
0.608166456 0.027227795 0.006451614
0.001513199 0.076342277 0.121749550
0.026120001 0.081034340 0.129095539
0.150214404 0.092425056 0.072950698
0.253492564 0.109129541 0.060207695
0.352530271 0.118408658 0.034381308
0.449562043 0.124291845 0.013135703
0.558214962 0.130540326 0.006451614
0.668712080 0.121997632 0.006451614
0.000492867 0.169933289 0.137053505
0.024461348 0.180049941 0.137959570
0.138480648 0.183456659 0.097285867
0.269568682 0.212867305 0.060048264
0.390982121 0.224538550 0.012293994
0.503713965 0.231953338 0.006451614
0.627457201 0.236870408 0.006451614
0.741280317 0.240329474 0.006451614
0.004055157 0.276956886 0.165520072
0.015710369 0.294190377 0.171374947
0.097168453 0.284026325 0.130587965
0.219509289 0.317044467 0.098731726
0.359770685 0.354483753 0.059361782
0.518783867 0.375186265 0.006464708
0.652668774 0.381053239 0.006451614
0.779606760 0.397869408 0.006451614
0.000000000 0.384501487 0.197559059
0.006487152 0.407241195 0.203846812
0.050550438 0.419089258 0.183256522
0.183976784 0.425587088 0.132161483
0.330112368 0.478625089 0.102698058
0.484438807 0.520805061 0.052906394
0.637430429 0.550275326 0.009941423
0.787110209 0.566695571 0.006451614
0.000000000 0.511208951 0.241166696
0.006451614 0.536944985 0.245654061
0.027383395 0.560774684 0.237733334
0.174876660 0.546438336 0.170644522
0.314143419 0.600903928 0.150014415
0.465374649 0.659676015 0.114770971
0.610705972 0.702761352 0.073843405
0.752532482 0.730094254 0.068519123
0.000000000 0.646774232 0.289212137
0.006451614 0.677316546 0.293621361
0.014261187 0.710817277 0.292904407
0.166522801 0.695327640 0.224358648
0.300604045 0.735673845 0.201891735
0.454408735 0.789162874 0.182806790
0.592275977 0.833810568 0.154436082
0.725770235 0.863404572 0.137380376
0.000918861 0.794843853 0.346513510
0.014217757 0.820851862 0.346726865
0.034054402 0.846406460 0.340087116
0.150402352 0.842959702 0.290068239
0.297491699 0.861028135 0.254125684
0.451195687 0.906530559 0.245021075
0.582551301 0.928276658 0.261858046
0.705011010 0.945535302 0.291280538
0.008028018 0.002236604 0.141316652
0.016343087 0.010896361 0.141674682
0.116603993 0.006398376 0.122651637
0.214982793 0.018776610 0.116125934
0.320614129 0.012887014 0.111557618
0.420388579 0.010823423 0.093060434
0.509716928 0.017951267 0.070027083
0.612433851 0.014540502 0.043176666
0.002065926 0.070869349 0.189642683
0.008846736 0.077802233 0.203678608
0.097324528 0.079863898 0.175578773
0.212721542 0.094598517 0.135823056
0.324487299 0.098291762 0.120885156
0.428976744 0.108109981 0.099332944
0.545507848 0.118386127 0.074480683
0.662330747 0.111205764 0.045143913
0.000053776 0.153608829 0.240057603
0.006451614 0.160584822 0.260304123
0.054639272 0.161503062 0.274329722
0.232950419 0.175345421 0.150616705
0.359844118 0.194658086 0.125402123
0.477469742 0.212971374 0.101358689
0.606059670 0.224122345 0.071484186
0.726267219 0.230664000 0.039699458
0.000000000 0.274905622 0.234108478
0.006451614 0.274878383 0.275089711
0.028506162 0.279347509 0.299921423
0.202361390 0.290132463 0.180048421
0.370006561 0.330386490 0.147018462
0.532403648 0.353313446 0.087116420
0.668938637 0.366844326 0.046485931
0.788913667 0.386947662 0.027989890
0.000000000 0.384132147 0.265543759
0.006451614 0.402859867 0.276815325
0.014988324 0.423941463 0.283304751
0.159370333 0.411190003 0.230015874
0.329904467 0.453915834 0.197632030
0.496034145 0.503190517 0.168253005
0.666049778 0.537441015 0.091663077
0.812538862 0.557250798 0.028760985
0.000000000 0.507483304 0.312118977
0.006451614 0.529238760 0.321780384
0.014848505 0.552874148 0.327851832
0.141049460 0.543972015 0.281853348
0.310548037 0.576793194 0.246931463
0.473401397 0.639798760 0.227859229
0.624967992 0.689062119 0.203816891
0.779609323 0.720943630 0.161529630
0.000000000 0.642662585 0.364380538
0.006451614 0.669783413 0.373945266
0.012903227 0.699558198 0.381869316
0.112959340 0.704155803 0.351429552
0.288344920 0.710092008 0.297959477
0.461900920 0.768944263 0.288566232
0.602671444 0.817912638 0.265945047
0.746022820 0.855288923 0.244179398
0.000000000 0.791633546 0.421975136
0.006745279 0.816044927 0.428114831
0.016351894 0.840791583 0.431539595
0.096485622 0.850656986 0.411740273
0.275613308 0.846216321 0.357149363
0.451476425 0.887075245 0.344277859
0.588435769 0.918814719 0.342194855
0.721566439 0.944594622 0.356951594
0.015110016 0.002310484 0.203846529
0.020893412 0.008462434 0.213537678
0.036337744 0.010061664 0.223614186
0.207539901 0.000026654 0.200308233
0.297016293 0.004128578 0.182822779
0.392147034 0.008265573 0.176538035
0.499199003 0.001507589 0.163590640
0.610476673 0.000532614 0.149426490
0.002257644 0.073903255 0.235990778
0.008251469 0.083759598 0.244360223
0.017567219 0.088541940 0.258696467
0.164034724 0.080541976 0.227918744
0.285455853 0.091813363 0.200555161
0.404291928 0.093887217 0.190989509
0.537656069 0.080858074 0.180273041
0.659064174 0.059783161 0.166096389
0.000000000 0.161595166 0.276059866
0.006654560 0.151528627 0.322037637
0.013106636 0.158644781 0.338950276
0.151213601 0.166118041 0.280127466
0.304162294 0.178306311 0.220471621
0.445828140 0.189687178 0.215102196
0.580268502 0.192757040 0.203473359
0.705832183 0.202867121 0.192328557
0.000000000 0.266101569 0.297335356
0.006451614 0.251851916 0.363191754
0.012903227 0.249437287 0.408527374
0.061680101 0.258725047 0.431453735
0.336183995 0.279227197 0.292893440
0.499721915 0.310744733 0.239084154
0.639135063 0.332489341 0.224967599
0.765584171 0.360939443 0.213862449
0.000000000 0.380515426 0.334242791
0.006451614 0.396896839 0.353488564
0.012903227 0.393227130 0.415304601
0.036397554 0.392542005 0.467031896
0.309120208 0.432561159 0.364933819
0.512595654 0.479781151 0.286164522
0.692770422 0.510520518 0.244757205
0.825287223 0.534080207 0.224076763
0.000000000 0.507587254 0.386625558
0.006451614 0.525558293 0.403397679
0.012903227 0.544235885 0.415577203
0.049438402 0.559872866 0.416886926
0.274696618 0.564955533 0.371128649
0.481416851 0.622687995 0.350564808
0.642983913 0.671207666 0.331150353
0.806637526 0.703972042 0.296770245
0.000000000 0.641019642 0.442445636
0.006451614 0.663605392 0.456988752
0.012903227 0.687031567 0.469096571
0.048345994 0.707698703 0.471628398
0.250530183 0.703249395 0.426633745
0.464144081 0.752774179 0.414296448
0.608387232 0.796210945 0.385427386
0.766825855 0.842566550 0.365485817
0.000000000 0.787362218 0.499924362
0.006451614 0.807812870 0.510862172
0.012903227 0.828886867 0.519337475
0.033762533 0.849480867 0.522611201
0.241146415 0.840320230 0.476474226
0.437702805 0.869885623 0.458616257
0.587558925 0.906195641 0.444142401
0.735699952 0.941904902 0.447051555
0.030708302 0.000351179 0.283679664
0.039829548 0.002422716 0.298641652
0.050187118 0.003096079 0.313733876
0.125719666 0.000505025 0.313223392
0.279761642 0.000000000 0.276242524
0.368113369 0.000084638 0.254084706
0.471820533 0.001406591 0.255337685
0.594188690 0.000000000 0.255539626
0.006430644 0.062854871 0.309722513
0.012405759 0.070542946 0.321688592
0.018766189 0.076585494 0.333481610
0.058076687 0.072196923 0.338745922
0.239361733 0.069413170 0.299502850
0.373153985 0.087282598 0.279511064
0.510767996 0.064698234 0.281258792
0.648672462 0.010904712 0.279097021
0.000187513 0.151409090 0.334829152
0.006488088 0.159536362 0.347837865
0.012944376 0.169231117 0.362524539
0.028094083 0.176924184 0.377245724
0.241073370 0.172044098 0.332673103
0.408812553 0.185153261 0.318177283
0.552252531 0.181576803 0.317548841
0.691547930 0.169597045 0.316096425
0.000000000 0.254656941 0.364377409
0.006451614 0.267080694 0.383814335
0.012903227 0.277309358 0.407453477
0.024173142 0.283603579 0.434702605
0.232737854 0.282658845 0.393021554
0.435370654 0.298563540 0.362465650
0.591055095 0.310582548 0.357857913
0.737600267 0.331562757 0.359699428
0.000000000 0.373895109 0.407640785
0.006451614 0.390226841 0.431454986
0.012903227 0.395649672 0.472979397
0.019354852 0.374992311 0.558731377
0.138286293 0.387426168 0.588723838
0.469661593 0.423981160 0.499503136
0.643640637 0.467590481 0.403766721
0.793296635 0.498781025 0.399744064
0.000000000 0.501910090 0.463924527
0.006451614 0.518758714 0.484846562
0.012903227 0.535462439 0.499921978
0.019478291 0.535996556 0.553761542
0.078864902 0.535612226 0.628020465
0.443271995 0.593078136 0.604010403
0.650104523 0.645613194 0.459443331
0.825465262 0.675515294 0.429208219
0.000000000 0.639764845 0.522677779
0.006451614 0.660402119 0.540519953
0.012903227 0.680770576 0.555242717
0.019354852 0.701852024 0.568085015
0.168048233 0.706789196 0.549466848
0.426501870 0.733302832 0.535137534
0.607801616 0.774232090 0.507273734
0.780482531 0.824593127 0.491905451
0.000000000 0.788001895 0.582632184
0.006451614 0.806199849 0.596575439
0.012903227 0.823345304 0.608006597
0.019742025 0.841197670 0.617003500
0.160352662 0.843458116 0.598550320
0.388258219 0.852987289 0.569724143
0.575524271 0.886357605 0.548990488
0.746544838 0.936024010 0.548421443
0.054030582 0.000000000 0.360855579
0.064366661 0.000010288 0.372260720
0.074716799 0.000000000 0.384027660
0.086671285 0.000000000 0.395494103
0.202072665 0.000000000 0.383266836
0.342859149 0.000000000 0.354576051
0.450911552 0.000000000 0.349642366
0.563271880 0.000000000 0.353005290
0.024166830 0.041380625 0.375527322
0.026064334 0.048711374 0.386030018
0.028219968 0.055081248 0.397150397
0.036342371 0.060292359 0.411057144
0.154174596 0.043213155 0.407127380
0.336600065 0.052592602 0.382344157
0.488280654 0.038982209 0.382619113
0.614437461 0.013759032 0.382320970
0.003379922 0.137571111 0.397730470
0.009852575 0.146104157 0.411713690
0.016304664 0.156256482 0.426770687
0.022778725 0.167537287 0.443740726
0.082144290 0.170338631 0.453015208
0.350910872 0.173388377 0.425497204
0.517639577 0.175247997 0.426184922
0.653999329 0.176426813 0.428967118
0.000000000 0.242759109 0.430813313
0.006451614 0.255429119 0.450874507
0.012903227 0.269008458 0.472938091
0.019354852 0.283644050 0.493071049
0.066993505 0.293950707 0.503428757
0.356902122 0.291915447 0.480237752
0.545901000 0.309803218 0.475346327
0.695618510 0.329369515 0.479322523
0.000000000 0.366002560 0.481105477
0.006451614 0.381498605 0.506792426
0.012903227 0.396797061 0.530774236
0.019354852 0.411924124 0.548740625
0.068334132 0.424634308 0.554836035
0.353934616 0.430153251 0.542489469
0.562983155 0.450707614 0.525951147
0.733309925 0.475363404 0.527017355
0.000000000 0.495378971 0.538513064
0.006451614 0.513083339 0.564567029
0.012903227 0.531635463 0.585926950
0.019354852 0.549663424 0.602147162
0.031697482 0.547444880 0.669777632
0.342725545 0.566214859 0.718977988
0.595567465 0.579475999 0.669524133
0.769042075 0.628383100 0.570022404
0.000000000 0.636803508 0.605313778
0.006451614 0.656435311 0.627549291
0.012903227 0.674801230 0.643582404
0.019354852 0.692221761 0.656249285
0.047594026 0.702250779 0.686766744
0.284446925 0.698030055 0.757232547
0.576129138 0.743947446 0.799640357
0.788122475 0.794274807 0.629880011
0.000000000 0.782901585 0.667544782
0.006451614 0.799803615 0.682215631
0.012903227 0.815676212 0.693362772
0.019354852 0.831246018 0.702823997
0.030265644 0.848394573 0.710455894
0.300976247 0.853359342 0.686699390
0.537722051 0.880317867 0.684329033
0.749956846 0.930252671 0.662833571
0.071929030 0.000000000 0.421716660
0.082123920 0.000000000 0.433700830
0.092340760 0.000000000 0.445831925
0.102809608 0.000000000 0.458719701
0.118644699 0.000000000 0.470173061
0.269553840 0.000000000 0.457498550
0.419978619 0.000000000 0.446099550
0.540804386 0.000000000 0.448358357
0.049332950 0.026073657 0.437539995
0.052650601 0.030717121 0.448766381
0.056169298 0.034672204 0.460739166
0.060264144 0.038833030 0.473644406
0.066584378 0.041116379 0.488744974
0.270507813 0.025057079 0.484940141
0.456178486 0.013632784 0.475936741
0.588286579 0.009477549 0.480313748
0.011542130 0.124218851 0.458461851
0.018713882 0.133375689 0.473631680
0.025924403 0.143843338 0.490574598
0.033589020 0.155228823 0.511104047
0.041580025 0.166129366 0.532570004
0.213838831 0.162293509 0.533347607
0.459441304 0.157737166 0.522937000
0.614238322 0.165186226 0.526089489
0.000832355 0.231937796 0.498095155
0.007670219 0.244765446 0.520877957
0.014079744 0.258493721 0.544617414
0.020315787 0.272952974 0.567787647
0.026787985 0.287462831 0.587037086
0.193205103 0.290876687 0.589730263
0.474761546 0.302750736 0.579219222
0.647959471 0.321007907 0.575528860
0.000000000 0.355630964 0.553692102
0.006451614 0.370635659 0.581071198
0.012903227 0.386082262 0.607834041
0.019354852 0.402396142 0.629443586
0.025806461 0.420488209 0.644644797
0.175850123 0.435916156 0.651752651
0.482729465 0.448380440 0.649240077
0.676597714 0.467248112 0.627708554
0.000000000 0.490185738 0.616955757
0.006451614 0.509964943 0.647861242
0.012903227 0.529296756 0.673886299
0.019354852 0.547317982 0.692099631
0.025806461 0.564703882 0.705308259
0.168134898 0.582766175 0.710255504
0.487583190 0.596778572 0.707758188
0.689934134 0.605297863 0.679324508
0.000000000 0.635367036 0.686581910
0.006451614 0.654615819 0.711857855
0.012903227 0.672490358 0.729421973
0.019354852 0.689347267 0.742585421
0.025806461 0.705580056 0.752495766
0.164696008 0.719382226 0.763077974
0.501280546 0.734571278 0.819572985
0.726360440 0.743360996 0.816231430
0.000000000 0.775044739 0.744315088
0.006451614 0.791609049 0.760899067
0.012903227 0.806816459 0.773004293
0.019354852 0.822177887 0.782693744
0.025806461 0.837739766 0.791201711
0.173815459 0.853590667 0.791387856
0.442747056 0.860245585 0.864630759
0.730436444 0.935712397 0.896602809
0.089068964 0.000000000 0.482610792
0.099500939 0.000000000 0.494690925
0.110170670 0.000000000 0.507546902
0.120858878 0.000000000 0.522207201
0.131060138 0.000000000 0.537303269
0.153220057 0.000000000 0.551131010
0.361071140 0.000000000 0.538952529
0.500697374 0.000000000 0.533269942
0.080593459 0.014583916 0.499461472
0.091004834 0.014856064 0.513473392
0.101212330 0.014852798 0.528639436
0.112359166 0.014549773 0.545312643
0.115729198 0.018963587 0.563135564
0.139989987 0.018903285 0.581476450
0.397337735 0.007646838 0.572032452
0.547117233 0.006455823 0.570583284
0.022300130 0.107800253 0.522515118
0.030169509 0.116377838 0.541405380
0.038244694 0.126579344 0.561606288
0.046494283 0.138091952 0.583548009
0.055197474 0.149065331 0.606508434
0.070684351 0.159446999 0.625317872
0.358860970 0.143051565 0.621465147
0.563639998 0.139296636 0.624192357
0.011107267 0.219622195 0.569425285
0.019314261 0.232515797 0.593548536
0.027241701 0.246092066 0.617605746
0.035291165 0.260411084 0.641547680
0.043006700 0.275832713 0.663059413
0.049774896 0.290463537 0.679036319
0.357519567 0.298682064 0.689027429
0.593616426 0.312603235 0.686114967
0.000016834 0.344063342 0.628221989
0.006586287 0.359799147 0.655847609
0.013413866 0.377982199 0.683699548
0.020241912 0.398072392 0.708693504
0.026304470 0.418021888 0.726393044
0.035088066 0.437258095 0.739783585
0.353088796 0.454386264 0.754854500
0.613608897 0.468385011 0.749394596
0.000000000 0.486728758 0.695990622
0.006451614 0.506371439 0.726643264
0.012903227 0.525520861 0.753963172
0.019354852 0.543982923 0.773778617
0.025806461 0.562364638 0.787033558
0.032566678 0.581203997 0.796605110
0.350893050 0.601724148 0.807446718
0.616569638 0.608667552 0.807088494
0.000000000 0.632563114 0.764217317
0.006451614 0.651425600 0.791820586
0.012903227 0.668872893 0.812139034
0.019354852 0.685024977 0.825855434
0.025806461 0.700409293 0.835570216
0.032697622 0.715464711 0.842219710
0.352845609 0.737657607 0.850040317
0.617251158 0.749087095 0.849532723
0.000000000 0.769018650 0.820385277
0.006451614 0.784979105 0.839486063
0.012903227 0.800309837 0.852738261
0.019354852 0.816099107 0.862991393
0.025806461 0.832182586 0.871122837
0.032258086 0.849197865 0.879497826
0.333158314 0.875101149 0.888197184
0.644897342 0.917108595 0.922688723
