Desert Affinity Presets/Desert Affinity Preset #6.cube
TITLE "32x32x32 Adobe/IRIDAS cube 3D LUT exported with GrossGrade v0.1.027.1 (beta) 64 bit"
LUT_3D_SIZE 5
DOMAIN_MIN 0.000000 0.000000 0.000000
DOMAIN_MAX 0.903226 0.903226 0.903226
0.095036097 0.041879136 0.000000000
0.271095037 0.039692141 0.000000000
0.499689728 0.025525253 0.000000000
0.749972224 0.001398175 0.000000000
0.981994987 0.000000000 0.000000000
0.069187857 0.219935879 0.000000000
0.263915062 0.214109614 0.000000000
0.512826085 0.193192393 0.000000000
0.758039892 0.181595281 0.000000000
0.992789090 0.179082513 0.000000000
0.010121049 0.433602244 0.000000000
0.232444137 0.433922112 0.000000000
0.485726684 0.443578720 0.000000000
0.799053788 0.429703206 0.000000000
0.995161295 0.429212630 0.000000000
0.000000000 0.702478826 0.000000000
0.214013085 0.703461051 0.000000000
0.457296640 0.713248253 0.000000000
0.748744905 0.715955198 0.000000000
0.995161295 0.704813242 0.000000000
0.000000000 0.972867191 0.000000000
0.202817068 0.967324793 0.000000000
0.457373619 0.962263405 0.000000000
0.712208331 0.967642725 0.000000000
0.989169061 0.966845930 0.000000000
0.053265087 0.036635343 0.164877847
0.266881853 0.034038678 0.074504405
0.492814749 0.018973021 0.058196336
0.742809236 0.000000000 0.034375556
0.975419641 0.000000000 0.018183896
0.000000000 0.252176017 0.016341032
0.253609985 0.204563916 0.060466576
0.485046715 0.193227738 0.049130671
0.748052180 0.181823507 0.037726488
0.992379427 0.179459706 0.035362687
0.000000000 0.471921355 0.011290320
0.216337100 0.440023869 0.020534605
0.481718510 0.440321803 0.012972799
0.773462653 0.430595517 0.016871296
0.993974507 0.436288059 0.038438670
0.000000000 0.737741232 0.011290320
0.186430052 0.716182351 0.012298498
0.465089917 0.708308876 0.027504873
0.744396508 0.712363005 0.011290320
0.995161295 0.700552464 0.011290320
0.000000000 0.992883027 0.011290320
0.167020842 0.980792224 0.011290320
0.453421354 0.962557733 0.017617619
0.715525806 0.959545791 0.011290320
0.983424485 0.961849034 0.011290320
0.010481122 0.030372052 0.520010948
0.281400561 0.014125697 0.405541271
0.487035245 0.009952719 0.324031115
0.734536350 0.000000000 0.297544360
0.967754543 0.000000000 0.280169725
0.000000000 0.255025268 0.392066747
0.211784750 0.199262410 0.416556597
0.481650740 0.188380584 0.317891359
0.745148599 0.179245725 0.307510674
0.992187262 0.177796602 0.306783557
0.000000000 0.508134246 0.199623391
0.093331084 0.477791339 0.261593819
0.476768166 0.436123669 0.312239408
0.749412537 0.434361815 0.310478508
0.993208468 0.437983871 0.314093173
0.000000000 0.786828816 0.086299293
0.078481458 0.755624175 0.181760520
0.448642612 0.714062691 0.280642927
0.738539159 0.707259655 0.245971084
0.993691146 0.698572695 0.264216185
0.000000000 0.995161295 0.048455212
0.073703878 0.993865073 0.160464302
0.422554642 0.971999645 0.251098722
0.720159173 0.951434970 0.279553264
0.976432502 0.955611408 0.178977937
0.000000000 0.024676526 0.873232365
0.270217359 0.000000000 0.767145514
0.505186319 0.000000000 0.633904040
0.730291486 0.000000000 0.562561512
0.961367726 0.000000000 0.542703927
0.000000000 0.249698982 0.766401947
0.170737550 0.194734544 0.770939410
0.499686122 0.171988711 0.649951160
0.745347202 0.176214799 0.576851308
0.992004871 0.176672697 0.574288964
0.000000000 0.521350622 0.574893534
0.021729846 0.487740099 0.642500222
0.441166371 0.437041581 0.672067404
0.750283718 0.433784485 0.581025124
0.993159413 0.437928110 0.583920062
0.000000000 0.820312321 0.403879285
0.011290320 0.793861330 0.469737679
0.326092958 0.752297699 0.520495951
0.732634842 0.702097952 0.562609375
0.982550621 0.700769484 0.561280727
0.000000000 0.995161295 0.292764276
0.011290320 0.995161295 0.366458744
0.312684327 0.993619502 0.442095667
0.702076614 0.955554664 0.528589606
0.969586253 0.949519336 0.494677186
0.000000000 0.022443656 0.995161295
0.245797381 0.000000000 0.995161295
0.516754329 0.000000000 0.943823576
0.751641333 0.000000000 0.830415308
0.962775409 0.000000000 0.775706828
0.000000000 0.245872945 0.995161295
0.133242220 0.193753302 0.995161295
0.495763958 0.163000122 0.981037438
0.772315264 0.164473832 0.857760489
0.992474794 0.177155182 0.811144054
0.000000000 0.529223800 0.924865127
0.011290320 0.491737127 0.985600293
0.408393115 0.440790415 0.991301119
0.774411500 0.423487067 0.881404936
0.993609786 0.439577997 0.820177972
0.000000000 0.840151906 0.742491484
0.011290320 0.811192989 0.811337054
0.253451109 0.764760494 0.866138458
0.698522687 0.704508066 0.886157632
0.984362841 0.701131701 0.794993877
0.000000000 0.995161295 0.586527586
0.011290320 0.995161295 0.646950364
0.177363038 0.995161295 0.692922831
0.580599308 0.992230713 0.731726289
0.965480924 0.946162403 0.775349796
