Desert Affinity Presets/Desert Affinity Preset #25.cube
TITLE "32x32x32 Adobe/IRIDAS cube 3D LUT exported with GrossGrade v0.1.027.1 (beta) 64 bit"
LUT_3D_SIZE 5
DOMAIN_MIN 0.000000 0.000000 0.000000
DOMAIN_MAX 0.903226 0.903226 0.903226
0.002087435 0.001710532 0.002957198
0.184086025 0.017060928 0.046790492
0.431141436 0.000158989 0.071624599
0.669004500 0.000000000 0.101834111
0.910655081 0.000052373 0.190953448
0.225610405 0.106415510 0.021774465
0.351713270 0.111615710 0.057456825
0.603184998 0.059266262 0.086968482
0.873534679 0.015525971 0.171149269
0.979547918 0.259880126 0.359949857
0.528584599 0.201853067 0.000000000
0.670019209 0.211625099 0.036310315
0.848510265 0.245921567 0.136922330
0.972977936 0.356884539 0.347968727
0.984088600 0.338610828 0.423363626
0.878339231 0.358131319 0.018628364
0.952303410 0.440060407 0.204586238
0.967561364 0.491445839 0.319986135
0.980130434 0.511388063 0.385314316
0.991865695 0.508917809 0.467369050
0.946096063 0.563726127 0.254297107
0.957946360 0.595450640 0.261052191
0.970375896 0.629048467 0.321508020
0.982533336 0.661244094 0.415153354
0.994205832 0.680308938 0.500263870
0.045681763 0.002505011 0.066684976
0.181595504 0.022196304 0.061369605
0.386811018 0.003066622 0.084451057
0.592942178 0.000000000 0.114866063
0.823559642 0.000000000 0.189502984
0.075756475 0.148658887 0.039135840
0.174581036 0.144337982 0.107443303
0.420505792 0.128004685 0.137767375
0.709959686 0.019286077 0.213795766
0.963476121 0.086655766 0.358044833
0.364149064 0.266899914 0.011290320
0.496564627 0.276916564 0.057111908
0.668932796 0.298099488 0.184097677
0.939621806 0.323023200 0.336725920
0.986226380 0.369013727 0.477472723
0.727631688 0.409872413 0.011290320
0.859340310 0.451186955 0.041405648
0.964652717 0.514596939 0.285686821
0.982045412 0.562272251 0.434003323
0.993216574 0.556434453 0.522577941
0.946689785 0.615203738 0.262007624
0.958108664 0.643302739 0.267976135
0.970197618 0.675848722 0.341802925
0.982348323 0.713664591 0.465515852
0.993930936 0.741330624 0.563034296
0.087524481 0.002124373 0.131412283
0.280972958 0.004150554 0.106757492
0.430121303 0.002043476 0.100440450
0.608159184 0.000000000 0.122868523
0.816799939 0.000000000 0.189305872
0.006102845 0.175839350 0.127874047
0.230235860 0.127705067 0.167129010
0.415614873 0.140404612 0.152700081
0.650578976 0.079514928 0.216604099
0.899112701 0.060072392 0.346690685
0.113652766 0.347081602 0.052383184
0.261719197 0.346208721 0.094165996
0.444422126 0.340870202 0.233575955
0.755157232 0.333628178 0.346336573
0.987600625 0.392837822 0.514484406
0.517180383 0.494300306 0.025588347
0.706644475 0.515867889 0.022580640
0.834016979 0.538578689 0.231047645
0.974744976 0.603693247 0.459883392
0.994522989 0.602835834 0.574778080
0.895648479 0.664072096 0.029664084
0.957793474 0.698249221 0.267784089
0.969857514 0.724461794 0.354735434
0.981851935 0.764251828 0.510836661
0.993578553 0.806653321 0.630552411
0.142244846 0.000286180 0.219021708
0.361530393 0.000000000 0.158725843
0.503271997 0.000000000 0.140229180
0.670585513 0.000000000 0.152445287
0.852148056 0.000000000 0.212519690
0.000103810 0.150484264 0.294779718
0.290350616 0.111018844 0.239579603
0.522092164 0.100491561 0.222554609
0.709774852 0.059020746 0.252974778
0.917804956 0.105218358 0.361573100
0.000583583 0.400994211 0.070577830
0.084055848 0.348983526 0.228261948
0.523670673 0.310290575 0.340133488
0.745991707 0.348746926 0.357277066
0.966751635 0.385294825 0.488300323
0.185553044 0.575645804 0.047809653
0.401048720 0.597631216 0.056272555
0.588190079 0.609806538 0.242369339
0.780277610 0.622010350 0.474032909
0.994597614 0.633196592 0.609228551
0.677419662 0.751861751 0.098457508
0.856841803 0.766789377 0.051128782
0.967604101 0.783558786 0.291407973
0.981331050 0.807038307 0.525858402
0.993119836 0.872617722 0.699505508
0.197630361 0.000000000 0.313910335
0.424522847 0.002678030 0.230102360
0.598414898 0.000000000 0.215376005
0.753161550 0.000000000 0.219102293
0.918627918 0.000576101 0.274403065
0.006313739 0.112552881 0.407873631
0.365394592 0.078822844 0.337055802
0.622914255 0.015208470 0.321965545
0.801949263 0.025431916 0.345209688
0.967596471 0.153691128 0.423822939
0.000000000 0.400813639 0.261739910
0.011596608 0.344089180 0.474607915
0.604618907 0.301009446 0.466192037
0.845493138 0.333155245 0.472101539
0.988646507 0.420942426 0.542978227
0.008885159 0.656918526 0.075337462
0.069574386 0.654711664 0.198094666
0.422898918 0.580283105 0.384412289
0.846066952 0.586194634 0.591607034
0.994231403 0.640873075 0.615475714
0.333772689 0.833598733 0.098054670
0.556768954 0.852740586 0.122054085
0.741819620 0.864537716 0.260287195
0.893278301 0.875850618 0.478767753
0.992760599 0.906389534 0.741415679
