Desert Affinity Presets/Desert Affinity Preset #7.cube
TITLE "32x32x32 Adobe/IRIDAS cube 3D LUT exported with GrossGrade v0.1.027.1 (beta) 64 bit"
LUT_3D_SIZE 5
DOMAIN_MIN 0.000000 0.000000 0.000000
DOMAIN_MAX 0.903226 0.903226 0.903226
0.137060300 0.045039307 0.000000000
0.308679551 0.044047922 0.000000000
0.533043802 0.031033283 0.000000000
0.779175878 0.008019608 0.000000000
0.993720591 0.000000000 0.000000000
0.113084905 0.222356468 0.000000000
0.303386837 0.217726216 0.000000000
0.548061669 0.197957322 0.000000000
0.789131105 0.187469333 0.000000000
0.995161295 0.186065987 0.000000000
0.053479295 0.436237633 0.000000000
0.271369189 0.437752962 0.000000000
0.520406842 0.448561877 0.000000000
0.829591572 0.435794979 0.000000000
0.995161295 0.436407030 0.000000000
0.014761658 0.705707371 0.000000000
0.251421273 0.707899868 0.000000000
0.490462899 0.718834817 0.000000000
0.777757585 0.722650051 0.000000000
0.995161295 0.712618232 0.000000000
0.000141689 0.976971924 0.000000000
0.238056198 0.972624600 0.000000000
0.488368779 0.968713939 0.000000000
0.739066601 0.975203335 0.000000000
0.994175076 0.975515246 0.000000000
0.091657229 0.036163464 0.056451198
0.300845742 0.034762479 0.011290320
0.522534490 0.020845827 0.011290320
0.768387377 0.000000000 0.011290320
0.992755413 0.000000000 0.011290320
0.000000000 0.250972778 0.011290320
0.289446712 0.204544693 0.011290320
0.516641915 0.194354877 0.011290320
0.775501609 0.184070453 0.011290320
0.994699776 0.182807431 0.011290320
0.000000000 0.470924765 0.011290320
0.251631707 0.440223068 0.011290320
0.512774825 0.441666603 0.011290320
0.800376296 0.433060288 0.011290320
0.995161295 0.439843714 0.011290320
0.000000000 0.737348974 0.011290320
0.220202491 0.716989756 0.011290320
0.494621098 0.710258722 0.011290320
0.769786656 0.715427816 0.011290320
0.995161295 0.704723895 0.011290320
0.000000000 0.992926478 0.011290320
0.198625550 0.982460082 0.011290320
0.480790794 0.965369940 0.011290320
0.738752306 0.963471353 0.011290320
0.993302524 0.966883183 0.011290320
0.047757108 0.028784040 0.425990939
0.314236999 0.013733370 0.312717766
0.515627265 0.010706060 0.232359380
0.758991659 0.000000000 0.206989244
0.988132656 0.000000000 0.190716624
0.000000000 0.252695024 0.299928129
0.246508464 0.198122352 0.325613767
0.512130976 0.188383162 0.228097558
0.771480441 0.180374861 0.218832344
0.994389772 0.180024475 0.219205603
0.000000000 0.506013393 0.106937788
0.127504647 0.476874352 0.170112059
0.506699979 0.436350644 0.221901596
0.775198638 0.435705543 0.221260652
0.995161295 0.440422028 0.225974008
0.000000000 0.785312593 0.022580640
0.111133225 0.755304158 0.088759869
0.477042884 0.714891255 0.188788101
0.762813151 0.709202170 0.155231297
0.995161295 0.701615334 0.174578518
0.000000000 0.995161295 0.022580640
0.104187235 0.993902981 0.065295413
0.448801517 0.973689079 0.157075539
0.742264986 0.954241037 0.186650097
0.992545009 0.959518075 0.087171838
0.006209006 0.023760006 0.770608127
0.303725094 0.000000000 0.665721834
0.534459174 0.000000000 0.533621669
0.755417943 0.000000000 0.463399112
0.982417762 0.000000000 0.444646597
0.000000000 0.248034969 0.665657222
0.206128702 0.194266543 0.671388984
0.530829370 0.172661424 0.551552951
0.772350609 0.178006113 0.479566485
0.994262040 0.179564491 0.478104949
0.000000000 0.519904673 0.473603219
0.053015638 0.487486571 0.542406857
0.471765548 0.437934011 0.573122084
0.776744783 0.435791641 0.483196229
0.995161295 0.441037506 0.487193495
0.000000000 0.819474697 0.301078737
0.011290320 0.794218779 0.368126035
0.355174571 0.753797770 0.420021355
0.757570088 0.704716504 0.463264763
0.993348777 0.704488814 0.463032037
0.000000000 0.995161295 0.187784851
0.011290320 0.995161295 0.262684941
0.339598119 0.993820131 0.339463174
0.724844098 0.959038496 0.427067012
0.988281906 0.954097569 0.394269645
0.000000000 0.022970615 0.995161295
0.280735552 0.000000000 0.974432945
0.547462165 0.000000000 0.825101137
0.778199613 0.000000000 0.712804556
0.985261858 0.000000000 0.659200609
0.000000000 0.245644093 0.979037702
0.170058027 0.194723547 0.973097324
0.528345525 0.165109575 0.864192784
0.800750494 0.167705387 0.742034197
0.994859636 0.181491703 0.696524978
0.000000000 0.529213250 0.805135190
0.017835524 0.492920309 0.869851708
0.440429121 0.443119526 0.879560709
0.802309811 0.426929951 0.765138388
0.995161295 0.444132388 0.705006301
0.000000000 0.840736508 0.621239305
0.011290320 0.812979102 0.691283762
0.283968508 0.767691195 0.747227788
0.724901795 0.708562434 0.768366396
0.993640542 0.706281066 0.678297460
0.000000000 0.995161295 0.463110387
0.011290320 0.995161295 0.524728894
0.205718279 0.995161295 0.571847022
0.604801595 0.992664218 0.611769855
0.985621333 0.952186048 0.656497180
