Desert Affinity Presets/Desert Affinity Preset #27.cube
TITLE "32x32x32 Adobe/IRIDAS cube 3D LUT exported with GrossGrade v0.1.027.1 (beta) 64 bit"
DOMAIN_MIN 0 0 0
DOMAIN_MAX 1 1 1
LUT_3D_SIZE 32
0.002087435 0.001710532 0.002957198
0.024069197 0.005832567 0.007636161
0.045644581 0.010165474 0.012566716
0.066543773 0.014367934 0.016391758
0.087186843 0.018194940 0.019378925
0.107397430 0.021352250 0.022695705
0.128949851 0.023291927 0.024633473
0.151375026 0.025246525 0.026717685
0.175620720 0.027225491 0.028906118
0.203031212 0.028780764 0.030805569
0.232156351 0.029567309 0.032300990
0.263910204 0.028893013 0.033060867
0.297259480 0.026807450 0.032935519
0.329998791 0.023009948 0.032032102
0.362472892 0.018800486 0.030611495
0.393816829 0.014349693 0.028817704
0.423209965 0.010952934 0.026625521
0.449531078 0.009095106 0.023891838
0.474919379 0.008425491 0.020843925
0.500122249 0.008487216 0.017609447
0.526372850 0.008040178 0.014425958
0.556482494 0.004868814 0.011465455
0.588541985 0.001769458 0.008530698
0.620529711 0.000595742 0.005524874
0.652114809 0.000098200 0.004499860
0.683104098 0.000000000 0.004093972
0.713104963 0.000000000 0.004149151
0.742101967 0.000000000 0.004402129
0.771092594 0.000000000 0.005195200
0.800131261 0.000000000 0.005927491
0.829032123 0.000000000 0.008609726
0.858446240 0.000000000 0.012742065
0.011563694 0.022886619 0.007632410
0.030682657 0.025593629 0.010869211
0.053442035 0.028124372 0.015599621
0.076141596 0.029953664 0.018384727
0.097326964 0.032074302 0.021386392
0.118338726 0.033530913 0.023661289
0.139736280 0.034772437 0.025901219
0.162435174 0.036508683 0.028220583
0.188045248 0.038125694 0.030443147
0.216241449 0.039275561 0.032413203
0.246709153 0.039270394 0.033650972
0.279926568 0.037761897 0.033949330
0.313513994 0.034580719 0.033343773
0.345897734 0.030332897 0.032068096
0.377375603 0.025847044 0.030195348
0.407548726 0.021781143 0.027997062
0.435660869 0.018931527 0.025501376
0.461971253 0.017412255 0.022580195
0.487839520 0.016801082 0.019523384
0.513624012 0.016633192 0.016351072
0.542490304 0.014155272 0.013601059
0.574322522 0.009654951 0.011092321
0.606585085 0.006257259 0.008368448
0.638631999 0.003269663 0.006812216
0.670059562 0.001812576 0.006594780
0.700842083 0.001612904 0.006458235
0.730321229 0.001612904 0.006450753
0.759531617 0.001612904 0.007096528
0.788654506 0.001612904 0.008280993
0.817931056 0.001612904 0.011194666
0.847421288 0.001612904 0.015121778
0.877026737 0.001632543 0.025414890
0.021044130 0.043648351 0.011987759
0.037509888 0.045187756 0.013388744
0.057071667 0.047187719 0.017142771
0.081231110 0.047311198 0.019789485
0.104267329 0.047648761 0.022245388
0.127346218 0.048509203 0.024045667
0.150024533 0.049486537 0.026548369
0.174799070 0.050957613 0.028943526
0.201978490 0.052557770 0.031100169
0.231409073 0.053385947 0.032747071
0.263081938 0.052737858 0.033576615
0.296644479 0.050671466 0.033325493
0.329452008 0.046893105 0.032272439
0.361473620 0.042365201 0.030625971
0.391963959 0.037809718 0.028378604
0.421232313 0.033990242 0.025837600
0.449007899 0.031300493 0.023067450
0.476070583 0.029644672 0.020156089
0.502874315 0.028681388 0.017150274
0.531120300 0.026600473 0.014475973
0.562308073 0.022213323 0.012090207
0.594818890 0.016975578 0.009665149
0.627278566 0.011380086 0.007747914
0.659203947 0.005915998 0.007533277
0.690352440 0.003543320 0.007408895
0.720375121 0.003225807 0.007543100
0.749887049 0.003225807 0.007967699
0.779335082 0.003225807 0.009256909
0.808747172 0.003225807 0.011614589
0.838412762 0.003225807 0.016113084
0.868342578 0.003303431 0.024712509
0.898427129 0.004671672 0.039589241
0.028545123 0.062411059 0.015396217
0.044645235 0.063618839 0.016295485
0.061840933 0.065970063 0.018934652
0.083951749 0.067388803 0.021377968
0.109127216 0.067584723 0.023046862
0.134526283 0.068384834 0.024537159
0.158592448 0.069494918 0.027072562
0.185504749 0.071180634 0.029356435
0.214495957 0.072612502 0.031391021
0.246310309 0.073255956 0.032647017
0.279140890 0.072456293 0.032997243
0.310699850 0.069964863 0.031734724
0.342685521 0.066370800 0.030118596
0.373507708 0.062395133 0.027960563
0.403539181 0.058334813 0.025432644
0.432640463 0.054860938 0.022744793
0.461337984 0.052005183 0.019895598
0.490206391 0.049781185 0.017069802
0.519792795 0.047503900 0.014389891
0.550942242 0.043596037 0.012088769
0.583565235 0.038149726 0.010130866
0.616450489 0.030040821 0.008171571
0.649056315 0.019953914 0.007638026
0.681039393 0.009325947 0.007715180
0.711793840 0.005277337 0.007970499
0.741621196 0.004838713 0.008351605
0.771239519 0.004838713 0.009739987
0.801083803 0.004838713 0.011714692
0.831044972 0.004838713 0.016923485
0.860980749 0.004838713 0.024592374
0.891347885 0.008097516 0.038545996
0.922354579 0.022026835 0.056328006
0.035102941 0.079975188 0.018151451
0.051004324 0.081345841 0.018866843
0.068584867 0.084277734 0.020429131
0.087722532 0.087079249 0.023499547
0.112076901 0.088867858 0.024840206
0.139414608 0.089775965 0.025486430
0.167057261 0.090796381 0.027043590
0.195274293 0.092332385 0.029206753
0.225239500 0.093492091 0.030994948
0.257803649 0.093725912 0.031905413
0.290772319 0.092722446 0.031656593
0.322186768 0.090306744 0.029989542
0.354280323 0.087184846 0.027885297
0.384919792 0.083748877 0.025476595
0.414886653 0.080517620 0.022707382
0.444609344 0.077664264 0.019619282
0.474696398 0.075262599 0.016778059
0.506141841 0.072805263 0.014119186
0.538747072 0.069499232 0.011653896
0.571919322 0.065082595 0.009803085
0.605228961 0.058610793 0.008426424
0.638353348 0.045795348 0.007810577
0.671248794 0.028808745 0.007816189
0.703290224 0.013263815 0.008195893
0.733998358 0.008207974 0.008622358
0.764095783 0.007832018 0.009879783
0.794191360 0.008151867 0.012077587
0.824378967 0.008580201 0.017204516
0.854722142 0.009146953 0.024403928
0.885515749 0.011423297 0.037932437
0.917085707 0.034656253 0.055527899
0.946047962 0.064434513 0.075653620
0.040645607 0.098266132 0.020626469
0.056990661 0.099791966 0.021383103
0.075029992 0.102912739 0.022521265
0.093635976 0.106203809 0.025144154
0.116042726 0.110085323 0.027210031
0.142826393 0.112280644 0.027798770
0.172985330 0.113632716 0.027443413
0.204050347 0.114963971 0.027933465
0.234919593 0.115547486 0.029187579
0.267240793 0.115331434 0.029620619
0.298485249 0.113554418 0.028888782
0.330040455 0.111208476 0.027158605
0.361803204 0.108811796 0.024975350
0.393348753 0.106023148 0.022458626
0.424374640 0.103397287 0.019634238
0.455570281 0.101176485 0.016621392
0.487773329 0.099273764 0.013945676
0.522251368 0.097051159 0.011462671
0.557632565 0.093273319 0.009492137
0.592157125 0.088337719 0.008228153
0.625810385 0.079377711 0.007701155
0.659311533 0.063912302 0.007805433
0.692871034 0.043028101 0.008101901
0.725348115 0.026720930 0.008388551
0.756625354 0.022628376 0.009659076
0.787419498 0.023106305 0.011960168
0.818263054 0.025690842 0.016906142
0.849093854 0.030153278 0.023978852
0.880192578 0.036407650 0.036895771
0.911993384 0.054535631 0.054187696
0.942099273 0.085615233 0.073899038
0.965338707 0.123618007 0.097576775
0.045033675 0.117182888 0.023159077
0.062754504 0.119167410 0.024129897
0.081032291 0.122260228 0.025349388
0.100183591 0.126365334 0.026938848
0.121835388 0.130844831 0.029391967
0.146804422 0.134985894 0.030885531
0.177154124 0.137605354 0.029653374
0.210286751 0.138756126 0.027082365
0.242540285 0.138705000 0.026507245
0.275187105 0.137778029 0.026319262
0.305331826 0.135548025 0.025096923
0.336526781 0.133364528 0.023589818
0.368289769 0.131434873 0.021741781
0.400566310 0.129564553 0.019401355
0.432723016 0.127729595 0.016700406
0.465706021 0.126154348 0.013796024
0.500848889 0.124460459 0.011406519
0.538068056 0.122396335 0.009358373
0.575379074 0.118606746 0.008334307
0.610801160 0.112513170 0.007758671
0.645129204 0.102305919 0.007886794
0.679130554 0.087040149 0.008127149
0.713265002 0.069457807 0.008302037
0.746735156 0.056586210 0.009147028
0.779031038 0.052953809 0.011160561
0.810577750 0.055129118 0.015517816
0.842019260 0.060565643 0.022541368
0.873848915 0.071139336 0.034747101
0.905921519 0.087459177 0.051305309
0.937072694 0.111707680 0.071067676
0.961422145 0.141102076 0.094048083
0.974445760 0.184710771 0.134015203
0.049211327 0.137039408 0.025438745
0.068724595 0.139402911 0.026477261
0.087156616 0.142603114 0.027792251
0.107000113 0.147454858 0.029004799
0.128235966 0.152576283 0.031193228
0.152391210 0.157644391 0.033137511
0.180961013 0.162521422 0.033157159
0.213607863 0.163904265 0.028765796
0.246973485 0.162837550 0.023010395
0.280159116 0.161184490 0.021596808
0.311518490 0.158735409 0.019846069
0.343298167 0.156627998 0.018576466
0.375129282 0.155016765 0.017186273
0.407573134 0.153719246 0.015478031
0.440728992 0.152812973 0.013293814
0.475941062 0.152086779 0.011010940
0.513964832 0.150851905 0.009300405
0.553353190 0.148175493 0.008234705
0.591658294 0.143934071 0.007862480
0.627721131 0.137128964 0.007962083
0.662912130 0.127489328 0.007626805
0.697797239 0.115367353 0.007720795
0.732595801 0.103842556 0.007976579
0.767114282 0.097168237 0.009345775
0.800261378 0.096257456 0.012489994
0.832537413 0.100119367 0.018946821
0.864746749 0.107529737 0.030526871
0.897205770 0.120259672 0.046420168
0.929198384 0.138555199 0.066203088
0.956010222 0.160452262 0.088424087
0.972640395 0.194507301 0.122620516
0.979448438 0.242574334 0.179043412
0.053187966 0.159201473 0.027765568
0.074025944 0.161523521 0.028764840
0.093651831 0.165063545 0.030056437
0.113659054 0.170157835 0.031452738
0.134892821 0.175899193 0.033071131
0.158381835 0.181321174 0.035044033
0.185567275 0.186539486 0.035539199
0.215797439 0.189372092 0.032512825
0.248997375 0.188661620 0.023550995
0.283633947 0.186553761 0.016895430
0.316169888 0.184011072 0.014567651
0.349293232 0.182173312 0.012750022
0.382391602 0.180761054 0.011595904
0.414934337 0.179786801 0.010579303
0.448691905 0.179099321 0.009274679
0.486206502 0.178879723 0.008025679
0.526249647 0.177967221 0.007457061
0.567215085 0.175104663 0.007533284
0.606019378 0.170307890 0.007369614
0.642838240 0.163446769 0.007443964
0.678695500 0.154827774 0.007021241
0.714424491 0.147178993 0.006566719
0.749951541 0.141772330 0.007288718
0.785111785 0.140361384 0.009173666
0.819297016 0.142333210 0.014246367
0.852468371 0.147141546 0.023882942
0.885628521 0.155166656 0.038875613
0.918668926 0.167886034 0.058351833
0.948307097 0.184547901 0.079935037
0.969101489 0.208667994 0.108933613
0.977539837 0.247737512 0.159747347
0.983537257 0.291588187 0.223036885
0.056336869 0.183119237 0.030208886
0.078294337 0.185485765 0.031085627
0.099434823 0.189499289 0.032215413
0.120105088 0.194777846 0.033502303
0.141224533 0.200669900 0.034748044
0.163705334 0.205795899 0.036048904
0.188663796 0.210489094 0.036717642
0.216849729 0.213764727 0.034751747
0.248474166 0.214270756 0.027278369
0.285066009 0.213409975 0.014525981
0.319838017 0.211556599 0.008756115
0.353909522 0.209760770 0.006802397
0.388838410 0.208536491 0.005663759
0.422340780 0.207781419 0.004959529
0.457307488 0.206967518 0.004707015
0.495810896 0.205914035 0.004852911
0.537031889 0.204917967 0.005348584
0.579033971 0.202444583 0.005943860
0.618681014 0.198193416 0.005799833
0.655791998 0.192337677 0.004845426
0.692347944 0.185787678 0.004342743
0.729067862 0.181297034 0.004119223
0.765359223 0.179923698 0.004972151
0.801108539 0.180956960 0.008320277
0.836035728 0.183917463 0.015046436
0.870526075 0.189850017 0.029046362
0.904474497 0.199103653 0.047533505
0.937007427 0.211493507 0.069258489
0.963475227 0.227986380 0.093322024
0.975451589 0.256860524 0.135640591
0.981519103 0.295187354 0.198206455
0.986493826 0.330257922 0.253498524
0.058835804 0.209061518 0.032445002
0.081747644 0.211344317 0.032952845
0.103577115 0.215424716 0.033797812
0.125027344 0.220634550 0.034826580
0.146282047 0.226396590 0.035807632
0.168159187 0.231203094 0.036283646
0.191569448 0.235365093 0.037298366
0.217999890 0.238369480 0.035656620
0.247938305 0.240203410 0.031059502
0.283448637 0.241024584 0.019240506
0.321765780 0.240628928 0.006084609
0.357426673 0.239564568 0.002178619
0.393691927 0.238517746 0.001536114
0.430222720 0.237442985 0.001739530
0.466323227 0.236420721 0.001644134
0.505405545 0.234821782 0.002090241
0.546374917 0.233164683 0.002631738
0.588782072 0.230926543 0.003431827
0.629680097 0.227370158 0.003460821
0.667453289 0.222585529 0.002488647
0.704810739 0.219034255 0.001547807
0.742184579 0.217657372 0.001476264
0.779190958 0.218234405 0.002332931
0.815995574 0.220916942 0.007098865
0.852015555 0.225211486 0.017227415
0.887345195 0.231743142 0.034183595
0.921656609 0.241127059 0.056252204
0.952241600 0.253057152 0.079118595
0.972355008 0.271643251 0.110998876
0.979535043 0.301646143 0.165875748
0.984879553 0.337931365 0.233685255
0.988186836 0.355766654 0.262925297
0.059364680 0.236711204 0.034408510
0.083287500 0.238726765 0.034344472
0.105234012 0.241941065 0.034500647
0.126976669 0.246426627 0.034969699
0.148781180 0.251458436 0.035446633
0.170687467 0.256113231 0.035666417
0.194176257 0.260371387 0.035741203
0.219847769 0.263495892 0.035893194
0.249104336 0.266133368 0.032765809
0.282474846 0.268626273 0.025266211
0.320859313 0.269548357 0.011055348
0.359890461 0.269477755 0.001038105
0.398212761 0.269155949 0.000050970
0.437117636 0.268344283 0.000255785
0.476134777 0.267096996 0.000697682
0.515722394 0.265291154 0.000968900
0.556137800 0.263060004 0.000978717
0.598015010 0.260579705 0.001186338
0.639163673 0.257766515 0.001286408
0.678516209 0.254626691 0.000897819
0.716918468 0.253525734 0.000285713
0.755053818 0.254653811 0.000121580
0.792540789 0.256883204 0.001135369
0.829793513 0.260524064 0.005806378
0.867161989 0.265803725 0.019859610
0.902973950 0.272938162 0.039881013
0.936692536 0.282018542 0.064087108
0.965035141 0.293830544 0.089662552
0.977263451 0.314981401 0.132992059
0.983001888 0.345123708 0.198881388
0.987481356 0.373489767 0.255985528
0.989524543 0.378143072 0.263824195
0.059920214 0.264596313 0.035035115
0.082756810 0.266420037 0.034637664
0.105209805 0.268909961 0.034195762
0.127529711 0.272469044 0.034007352
0.149858415 0.277102798 0.034114860
0.172934771 0.281959891 0.034267306
0.197138280 0.286424905 0.034122348
0.223072171 0.289869696 0.033973154
0.251388103 0.292640060 0.033551410
0.283531398 0.295472145 0.028407613
0.319884419 0.298724324 0.018026583
0.360696495 0.299721837 0.005516456
0.402713507 0.300168842 0.000177694
0.444631219 0.300362349 0.000007949
0.485097796 0.299344838 0.000162262
0.525581837 0.297491580 0.000261865
0.566713750 0.295097232 0.000248772
0.608276248 0.292242378 0.000087444
0.649231911 0.289781779 0.000011690
0.688981533 0.288512260 0.000011223
0.728442788 0.289327800 0.000003741
0.767581940 0.292035609 0.000004676
0.805762410 0.295587748 0.000578908
0.843305647 0.300083280 0.006055152
0.880883455 0.305729866 0.021619242
0.917101204 0.313147038 0.045920700
0.950070798 0.321952373 0.071236484
0.973214626 0.334975719 0.103126273
0.981145799 0.357008070 0.156531498
0.986094534 0.386038184 0.229309797
0.989209235 0.401024371 0.262643397
0.990948319 0.402695209 0.264737070
0.058411665 0.291999251 0.034430977
0.080299936 0.293606251 0.033790801
0.103719838 0.296120256 0.033177335
0.127241790 0.299436837 0.032642368
0.151098981 0.303957552 0.032495551
0.174942091 0.308807731 0.032358993
0.200008601 0.313197970 0.032012019
0.226727143 0.317145586 0.031548556
0.255113721 0.320202082 0.031444781
0.285818130 0.322890818 0.030605877
0.321389794 0.326790452 0.022431036
0.361891031 0.331093282 0.010393673
0.407261699 0.332601875 0.001902727
0.452287495 0.333483309 0.000000000
0.493813992 0.332864910 0.000000000
0.534848988 0.331292391 0.000000000
0.576784551 0.328839362 0.000000000
0.619195879 0.325998664 0.000000000
0.660579681 0.324431747 0.000000000
0.700222671 0.324508876 0.000000000
0.739783883 0.326659918 0.000000000
0.779342532 0.329997689 0.000000000
0.818088233 0.334222555 0.000259526
0.856122017 0.339373410 0.006268384
0.893822849 0.345497012 0.024101373
0.930219293 0.352900863 0.051244009
0.962397337 0.361513048 0.078487769
0.978386879 0.375860333 0.118728913
0.984329402 0.397865921 0.183449790
0.988410771 0.421825707 0.251321793
0.990557432 0.427352369 0.264267206
0.992253840 0.428710431 0.265574932
0.053694382 0.318875372 0.032751314
0.077086471 0.320782483 0.032070011
0.101686597 0.323549181 0.031492043
0.126228467 0.327133507 0.031044064
0.151489764 0.331637442 0.030766306
0.176749334 0.336056441 0.030334229
0.202561900 0.340359628 0.029720701
0.230192453 0.344433010 0.029142238
0.259371817 0.348471463 0.028606340
0.290640354 0.352014869 0.028372098
0.325078458 0.355563372 0.026968775
0.365632474 0.361170769 0.015495388
0.411203802 0.366063058 0.003704919
0.459050357 0.367268562 0.000262332
0.502095759 0.366940469 0.000000000
0.543824196 0.365743071 0.000000000
0.586198986 0.363997817 0.000000000
0.629484713 0.361660361 0.000000000
0.672058642 0.361112863 0.000000000
0.712268114 0.362265795 0.000000000
0.751281917 0.364649624 0.000000000
0.790262222 0.368278295 0.000000000
0.829122901 0.372800171 0.000123450
0.867617190 0.378239423 0.004785108
0.905683398 0.384666592 0.026432892
0.942119420 0.391826659 0.055243049
0.971923530 0.400463551 0.086508021
0.982134283 0.415025622 0.134580269
0.986806452 0.436537981 0.212012246
0.989889503 0.452090234 0.260608763
0.991671681 0.454384059 0.265181839
0.993359149 0.455661356 0.266092449
0.047083259 0.346530139 0.031371821
0.073991328 0.348540962 0.030358521
0.100883633 0.351256341 0.029740324
0.125210926 0.355066419 0.029334906
0.151502520 0.359349638 0.028844854
0.178070009 0.363448948 0.028113512
0.205426753 0.367647052 0.027293326
0.233730644 0.371965021 0.026750870
0.263954133 0.376543909 0.026159812
0.296717465 0.381722122 0.025529465
0.332458973 0.386407167 0.025013234
0.371578872 0.391476274 0.022756485
0.416109473 0.397615194 0.009900827
0.463213027 0.401465505 0.000404019
0.509032130 0.401107490 0.000000000
0.552037120 0.400032699 0.000000000
0.595315158 0.399288297 0.000000000
0.639344037 0.398969769 0.000000000
0.683056235 0.399366379 0.000000000
0.723953366 0.401014417 0.000000000
0.762849092 0.403287441 0.000000000
0.800971985 0.406432778 0.000000000
0.839033186 0.410681576 0.000000000
0.877502561 0.416248888 0.003668443
0.915802777 0.422682554 0.026331397
0.952407479 0.429420114 0.057698987
0.976837635 0.438550621 0.096052431
0.984924555 0.452933371 0.154348671
0.988722444 0.472598106 0.236511067
0.991036773 0.480325460 0.262312442
0.992766023 0.482116073 0.265088618
0.994446099 0.483400822 0.266000628
0.036728386 0.373409390 0.031551376
0.070214421 0.375721425 0.029138012
0.100022011 0.378713787 0.027848341
0.124294311 0.382808924 0.027443852
0.151046261 0.386990339 0.026783563
0.179036647 0.391055733 0.025839487
0.208706528 0.395600647 0.024830822
0.238954559 0.400690258 0.024262220
0.270538151 0.405963004 0.023907734
0.304749250 0.411961228 0.023167517
0.341273278 0.417833030 0.022203797
0.380422175 0.423197627 0.021798825
0.422134161 0.428796649 0.018085930
0.467872888 0.434157252 0.005722208
0.513731897 0.435786188 0.000193593
0.559358954 0.435076356 0.000000000
0.604331672 0.435299397 0.000000000
0.649177194 0.436493605 0.000000000
0.693476140 0.438413978 0.000000000
0.734600365 0.440372944 0.000000000
0.773691177 0.442221224 0.000000000
0.811628103 0.445027947 0.000000000
0.848964036 0.448631078 0.000000000
0.886424482 0.453456491 0.005179774
0.924279273 0.459486753 0.023989091
0.960349381 0.466002882 0.058788523
0.979500651 0.475521773 0.105798088
0.986770868 0.489933640 0.177038968
0.990162849 0.505230606 0.250851095
0.992077410 0.508889079 0.262899816
0.993753076 0.510351717 0.264404237
0.995411038 0.511611760 0.265372038
0.030785916 0.401372880 0.031549066
0.068453372 0.403704643 0.027809056
0.098733783 0.406912386 0.026013419
0.123473018 0.410872638 0.025436405
0.150607631 0.415166289 0.024615251
0.180731043 0.419452935 0.023552386
0.213344231 0.424711049 0.022503030
0.245919913 0.430730104 0.021702977
0.279445082 0.436853081 0.021247501
0.314699620 0.443207383 0.020636313
0.351634711 0.449462831 0.019734744
0.390556544 0.455568016 0.018672831
0.431238890 0.461238503 0.017967626
0.473728985 0.466382354 0.012527399
0.519075692 0.470266134 0.002638280
0.565334022 0.471165687 0.000057048
0.612535119 0.472110212 0.000000000
0.659043550 0.474328905 0.000000000
0.703406155 0.477023244 0.000000000
0.744728684 0.479375124 0.000000000
0.783470750 0.481431484 0.000000000
0.821542799 0.483741015 0.000000000
0.858779848 0.486732066 0.000000000
0.894787967 0.490138859 0.002901562
0.931455553 0.495005816 0.020187393
0.965523720 0.501569211 0.059282321
0.982107639 0.511077166 0.113435149
0.988153219 0.525341094 0.200652122
0.991037309 0.535376072 0.254812896
0.992808580 0.537702978 0.262068629
0.994468391 0.539090812 0.263109624
0.996119082 0.540516615 0.264150947
0.034758758 0.433111459 0.029696375
0.070482798 0.434959412 0.025804892
0.099482983 0.437507778 0.024379559
0.126188755 0.440991461 0.023542577
0.153590947 0.445244730 0.022534380
0.185698420 0.449840307 0.021356922
0.220585555 0.455545068 0.020194890
0.255016536 0.461768657 0.019094134
0.289452940 0.468098581 0.018177146
0.325470865 0.474457860 0.017301291
0.362689883 0.480799526 0.016678413
0.401561558 0.487175584 0.016487634
0.441785425 0.493348330 0.015463108
0.482751399 0.499022007 0.013277465
0.525531888 0.503921032 0.007274224
0.571647763 0.507964551 0.000888469
0.619967163 0.510127783 0.000009352
0.667875707 0.512679994 0.000000000
0.713179588 0.515162468 0.000000000
0.754211903 0.517825782 0.000000000
0.792837262 0.520174265 0.000000000
0.830497682 0.522509575 0.000000000
0.867331743 0.524804592 0.000000000
0.902828872 0.526935101 0.000488660
0.938037217 0.530286968 0.017004829
0.968547225 0.536462486 0.058064606
0.983950257 0.546002746 0.121290661
0.989173591 0.559266448 0.219496831
0.991531849 0.565406382 0.255442917
0.993241906 0.567282677 0.260065198
0.994896650 0.568668842 0.261159033
0.996546805 0.570094645 0.262213349
0.040771816 0.466754973 0.027525235
0.073177628 0.468629926 0.024291664
0.103805035 0.470116138 0.022826152
0.132461980 0.472582728 0.021508003
0.160373092 0.476443231 0.020331459
0.193749189 0.481192797 0.019020213
0.229645312 0.486922979 0.017695036
0.265228897 0.493080854 0.016265973
0.300502688 0.499412119 0.014872501
0.336719096 0.505759120 0.013906868
0.374526262 0.512092412 0.013543037
0.413333297 0.518473327 0.013739466
0.453492403 0.525062680 0.014053702
0.493605554 0.531631231 0.013968606
0.535043299 0.538352728 0.009433670
0.579235137 0.544148207 0.003954622
0.626719058 0.548429847 0.000374561
0.675647020 0.551211834 0.000008417
0.721918225 0.553686082 0.000000000
0.763532937 0.555944741 0.000000000
0.801680148 0.558437645 0.000000000
0.838816285 0.560764730 0.000000000
0.874797881 0.562587082 0.000000000
0.909848273 0.564183116 0.000462939
0.944751322 0.566398919 0.016007842
0.971143305 0.571348429 0.057327662
0.985044301 0.580486596 0.130975246
0.989849269 0.592278063 0.234560028
0.991855681 0.595775545 0.254145920
0.993528366 0.597408056 0.256896824
0.995162070 0.598642766 0.258032441
0.996795952 0.599896193 0.259100497
0.043959066 0.498481959 0.025454603
0.076864764 0.500486314 0.022929974
0.111597173 0.502080262 0.021156775
0.140625641 0.504294038 0.019548211
0.168614194 0.507549763 0.018073795
0.202872366 0.512304366 0.016431067
0.239996389 0.517926395 0.014722888
0.276252925 0.524062276 0.013010011
0.312357455 0.530524194 0.011185806
0.349159062 0.536918700 0.010050472
0.387129635 0.543542743 0.010493255
0.426463127 0.550373077 0.011069827
0.466524333 0.557687998 0.012432034
0.506365299 0.565161049 0.014389012
0.546080947 0.572561204 0.014976771
0.588852763 0.579862058 0.008466634
0.634359837 0.585428178 0.002970757
0.681931138 0.589269102 0.000259528
0.729536414 0.591843367 0.000000000
0.771899045 0.593995392 0.000000000
0.810281992 0.596096575 0.000000000
0.846508741 0.598139942 0.000000000
