Desert Affinity Presets/Desert Affinity Preset #8.cube
TITLE "32x32x32 Adobe/IRIDAS cube 3D LUT exported with GrossGrade v0.1.027.1 (beta) 64 bit"
LUT_3D_SIZE 5
DOMAIN_MIN 0.000000 0.000000 0.000000
DOMAIN_MAX 0.903226 0.903226 0.903226
0.236764699 0.003392079 0.000000000
0.321936667 0.023218058 0.000000000
0.492165953 0.019490207 0.000000000
0.727117479 0.000023381 0.000000000
0.979573190 0.000000000 0.000000000
0.163004518 0.171173573 0.000000000
0.304061681 0.190271318 0.000000000
0.446696728 0.197621167 0.000000000
0.684788287 0.188054428 0.000000000
0.950549126 0.175912336 0.000000000
0.080474734 0.335167199 0.000000000
0.248469830 0.406844586 0.000000000
0.503529429 0.405676454 0.000000000
0.733751357 0.405071765 0.000000000
0.967204154 0.412571788 0.000000000
0.034607243 0.555851221 0.000000000
0.215595230 0.639787793 0.000000000
0.474124461 0.670834363 0.000000000
0.796477497 0.651873231 0.000000000
0.995161295 0.642257750 0.000000000
0.025214307 0.783739865 0.000000000
0.210735664 0.866585791 0.000000000
0.458372504 0.915829122 0.000000000
0.785313964 0.901987672 0.000000000
0.995161295 0.873465419 0.000000000
0.224069759 0.000000000 0.255018443
0.315209836 0.009978883 0.206428260
0.485510260 0.005921410 0.196251765
0.720976174 0.000000000 0.168507904
0.974370301 0.000000000 0.137600482
0.050505690 0.160498604 0.135156661
0.257687151 0.186505497 0.155030280
0.434063703 0.188936517 0.150577009
0.681396604 0.179586396 0.134339616
0.948279500 0.168695956 0.116558164
0.000000000 0.294508368 0.011290320
0.204251155 0.379600674 0.107674144
0.461776316 0.406556517 0.116754085
0.686608732 0.413383991 0.145546466
0.954304457 0.412303030 0.129846126
0.000000000 0.495107591 0.011290320
0.140017465 0.581916749 0.049519274
0.430730671 0.667702854 0.101602159
0.756959558 0.654987156 0.086832613
0.992655754 0.650992572 0.143892303
0.000000000 0.720567584 0.011290320
0.126184449 0.805359960 0.041750301
0.413296521 0.886820495 0.120278455
0.739763916 0.903085709 0.052721493
0.995161295 0.874941945 0.057713740
0.216871575 0.000000000 0.522164524
0.322427183 0.000111292 0.432210624
0.486046851 0.000874440 0.403288722
0.721791923 0.000000000 0.375824273
0.975923359 0.000000000 0.345641583
0.021393880 0.122480005 0.422874898
0.241346106 0.164038971 0.413044244
0.437940270 0.186278790 0.361301661
0.687012553 0.178288862 0.347174764
0.955337882 0.168438092 0.331187725
0.000000000 0.279987574 0.234344199
0.080899060 0.358072907 0.306300044
0.428074956 0.415479034 0.357576966
0.685596228 0.416327775 0.351537079
0.961751759 0.414690971 0.343019843
0.000000000 0.480385453 0.089943893
0.011290320 0.512696028 0.141481102
0.382992715 0.636944830 0.318562478
0.722661436 0.663310945 0.327058941
0.964583397 0.666128457 0.351845652
0.000000000 0.688231885 0.032781191
0.011290320 0.716681957 0.110842995
0.320451319 0.811681151 0.262096256
0.700812578 0.904388130 0.321104020
0.995161295 0.883877695 0.298548609
0.212286115 0.000000000 0.765244603
0.329448283 0.000000000 0.661295712
0.492793113 0.000000000 0.593341589
0.724687219 0.000000000 0.558542371
0.979897738 0.000000000 0.529432356
0.025312010 0.110382840 0.688917696
0.221680865 0.138244897 0.641047418
0.448450178 0.178735837 0.563701451
0.694797695 0.179940969 0.534774899
0.963888168 0.170859545 0.519557059
0.000000000 0.275952011 0.534228861
0.034892268 0.302937865 0.550215781
0.406667888 0.387935519 0.583831668
0.695777655 0.419977903 0.541886091
0.972060740 0.418089658 0.533858418
0.000000000 0.482411176 0.369765610
0.011290320 0.486754984 0.367980361
0.238786176 0.594556034 0.469647139
0.690494061 0.673770308 0.542739272
0.963896215 0.669398963 0.531472623
0.000000000 0.686127663 0.248802587
0.011290320 0.682282031 0.247978300
0.100125141 0.703641772 0.288556635
0.640338957 0.860893905 0.498650968
0.992646039 0.891796172 0.511670411
0.210864320 0.000000000 0.967745245
0.334895790 0.000000000 0.859020889
0.506854415 0.000000000 0.763982177
0.733756721 0.000000000 0.705037653
0.987366021 0.000000000 0.672984958
0.035357349 0.106879309 0.908025563
0.221757650 0.132178023 0.845044851
0.456485391 0.165564835 0.750048578
0.709628761 0.181713372 0.689176798
0.975813508 0.176655576 0.667569458
0.000000000 0.281132221 0.789962232
0.051977511 0.304227531 0.785918653
0.379572242 0.354704261 0.760656238
0.710827172 0.416967690 0.705087900
0.985808313 0.425700635 0.683687389
0.000000000 0.487074971 0.635332525
0.011290320 0.492857426 0.634255350
0.171332255 0.518762529 0.649164915
0.659633040 0.636777639 0.715796292
0.976051450 0.675026119 0.680065036
0.000000000 0.690537751 0.496420443
0.011290320 0.684395790 0.484146893
0.022580640 0.663256764 0.456874371
0.473455489 0.795836627 0.583323896
0.974708557 0.903494537 0.684859157
