Desert Affinity Presets/Desert Affinity Preset #26.cube
TITLE "32x32x32 Adobe/IRIDAS cube 3D LUT exported with GrossGrade v0.1.027.1 (beta) 64 bit"
DOMAIN_MIN 0 0 0
DOMAIN_MAX 1 1 1
LUT_3D_SIZE 32
0.002087435 0.001710532 0.002957198
0.026171576 0.004836075 0.009586113
0.049632408 0.008403041 0.016118664
0.072623298 0.012489027 0.021161458
0.095374212 0.016280472 0.025654322
0.119104438 0.018722855 0.029241852
0.144627675 0.019906862 0.032372091
0.172177240 0.021009980 0.035875890
0.203571841 0.021342859 0.040028334
0.237282202 0.020243496 0.044005394
0.273412585 0.017049681 0.046800788
0.310319662 0.012935156 0.048495460
0.346319109 0.008042063 0.049325936
0.380598336 0.004140266 0.049772967
0.412593126 0.001523493 0.049996484
0.441639423 0.000691135 0.049908537
0.468862355 0.000885662 0.049541924
0.496568233 0.001550608 0.049166922
0.526945055 0.001808734 0.049468078
0.560962498 0.000678976 0.050270520
0.596500218 0.000000000 0.051422715
0.632071137 0.000000000 0.052671731
0.666500807 0.000000000 0.053895026
0.699860692 0.000000000 0.055685520
0.732553422 0.000000000 0.058902718
0.765014052 0.000000000 0.063424066
0.797184706 0.000000000 0.069364652
0.829293728 0.000000000 0.076887622
0.861481667 0.000000000 0.086172596
0.894086957 0.000000000 0.097966351
0.926593781 0.001655352 0.113013327
0.955453575 0.039559804 0.131668091
0.018512374 0.020440973 0.007489322
0.036735460 0.023920530 0.013762359
0.059666015 0.026219757 0.019192325
0.084245861 0.027449613 0.023137141
0.107657470 0.029485134 0.027360613
0.131868944 0.030206650 0.030673664
0.157868057 0.031129250 0.034274347
0.187358797 0.031523459 0.038185012
0.220121935 0.031061888 0.042627759
0.255434930 0.028894063 0.046008643
0.292814583 0.025184443 0.048254140
0.328846008 0.019894347 0.049396038
0.364131927 0.014733235 0.049961872
0.397029191 0.010360092 0.050117582
0.428049415 0.007336045 0.050131641
0.456553459 0.005814895 0.049933858
0.484258056 0.005242064 0.049750995
0.513598084 0.004608447 0.049790721
0.546311617 0.003148088 0.050535623
0.581832767 0.001872430 0.052027326
0.617505550 0.001612904 0.053550843
0.652619064 0.001612904 0.054714739
0.686221838 0.001612904 0.056678232
0.719142318 0.001612904 0.059579790
0.751761913 0.001612904 0.063865490
0.784345865 0.001612904 0.069890194
0.816424906 0.001612904 0.076904938
0.848816276 0.001612904 0.085340239
0.881428003 0.001612904 0.096476242
0.914402366 0.001951456 0.110757500
0.944862545 0.025033360 0.128519341
0.968458831 0.080487914 0.152775332
0.035146397 0.039080676 0.011912988
0.051574267 0.041511312 0.015825491
0.071260050 0.042541482 0.020770079
0.093311027 0.043126516 0.024787826
0.117392763 0.043619312 0.027771236
0.142857745 0.043545485 0.030994501
0.170894116 0.043978482 0.035086080
0.202725187 0.044128139 0.039269876
0.237666711 0.042726196 0.043369938
0.275414109 0.039003532 0.046093784
0.313189477 0.033875655 0.047564890
0.349162191 0.027611442 0.048264448
0.382782072 0.022306819 0.048545025
0.415410578 0.018022088 0.048645545
0.445308775 0.015438983 0.048572622
0.473698825 0.013883674 0.048302814
0.502521336 0.012615519 0.048310272
0.534421444 0.009784581 0.049081799
0.569847465 0.005641507 0.050531432
0.605712533 0.003726623 0.052069422
0.641014397 0.003302964 0.053583566
0.675112367 0.003225807 0.055547088
0.708352149 0.003225807 0.058199413
0.741229475 0.003225807 0.062267650
0.773927569 0.003225807 0.068070762
0.806312799 0.003225807 0.075204223
0.838861108 0.003225807 0.083645582
0.871589959 0.003225807 0.094157614
0.904575288 0.003425010 0.107645653
0.936367154 0.015660584 0.124711215
0.962756693 0.065895572 0.147092357
0.973625243 0.138691947 0.187808439
0.050282188 0.056704715 0.015507496
0.066489831 0.058368031 0.016800448
0.084616087 0.059149858 0.022114430
0.106413312 0.059939247 0.025646800
0.129727811 0.060794983 0.028292594
0.153970972 0.061237343 0.031987205
0.182569012 0.061970074 0.035955373
0.214974046 0.062014464 0.039821621
0.250917315 0.060141206 0.043324076
0.289712518 0.055911154 0.045399845
0.327289641 0.049620338 0.046188220
0.363604039 0.042619657 0.046429034
0.398085326 0.035982322 0.046278469
0.430769861 0.031452551 0.046230771
0.461945802 0.027883247 0.045988064
0.491764128 0.025227193 0.046111539
0.523779690 0.021317478 0.046702620
0.558667302 0.015620533 0.047934290
0.595089853 0.009368036 0.049577024
0.631001234 0.006029726 0.051443771
0.665639460 0.005054750 0.053364746
0.699242175 0.004838713 0.055817377
0.732341111 0.004838713 0.059954803
0.765377164 0.004838713 0.065765381
0.798085809 0.004838713 0.072898835
0.830596626 0.004838713 0.081205539
0.863431275 0.004886409 0.091688119
0.896705508 0.005091224 0.104894958
0.929500163 0.011848722 0.121659592
0.957438469 0.058618151 0.143074378
0.970959663 0.127362072 0.180431813
0.978428423 0.202593952 0.233552128
0.064832471 0.073479541 0.018386180
0.081155635 0.075578682 0.019251682
0.099346951 0.076710321 0.023059055
0.121191487 0.078213714 0.026267303
0.145106375 0.079542182 0.028849086
0.169943467 0.080740273 0.032615658
0.197877496 0.081811070 0.036739103
0.229819670 0.082036480 0.040386513
0.265203655 0.080515742 0.043377355
0.301010817 0.076969355 0.044352371
0.337389022 0.071778864 0.044646952
0.372612238 0.065860733 0.044579167
0.407244176 0.059568468 0.044141445
0.441526055 0.053782683 0.043586861
0.475391179 0.048776418 0.043463416
0.509310663 0.043513391 0.043953005
0.544668436 0.036811545 0.045022927
0.581897020 0.027862348 0.046582911
0.619330883 0.017236242 0.048401929
0.655535996 0.009413956 0.050454263
0.690237463 0.006950563 0.053104695
0.723893285 0.006451614 0.057116371
0.757230461 0.006451614 0.062704369
0.790454328 0.006451614 0.069828056
0.823526442 0.006451614 0.078531280
0.856714368 0.006754628 0.089207321
0.890245318 0.008093877 0.102307238
0.923269629 0.014625516 0.118762560
0.952140987 0.056854837 0.140353397
0.968492270 0.122430623 0.175581619
0.976247966 0.196996927 0.227738410
0.983020425 0.257555783 0.280017763
0.079901852 0.090537332 0.021101626
0.096211404 0.093090996 0.021741804
0.115434133 0.095256098 0.023670219
0.137284026 0.096941777 0.026798565
0.161709607 0.098839432 0.029356388
0.188519865 0.100572847 0.032425407
0.216654897 0.101588085 0.036300503
0.247189894 0.101457477 0.039479345
0.281071723 0.100028545 0.042251367
0.313755989 0.096803784 0.042988323
0.348708898 0.092799090 0.043082744
0.383310199 0.087862566 0.042695567
0.417921484 0.083004050 0.042063378
0.453197360 0.078208186 0.041438185
0.489110529 0.073179930 0.041424166
0.526326418 0.066859633 0.042426735
0.564769328 0.058755882 0.043962359
0.603318572 0.046392646 0.045788877
0.641605079 0.029952193 0.047584515
0.678320527 0.014633096 0.049933814
0.713484526 0.008972624 0.053832810
0.747932673 0.008363790 0.059374996
0.781963408 0.008338070 0.066671163
0.815630972 0.008295985 0.075363219
0.849311948 0.008305338 0.086035177
0.883645475 0.012600383 0.099359483
0.917661250 0.024012990 0.115954287
0.947590351 0.061295956 0.137128785
0.966019630 0.121700719 0.170287803
0.974247873 0.194230571 0.221635312
0.981054246 0.255548269 0.274815768
0.984000444 0.270828933 0.292499512
0.095414490 0.108592734 0.023852091
0.112528741 0.111848019 0.024379628
0.132436618 0.114649750 0.024943996
0.154832646 0.116405137 0.027580848
0.180821106 0.119019441 0.029012278
0.208268180 0.120998472 0.031478010
0.235985219 0.121456072 0.034514692
0.267011672 0.121118791 0.037079562
0.296853542 0.119049504 0.039220277
0.328182489 0.116335668 0.040255625
0.361113816 0.113366090 0.040804554
0.394580096 0.109829478 0.040824186
0.429113954 0.106016919 0.040164862
0.465388060 0.102388203 0.039717369
0.504349470 0.098118857 0.040258858
0.544078112 0.091878556 0.041527029
0.583973944 0.083125755 0.043115061
0.623153210 0.067575231 0.045011673
0.662079990 0.044706002 0.047522757
0.699872315 0.024478842 0.050809167
0.735769629 0.016061768 0.055897757
0.771055400 0.014823063 0.063329108
0.805826306 0.014806215 0.072242782
0.840574086 0.015870972 0.082664527
0.875384569 0.019212548 0.095677510
0.910541534 0.035212934 0.112052500
0.942066073 0.070302688 0.132639632
0.963421345 0.126065120 0.163528502
0.972229838 0.192557126 0.213504210
0.979158759 0.254686803 0.268453389
0.982526779 0.275509179 0.291185558
0.984240413 0.275351495 0.296109080
0.111579277 0.127623364 0.026547907
0.129296020 0.131270319 0.027067443
0.150095746 0.134537965 0.026675591
0.174213693 0.137174472 0.027341483
0.200929999 0.139511093 0.028097145
0.228145331 0.141003802 0.029045481
0.256138653 0.141258165 0.031564951
0.285313606 0.140230671 0.033102009
0.313870102 0.138081729 0.035015486
0.344102591 0.136212677 0.036509078
0.375837475 0.134181708 0.037484523
0.408615589 0.132061064 0.038087267
0.443328470 0.129656419 0.038143396
0.480469584 0.126666531 0.038363613
0.521137714 0.123210341 0.039759900
0.562812746 0.117253132 0.041339513
0.603114426 0.107289366 0.043074869
0.642542720 0.091279663 0.045154322
0.681805432 0.068149500 0.048131127
0.720554054 0.046344146 0.053080373
0.757730126 0.036288578 0.059857074
0.793594241 0.035213053 0.068483196
0.829103947 0.037834018 0.078595355
0.865123332 0.045601550 0.091169119
0.901449203 0.062764943 0.107122734
0.934987724 0.089856513 0.126702040
0.959191382 0.133440122 0.155107737
0.969937027 0.191884458 0.202213049
0.977142692 0.253586262 0.259419441
0.981148422 0.281871021 0.289124876
0.982966661 0.283066720 0.295127511
0.984624684 0.282109857 0.299740255
0.128462553 0.147850886 0.029159119
0.147357717 0.151909396 0.029424684
0.169360936 0.155721903 0.028117716
0.194168851 0.158683851 0.026797149
0.220633492 0.160114288 0.025650594
0.247285858 0.160646662 0.024689637
0.275309920 0.160442650 0.026441783
0.302982569 0.159190297 0.027487334
0.332266629 0.157813862 0.029615497
0.362241536 0.156424209 0.031787973
0.392755717 0.155260175 0.033377901
0.425810337 0.154210150 0.034550190
0.460930794 0.153083757 0.035476066
0.500227630 0.151060507 0.036995403
0.541523993 0.147168383 0.038918212
0.582987785 0.141296834 0.041096337
0.622574687 0.131360695 0.043325931
0.662123740 0.116847530 0.046055883
0.701873422 0.099500939 0.050165262
0.741114378 0.082777590 0.056108691
0.778817773 0.073212042 0.064086214
0.815192521 0.072446182 0.073665291
0.851728976 0.078558788 0.085576385
0.888874114 0.093261346 0.100472815
0.925011992 0.116773233 0.119300671
0.953912377 0.148063898 0.144212246
0.967368126 0.194210276 0.187082335
0.974914074 0.251528263 0.244711995
0.979809761 0.289378673 0.285547733
0.981807888 0.292865366 0.293954283
0.983449638 0.292015970 0.298370928
0.985103190 0.290969491 0.303364992
0.146199539 0.169690847 0.031745031
0.166763008 0.174108386 0.031424690
0.189223200 0.177913368 0.029768402
0.213468447 0.180156454 0.025552867
0.239443094 0.180404693 0.021772655
0.267025083 0.180752218 0.019607080
0.293513089 0.180245101 0.020089678
0.321612269 0.179628730 0.021166142
0.351105690 0.178983226 0.023357388
0.381152511 0.178420186 0.025858162
0.412405878 0.177656904 0.028206518
0.444976121 0.177430153 0.029833345
0.482189059 0.176938266 0.032069046
0.522653520 0.175317585 0.034661952
0.564171553 0.171166927 0.037131928
0.604190171 0.164674595 0.039824933
0.643093884 0.155486956 0.042928971
0.682140708 0.144518659 0.046800766
0.721807837 0.133663937 0.052210137
0.761354923 0.126497492 0.059463821
0.799247622 0.123644561 0.068315320
0.836374283 0.125693336 0.079125181
0.873741329 0.133114353 0.092917919
0.911088586 0.147087246 0.110464111
0.944087863 0.167552769 0.132353544
0.963605881 0.200516954 0.167850032
0.972558677 0.249229312 0.222928047
0.978244960 0.295129985 0.275924116
0.980822086 0.305535525 0.291651785
0.982517838 0.305362135 0.296602696
0.984165132 0.304439247 0.301563770
0.985807538 0.303405941 0.306681514
0.164314628 0.192236036 0.033637933
0.185233578 0.196281165 0.032805540
0.207146451 0.199213222 0.030002214
0.231348887 0.200512022 0.023475699
0.258614391 0.200828835 0.016942214
0.285459936 0.201041281 0.013444408
0.312889993 0.201214403 0.012809840
0.341049731 0.201501980 0.014063995
0.370639235 0.201682687 0.015707178
0.401058704 0.201647714 0.019219005
0.432838321 0.201588273 0.022019971
0.467137516 0.201102614 0.024506308
0.505617976 0.200665861 0.027231550
0.546389818 0.198881656 0.030374898
0.587272108 0.194991395 0.033593938
0.626178324 0.189071745 0.036904182
0.664219379 0.181236327 0.040701222
0.703032017 0.174061283 0.046335064
0.742208302 0.168808028 0.053486750
0.781345248 0.166224331 0.062009532
0.819246054 0.166766077 0.071929500
0.856810033 0.171270460 0.084850617
0.894726992 0.180273697 0.100951418
0.930952668 0.194011286 0.120575696
0.957925797 0.215373755 0.148374796
0.969790339 0.250688702 0.195970878
0.976340652 0.298206151 0.257934541
0.979839563 0.319220841 0.286785930
0.981736243 0.321588933 0.294552684
0.983381987 0.320714355 0.298945546
0.985038996 0.319815755 0.304107964
0.986682117 0.318768531 0.309407651
0.180763453 0.214698657 0.034898140
0.201465890 0.217604145 0.032732595
0.222954199 0.219641149 0.029065575
0.248580635 0.220802590 0.021353643
0.276146412 0.221917838 0.011993888
0.304301292 0.222643226 0.007121810
0.332254738 0.223610014 0.006168780
0.361208439 0.224802122 0.007057252
0.391680747 0.225949347 0.008708866
0.422683269 0.226494595 0.011898018
0.455045044 0.226551220 0.015173179
0.491247207 0.225877225 0.017965769
0.530079424 0.224856302 0.020814966
0.570644677 0.223060653 0.024310384
0.610275209 0.219496503 0.027708065
0.648479104 0.214496166 0.031977881
0.686338186 0.209616408 0.037481714
0.724646211 0.205586687 0.044329002
0.763484120 0.204535246 0.053239401
0.802024245 0.205571637 0.063641518
0.840056956 0.208586410 0.075852320
0.877482414 0.214551434 0.090825945
0.914758563 0.224409908 0.109101638
0.948016644 0.238328040 0.131406233
0.965976894 0.261821657 0.169253811
0.974110246 0.299297720 0.227952346
0.978886664 0.334042698 0.278984636
0.981143594 0.340561301 0.292335749
0.982784569 0.339900702 0.296565592
0.984435618 0.339130759 0.301285654
0.986093581 0.338243514 0.306390285
0.987737000 0.337242872 0.311804771
0.195758849 0.236482695 0.035034645
0.216754124 0.238687292 0.031940907
0.239659369 0.240842611 0.027430786
0.265757740 0.242573515 0.019045036
0.294214696 0.244094625 0.008954360
0.323683530 0.245581120 0.002375488
0.352341920 0.247054920 0.001166231
0.382136613 0.248819143 0.002029452
0.413677365 0.250364840 0.003896168
0.446095347 0.251496106 0.006866462
0.480560720 0.251798183 0.008983826
0.516992748 0.251147985 0.011181171
0.555558145 0.250091046 0.013212950
0.594984114 0.248054266 0.016656479
0.634200811 0.245383918 0.020968780
0.671872735 0.242179513 0.026183153
0.709519863 0.239976138 0.033186208
0.747728467 0.239827916 0.042387422
0.785928667 0.241134316 0.053332455
0.824043810 0.244002610 0.065601759
0.862042546 0.249143019 0.080535494
0.899186969 0.256568313 0.098064609
0.934723020 0.266517758 0.118096493
0.960217535 0.281753331 0.146701351
0.971740365 0.307477593 0.196028858
0.977425635 0.343817115 0.259195507
0.980508626 0.359241009 0.286514372
0.982385695 0.361513019 0.294447333
0.984031856 0.360964715 0.298650026
0.985675037 0.360325396 0.303521931
0.987332165 0.359509021 0.308651626
0.988980472 0.358661979 0.314081073
0.210897416 0.258116066 0.034446847
0.233137831 0.260454088 0.030954752
0.257502615 0.263017535 0.025163790
0.283967763 0.265435040 0.017192803
0.313327968 0.267305851 0.007570225
0.343249798 0.269162834 0.001229359
0.373274624 0.271157712 0.000020107
0.404873967 0.273452580 0.000147766
0.437628865 0.275460482 0.001446801
0.471790075 0.276764125 0.002974501
0.506918967 0.277285039 0.004737411
0.543459356 0.276886195 0.004830938
0.581285715 0.275565296 0.005614656
0.620194018 0.274173349 0.009327061
0.658067763 0.272292137 0.014390850
0.695927203 0.271962941 0.021384042
0.733975947 0.272595942 0.030005468
0.771880388 0.274990797 0.040688138
0.809639037 0.278084010 0.053693913
0.847450256 0.282558769 0.069103695
0.884572744 0.288891196 0.086283028
0.920677543 0.296958685 0.105794452
0.952273667 0.307512939 0.129092380
0.968365550 0.324890196 0.168081164
0.975808501 0.353793144 0.229368418
0.979831040 0.378680229 0.277574599
0.982091546 0.384995162 0.292560667
0.983743131 0.384691536 0.296635032
0.985404849 0.384278059 0.300985932
0.987049401 0.383739710 0.305881977
0.988706529 0.383072019 0.311063647
0.990357578 0.382346660 0.316427827
0.227749497 0.280755579 0.033390049
0.250830293 0.283232898 0.029461645
0.275940865 0.286101311 0.023192296
0.303044289 0.289057553 0.015287281
0.332785606 0.291292101 0.006558303
0.364207506 0.293529779 0.001210189
0.396209985 0.296081424 0.000007949
0.430584997 0.299001038 0.000006547
0.464195162 0.301215380 0.000323590
0.498588800 0.302673578 0.000974510
0.534070313 0.303264171 0.001402381
0.570577085 0.303091407 0.001299503
0.608342588 0.302350104 0.001031093
0.645909607 0.301415980 0.004197783
0.683388174 0.302191347 0.010197736
0.720944822 0.303641737 0.018100442
0.759009957 0.306814909 0.027743621
0.796607912 0.310567588 0.040331818
0.833964467 0.315213799 0.055810831
0.871301472 0.320914507 0.073493697
0.907799304 0.328033358 0.093397453
0.941856384 0.336535245 0.114448175
0.963736057 0.349265546 0.145547315
0.974412620 0.369580567 0.198484719
0.978846133 0.395607173 0.259315729
0.981634438 0.407265931 0.286203086
0.983493745 0.409501582 0.294422686
0.985149324 0.409500957 0.298571020
0.986820221 0.409268409 0.303266823
0.988479197 0.408871830 0.308215261
0.990136266 0.408362746 0.313420832
0.991785944 0.407796592 0.318679690
0.245477080 0.304085642 0.031843659
0.269342721 0.306635439 0.028321119
0.295310169 0.309959114 0.021503283
0.323514938 0.313744932 0.012998755
0.354600906 0.316442460 0.005410313
0.388158679 0.319256634 0.001060553
0.422978282 0.322428524 0.000025251
0.457446188 0.325234562 0.000000000
0.491186261 0.327452540 0.000014964
0.526028872 0.329072416 0.000000000
0.561760962 0.329909384 0.000149637
0.598875105 0.330049694 0.000059855
0.636049271 0.330620170 0.000115968
0.672966003 0.331662059 0.002154303
0.709541619 0.333921880 0.007625399
0.746839285 0.337631851 0.014898179
0.784290135 0.341971189 0.026333272
0.821594238 0.346767694 0.040287808
0.858604550 0.352304578 0.058993861
0.895235240 0.359021425 0.079697557
0.930434346 0.366497010 0.100832641
0.957671762 0.376417130 0.127183750
0.971958995 0.391307086 0.171314955
0.977744162 0.413643301 0.234886914
0.980881810 0.429187685 0.276338935
0.983037651 0.434567094 0.291825116
0.984714746 0.434849650 0.295948565
0.986379504 0.435023904 0.300257236
0.988050342 0.434978932 0.305157274
0.989723146 0.434793085 0.310256183
0.991388977 0.434522986 0.315390170
0.993053854 0.434152454 0.320687950
0.263927430 0.328316152 0.030242557
0.288836807 0.330928057 0.027134765
0.316252619 0.335000724 0.019457944
0.346535772 0.339858711 0.010277250
0.380050451 0.343489707 0.003586611
0.416053951 0.346806318 0.000721532
0.451175302 0.349754781 0.000042085
0.484702617 0.352074146 0.000000000
0.518633306 0.354129493 0.000000000
0.553717196 0.355847538 0.000000000
0.590067685 0.356921136 0.000000000
0.627299726 0.358527809 0.000000000
0.664209187 0.360643476 0.000000000
0.700537980 0.363928735 0.001162960
0.736252904 0.367628813 0.005236825
0.772468328 0.372145355 0.012917380
0.809174716 0.377065301 0.023532217
0.846233487 0.382822245 0.041755192
0.882892549 0.389264017 0.063657358
0.918668628 0.396290720 0.086590074
0.949955881 0.404350758 0.111035094
0.967748880 0.415672183 0.146794558
0.976509988 0.433471322 0.208254099
0.979939818 0.450275064 0.261073351
0.982274771 0.458269507 0.285793424
0.984055221 0.460149169 0.292795897
0.985735238 0.460650295 0.296929330
0.987417638 0.460971743 0.301461726
0.989098191 0.461132169 0.306459457
0.990770996 0.461188436 0.311594635
0.992451072 0.461153984 0.316801071
0.994123757 0.460971862 0.322251588
0.284276873 0.353598148 0.028260836
0.310899526 0.356852412 0.025881562
0.340415031 0.361663342 0.018220138
0.372864574 0.367301017 0.007901764
0.408237368 0.371731251 0.001721763
0.444339573 0.374734581 0.000248772
0.478698075 0.377018362 0.000000000
0.512291312 0.379163265 0.000000000
0.546800733 0.381165296 0.000000000
0.582287133 0.383176297 0.000000000
0.618955433 0.385502160 0.000000000
0.656208336 0.388417006 0.000000000
0.692654550 0.392713994 0.000000000
0.727896214 0.396992147 0.000668688
0.762761533 0.401505828 0.004298322
0.797745347 0.406315118 0.010925346
0.833697557 0.411974609 0.025116513
0.870084882 0.418242127 0.044208266
0.906346083 0.425070196 0.069482438
0.940146446 0.432320416 0.094693750
0.962068915 0.441846162 0.126522765
0.974604249 0.455167443 0.181274071
0.978911459 0.472292691 0.244108707
0.981414080 0.481291741 0.276053160
0.983348787 0.485168070 0.288944066
0.985036969 0.486021310 0.293035209
0.986723661 0.486742049 0.297261983
0.988400996 0.487237066 0.301929474
0.990088761 0.487609774 0.306994677
0.991770804 0.487875968 0.312188983
0.993457317 0.488022417 0.317542404
0.995130539 0.488047451 0.323068947
0.307709783 0.380326778 0.026124768
0.336263090 0.384272844 0.024913117
0.367318809 0.389536738 0.017967613
0.401500612 0.395425528 0.006887039
0.436588794 0.400087118 0.000255318
0.471778452 0.402391732 0.000000000
0.505938470 0.404351652 0.000000000
0.539940000 0.406342208 0.000000000
0.575478733 0.408693701 0.000000000
0.611849427 0.412039876 0.000000000
0.648891091 0.415882051 0.000000000
0.685487926 0.420561969 0.000000000
0.720916390 0.425464034 0.000000000
0.754883587 0.430176735 0.000133738
0.788702667 0.435076535 0.002503609
0.822817326 0.440235823 0.010721958
0.857649148 0.446063012 0.024429115
0.893337369 0.452795804 0.049745291
0.928209007 0.459747553 0.076062262
0.954766154 0.468058079 0.107738495
0.971049070 0.478901058 0.153524458
0.977531493 0.493993461 0.221072569
0.980496883 0.503901303 0.263371825
0.982611775 0.509843051 0.284719020
0.984303653 0.511064470 0.288671672
0.985982895 0.512026608 0.292792290
0.987662256 0.512858152 0.297068000
0.989337385 0.513566315 0.301888287
0.991023004 0.514129341 0.306962818
0.992702186 0.514571071 0.312244058
0.994381309 0.514897227 0.317645848
0.996046245 0.515114605 0.323123395
0.334192991 0.408599585 0.023373302
0.363794416 0.412858129 0.023448069
0.395786524 0.418177128 0.017749730
0.430350989 0.423821062 0.007525799
0.464659572 0.428142011 0.000631280
0.499157310 0.430131942 0.000000000
0.533792496 0.432049781 0.000000000
0.568502247 0.434464395 0.000000000
0.604887128 0.437915564 0.000000000
0.641972065 0.442581505 0.000000000
0.678840280 0.447861612 0.000000000
0.714233756 0.453278184 0.000000000
0.748185277 0.458362371 0.000000000
0.781517148 0.463419497 0.000164133
0.814526677 0.468627304 0.002765939
0.847624481 0.473959357 0.009884894
0.880986631 0.479497463 0.028252853
0.915460646 0.486206025 0.053637285
0.946565211 0.493694603 0.086121596
0.965643406 0.502912343 0.125572801
0.975421488 0.516192019 0.196334064
0.979238808 0.526786029 0.246195927
0.981530845 0.533519566 0.276151717
0.983306766 0.535806060 0.283969045
0.985012412 0.537102759 0.287901759
0.986715317 0.538268566 0.292007744
0.988414228 0.539230227 0.296325386
0.990096271 0.540084541 0.301179975
0.991773129 0.540838420 0.306305587
0.993464649 0.541394055 0.311676443
0.995146692 0.541885018 0.317078263
0.996813953 0.542293906 0.322637409
0.362541795 0.437917262 0.021018345
0.393000424 0.442434281 0.020690104
0.425279766 0.447548300 0.016162682
0.458720982 0.452562571 0.007671226
0.492610037 0.456429571 0.000874440
0.527057469 0.458380938 0.000000000
0.562574804 0.460770339 0.000000000
0.598522723 0.464365780 0.000000000
0.635572076 0.469266742 0.000000000
0.672353685 0.474533230 0.000000000
0.707924068 0.480088383 0.000000000
0.741601288 0.485550851 0.000000000
0.774556816 0.490880400 0.000000000
0.807213247 0.496264100 0.000000000
0.839623809 0.501664281 0.002397460
0.871625841 0.506795168 0.012239330
0.903742671 0.512116969 0.029606998
0.935638011 0.518726528 0.061241183
0.958416224 0.527328491 0.101829790
0.972614348 0.538367569 0.163440004
0.977818727 0.549995959 0.228807002
0.980219662 0.556859970 0.264263541
