Desert Affinity Presets/Desert Affinity Preset #3.cube
TITLE "32x32x32 Adobe/IRIDAS cube 3D LUT exported with GrossGrade v0.1.027.1 (beta) 64 bit"
LUT_3D_SIZE 5
DOMAIN_MIN 0.000000 0.000000 0.000000
DOMAIN_MAX 0.903226 0.903226 0.903226
0.000000000 0.052852683 0.053374514
0.131281227 0.035665017 0.036186848
0.380490273 0.000000000 0.000000000
0.644683719 0.000000000 0.000000000
0.859371781 0.000000000 0.000000000
0.000000000 0.140188918 0.047292732
0.118287347 0.137518868 0.038655389
0.389876634 0.119427010 0.010974014
0.687597632 0.104144707 0.000000000
0.934641004 0.108098790 0.000042553
0.000000000 0.355067283 0.005420133
0.104078829 0.381282449 0.029190883
0.382193774 0.384095818 0.022515703
0.684833765 0.383351386 0.009954574
0.938886762 0.396811515 0.016032629
0.000000000 0.640488923 0.004970741
0.110471405 0.673441648 0.036241103
0.388618469 0.678732872 0.036111083
0.680938244 0.677215576 0.023824543
0.920660615 0.685517967 0.019767009
0.000000000 0.912241518 0.053951118
0.150481984 0.936206877 0.076441973
0.416456997 0.929415882 0.066271842
0.693788648 0.915966690 0.045151956
0.917331219 0.915073454 0.032931373
0.000000000 0.053496562 0.135644034
0.114388272 0.039902057 0.123186775
0.376252621 0.000000000 0.091138899
0.645624995 0.000000000 0.044717353
0.865039527 0.000000000 0.020661332
0.000000000 0.142332539 0.131888509
0.124856323 0.144088075 0.133644015
0.404190361 0.127900824 0.117464587
0.703168333 0.113967672 0.103526846
0.951338828 0.119382113 0.108937763
0.000000000 0.367755055 0.101001427
0.119163163 0.395148695 0.127953842
0.396976054 0.398882180 0.125719815
0.702922881 0.397751898 0.115005128
0.958331048 0.410310805 0.124583825
0.000000000 0.656070173 0.103653699
0.126818314 0.688657701 0.135612428
0.403977811 0.692947924 0.137465984
0.694258988 0.690540254 0.125562355
0.933923542 0.696975529 0.120179258
0.000000000 0.925105035 0.149999842
0.163064748 0.947690248 0.171863541
0.427818149 0.939482987 0.161954522
0.703897238 0.925323129 0.142369911
0.926147938 0.923881292 0.130169973
0.000000000 0.041688796 0.378208816
0.100748390 0.027414406 0.363891006
0.334465265 0.000000000 0.324386448
0.613096833 0.000000000 0.298722655
0.850643277 0.000000000 0.288095087
0.000000000 0.133251667 0.377245158
0.121125579 0.140360549 0.384289622
0.386463672 0.131311789 0.376378179
0.699663699 0.113743879 0.378278852
0.952988088 0.119119085 0.385955065
0.000000000 0.368713915 0.356726706
0.121873684 0.397198796 0.385214806
0.399598598 0.401494235 0.389513433
0.709735155 0.398726255 0.386738837
0.964578569 0.410812110 0.398831308
0.000000000 0.659270525 0.361963183
0.130424663 0.691383779 0.393986255
0.406761140 0.694512784 0.396670878
0.694620788 0.690898120 0.387090147
0.935574710 0.694941938 0.381544322
0.000000000 0.925201297 0.405465573
0.162591234 0.946278036 0.426278889
0.426428884 0.936960995 0.416343212
0.701524258 0.921797335 0.398739845
0.922505021 0.920235217 0.387691319
0.000000000 0.026851863 0.651242375
0.085507885 0.012167349 0.636516094
0.318512231 0.000000000 0.596282542
0.573686779 0.000000000 0.560837388
0.809417129 0.000000000 0.566992760
0.000000000 0.123659104 0.655533910
0.116540790 0.135777429 0.667592943
0.382729024 0.128732413 0.660502434
0.668784857 0.121851504 0.655940652
0.930541873 0.124588355 0.683558941
0.000000000 0.367668599 0.643655956
0.122125812 0.397338241 0.673288941
0.400379568 0.402284831 0.678182006
0.693988085 0.404108465 0.681138635
0.961139441 0.410653561 0.707149267
0.000000000 0.660076976 0.650950491
0.131038189 0.691552401 0.682429850
0.406441689 0.693537712 0.684421420
0.692062140 0.688328564 0.679212689
0.935546577 0.689068794 0.679942429
0.000000000 0.922332585 0.691002011
0.159209549 0.942220628 0.710857749
0.422200859 0.931854546 0.700393379
0.696831703 0.915885627 0.683986187
0.916260242 0.914003253 0.676139414
0.000000000 0.016119631 0.868340135
0.074777998 0.001902264 0.853603184
0.309100866 0.000000000 0.814667046
0.565920770 0.000000000 0.780865133
0.785760045 0.000000000 0.780249059
0.000000000 0.120067589 0.879764795
0.116928533 0.136160076 0.895790398
0.384678870 0.130682379 0.890261531
0.670497775 0.125891119 0.885441184
0.907274723 0.138725057 0.901763797
0.000000000 0.371481031 0.875310659
0.126802236 0.401980162 0.905754685
0.405649126 0.407544315 0.911257565
0.698409200 0.409688383 0.913359463
0.936399102 0.424899727 0.930888057
0.000000000 0.665114760 0.883913696
0.135545284 0.695897281 0.914678514
0.409817606 0.696792543 0.915545225
0.693837702 0.690119028 0.908809841
0.919299722 0.693961382 0.913788736
0.000000000 0.923710704 0.920456946
0.159540296 0.942179203 0.938926339
0.421844929 0.931060672 0.927806616
0.696091354 0.914484084 0.911243260
0.914429486 0.912172258 0.908919871
