Desert Affinity Presets/Desert Affinity Preset #5.cube
TITLE "32x32x32 Adobe/IRIDAS cube 3D LUT exported with GrossGrade v0.1.027.1 (beta) 64 bit"
LUT_3D_SIZE 5
DOMAIN_MIN 0.000000 0.000000 0.000000
DOMAIN_MAX 0.903226 0.903226 0.903226
0.112329900 0.023686539 0.000000000
0.221927717 0.017837189 0.000000000
0.444454491 0.000000000 0.000000000
0.684672654 0.000000000 0.000000000
0.876660407 0.000000000 0.000000000
0.104465432 0.111729138 0.000000000
0.207154810 0.120408297 0.000000000
0.452057838 0.109520324 0.000000000
0.725818098 0.100709602 0.000000000
0.950148046 0.110796414 0.000000000
0.059101854 0.328007698 0.000000000
0.189460084 0.365558028 0.000000000
0.440884352 0.375575125 0.000000000
0.719563603 0.381300271 0.000000000
0.950909495 0.400895029 0.000000000
0.054797467 0.614963531 0.000000000
0.191980064 0.659259498 0.000000000
0.443428010 0.671761155 0.000000000
0.711794138 0.676705420 0.000000000
0.928806782 0.691137433 0.000000000
0.099669494 0.888343632 0.000000000
0.227882385 0.923658371 0.000000000
0.467169672 0.924072206 0.000000000
0.720540583 0.917086065 0.000000000
0.921381116 0.922320247 0.000000000
0.109994248 0.021350825 0.036349833
0.202058747 0.019097896 0.035242513
0.437226027 0.000000000 0.015830398
0.682644308 0.000000000 0.011290320
0.879349947 0.000000000 0.011290320
0.104292929 0.110896006 0.030825909
0.210736960 0.123987228 0.043916777
0.463387251 0.115014568 0.034947906
0.738404930 0.107546486 0.027481023
0.963867784 0.119088903 0.039029725
0.069688201 0.337704897 0.013051356
0.201560020 0.376436472 0.034743533
0.452683449 0.387374252 0.039717101
0.734666407 0.392721385 0.035468366
0.967369020 0.411411464 0.051172271
0.068340562 0.627557635 0.013555437
0.205346078 0.671491206 0.038529340
0.455815822 0.682985306 0.047585681
0.722137988 0.687049329 0.042158071
0.939091802 0.699616909 0.042904358
0.110514075 0.898221135 0.037470691
0.237497598 0.932165623 0.070678852
0.475553423 0.931155205 0.067974165
0.727668643 0.923464179 0.054862231
0.927213013 0.928161681 0.048780903
0.095192432 0.006548950 0.317470342
0.185410574 0.003701178 0.314498872
0.392433226 0.000000000 0.282195389
0.647112012 0.000000000 0.263007492
0.861949980 0.000000000 0.258514136
0.092334352 0.098818064 0.314731538
0.204016179 0.117261834 0.333125591
0.442659676 0.115420289 0.332413822
0.731898904 0.104321875 0.340783715
0.962517917 0.115828358 0.354592621
0.068089940 0.335666299 0.290722489
0.201273650 0.375489712 0.330551803
0.452300310 0.386991650 0.342054695
0.738484561 0.390693456 0.345756203
0.970619440 0.408908665 0.363971680
0.069208443 0.627756715 0.292089492
0.205948338 0.671214759 0.335450679
0.455593765 0.681559443 0.345347583
0.719499528 0.684410572 0.342237741
0.937746167 0.694576263 0.342825234
0.108411014 0.895330191 0.331484884
0.234023139 0.927741408 0.363649696
0.471160114 0.925641894 0.360921741
0.722297728 0.916941524 0.349786222
0.920568407 0.921507418 0.344867170
0.077332340 0.000000000 0.629285038
0.167146862 0.000000000 0.625893831
0.373465270 0.000000000 0.592873991
0.604679167 0.000000000 0.563895643
0.817708194 0.000000000 0.576178372
0.079746149 0.086205542 0.631798804
0.196411669 0.109665245 0.655190587
0.435908526 0.109828942 0.655314147
0.697997093 0.109412894 0.657218218
0.937050104 0.118277691 0.690971851
0.064198434 0.331597596 0.616425157
0.198502392 0.372608662 0.657403827
0.450072616 0.384764373 0.669504046
0.719716430 0.393059075 0.678937197
0.964160085 0.405740023 0.711075842
0.067370750 0.625549972 0.619860470
0.203545183 0.668368936 0.662678421
0.452266008 0.677564025 0.671869934
0.713910818 0.678831697 0.673131883
0.934699237 0.685689092 0.679994881
0.103061698 0.889438093 0.655803859
0.227615520 0.920669615 0.686998546
0.463915348 0.917512357 0.683744609
0.714586139 0.908015788 0.673803687
0.911314964 0.912263751 0.672085345
0.063619018 0.000000000 0.884703279
0.153447554 0.000000000 0.881316900
0.361074060 0.000000000 0.849589646
0.593932450 0.000000000 0.822256863
0.791070461 0.000000000 0.827771246
0.073187821 0.079629458 0.894348800
0.193817779 0.107071355 0.921729565
0.434875429 0.108787991 0.923402786
0.696730137 0.110468276 0.925050735
0.910805404 0.129431650 0.947502911
0.065099508 0.332430780 0.886414051
0.200198978 0.374276638 0.928201199
0.452348173 0.387045920 0.940915763
0.721154571 0.395659328 0.949478269
0.936437309 0.417005956 0.973136663
0.069618993 0.627611220 0.891144335
0.205071554 0.669728816 0.933250785
0.452653557 0.677829742 0.941322684
0.712706387 0.677617729 0.941059351
0.915469646 0.687600970 0.952170312
0.101806253 0.887835562 0.923584402
0.224962443 0.917643011 0.953402162
0.460579872 0.913725555 0.949486315
0.710865259 0.903636992 0.939385891
0.906502545 0.907441616 0.943203449
