Desert Affinity Presets/Desert Affinity Preset #31.cube
TITLE "32x32x32 Adobe/IRIDAS cube 3D LUT exported with GrossGrade v0.1.027.1 (beta) 64 bit"
LUT_3D_SIZE 8
DOMAIN_MIN 0.000000 0.000000 0.000000
DOMAIN_MAX 0.903226 0.903226 0.903226
0.002087435 0.001710532 0.002957198
0.082198225 0.016630700 0.020343577
0.165810645 0.024827518 0.030476812
0.279890239 0.024788292 0.037382565
0.404236764 0.009299442 0.035820257
0.505144894 0.004826726 0.029056646
0.622618437 0.000043956 0.022300120
0.741011798 0.000000000 0.018853348
0.046412215 0.076612554 0.020080339
0.117563978 0.088382952 0.025124019
0.233776927 0.092326775 0.028734021
0.367475808 0.081056796 0.023375154
0.488376200 0.065791525 0.012298755
0.617599666 0.042326581 0.004252024
0.742045462 0.006451614 0.006479742
0.859240830 0.006928581 0.024452996
0.085978545 0.153106615 0.030690517
0.153644830 0.173647925 0.038030703
0.266075671 0.185649008 0.019554274
0.396122545 0.178215593 0.007357436
0.551163852 0.170751199 0.000438623
0.706253350 0.135888755 0.001053536
0.846758127 0.124893449 0.009967701
0.965070546 0.189617425 0.100622222
0.121537261 0.253099710 0.035677150
0.188192010 0.271678060 0.038665261
0.287884831 0.287951320 0.028357139
0.433780134 0.296023905 0.000000000
0.592942178 0.288709551 0.000007014
0.757741868 0.283055514 0.000000000
0.914360702 0.299514621 0.027644895
0.984056830 0.377730608 0.235357150
0.144041300 0.360672772 0.029090807
0.223977327 0.379018366 0.026431955
0.334217101 0.401010513 0.025386829
0.485003173 0.424558699 0.002224915
0.649674535 0.429489493 0.000000000
0.806687534 0.437635988 0.000000000
0.958211601 0.457082033 0.048432771
0.990036905 0.498599559 0.257752955
0.182002604 0.475523174 0.019578097
0.285238802 0.499779046 0.015187712
0.406984925 0.525004566 0.015166175
0.546648622 0.554780722 0.014273007
0.712120712 0.577291071 0.000000000
0.856747568 0.589314520 0.000000000
0.976213574 0.599848330 0.071156509
0.991897285 0.619062006 0.251673728
0.257961959 0.599222720 0.009735742
0.368627667 0.626569510 0.002658391
0.494115472 0.659250855 0.013139552
0.625251293 0.689376891 0.039223079
0.770244598 0.716205537 0.029405499
0.902747095 0.724674284 0.001176518
0.984288692 0.738397062 0.211146563
0.991719544 0.746450305 0.270218194
0.347292185 0.736365139 0.015918996
0.462274551 0.765585899 0.019071708
0.578549862 0.791568100 0.051378246
0.699723423 0.814157486 0.087445900
0.820154548 0.836909354 0.122728951
0.944902003 0.853329718 0.112932906
0.984609187 0.867595851 0.318480283
0.990902245 0.877765894 0.326066792
0.003176980 0.012158434 0.064876825
0.010387996 0.019645408 0.085515127
0.071411245 0.018969294 0.091098882
0.181214407 0.022408629 0.093288660
0.306484669 0.012148151 0.104333393
0.420315892 0.001329428 0.104153223
0.523592174 0.000397941 0.107393369
0.646721840 0.000000000 0.116666473
0.005320529 0.086500749 0.078486368
0.054212894 0.082400270 0.075605817
0.146175072 0.087398611 0.086150564
0.260595053 0.090750538 0.096522704
0.379394501 0.081833012 0.095335938
0.501493573 0.072283439 0.096549295
0.634952724 0.032251369 0.103218049
0.760558426 0.006957106 0.115979411
0.044867709 0.152104601 0.072915167
0.102698117 0.157185301 0.082606010
0.202075645 0.182499737 0.088865504
0.344929785 0.181371883 0.077201307
0.483221531 0.178161442 0.076177709
0.635776579 0.160343811 0.081100784
0.773235440 0.135432065 0.096003659
0.900926292 0.155483708 0.131679252
0.086603247 0.248083770 0.069608681
0.145680889 0.257386833 0.081453361
0.228771046 0.278626114 0.092496581
0.372681528 0.302447557 0.071486115
0.543624878 0.303401887 0.052392457
0.708851814 0.294452488 0.057772391
0.867349029 0.304954827 0.088694811
0.980134726 0.344586134 0.177124262
0.109855548 0.356022090 0.061542787
0.180459708 0.368923008 0.075919136
0.276708186 0.391871214 0.088346936
0.416119993 0.425421894 0.094876282
0.596219182 0.446471751 0.030314472
0.766245484 0.454443097 0.023537330
0.917401016 0.466467381 0.086332440
0.990436435 0.507754862 0.274116248
0.148612142 0.476133376 0.054177821
0.242421478 0.493654877 0.068911485
0.351971298 0.519073308 0.083098888
0.488713861 0.553684950 0.094403967
0.646918893 0.590846062 0.076982975
0.815831244 0.607298315 0.028234076
0.953163087 0.614716947 0.085795596
0.992213130 0.633616328 0.279748946
0.222157210 0.604547977 0.038257383
0.327356368 0.625312269 0.057294503
0.443838447 0.657174349 0.080635034
0.572007358 0.690925181 0.107194871
0.712299645 0.724630952 0.132238477
0.857052326 0.743752420 0.088891692
0.977476954 0.752747476 0.129388765
0.991804123 0.762630165 0.297965795
0.312426180 0.744607508 0.037945990
0.422158599 0.767476499 0.066195555
0.535206795 0.793911099 0.103104882
0.650872409 0.818448067 0.135856673
0.775967836 0.844574630 0.170916766
0.898328960 0.867994070 0.193250313
0.984244347 0.884209454 0.331590384
0.990671277 0.895282209 0.363694578
0.003878867 0.022200031 0.117484339
0.010747123 0.028936990 0.141884655
0.018099835 0.030707784 0.167533740
0.050246414 0.023961976 0.188609555
0.207710534 0.005059598 0.181500793
0.320179820 0.010314653 0.176851839
0.431069046 0.008049530 0.186501682
0.556209028 0.000000000 0.207799360
0.001049332 0.092239775 0.132374346
0.007339617 0.098669924 0.144914299
0.036839072 0.103338227 0.165376350
0.133272529 0.097879283 0.180748671
0.257011861 0.097362511 0.170622289
0.380662352 0.091664694 0.180766329
0.521405518 0.058309190 0.197596192
0.659094036 0.008623222 0.222456917
0.000140752 0.170206875 0.149732918
0.022963572 0.175967380 0.154580623
0.122523732 0.164197952 0.128251076
0.228342801 0.170853943 0.161270976
0.363027036 0.177338958 0.170958921
0.503933907 0.171531320 0.186425284
0.647206187 0.150142029 0.210524589
0.787967741 0.138753101 0.245348841
0.015156810 0.277069628 0.146598369
0.071643218 0.256209880 0.146699280
0.143520996 0.250624031 0.134719625
0.293332160 0.290235072 0.161345005
0.485517472 0.301597714 0.157505080
0.646310627 0.294879049 0.172518015
0.793754458 0.302159637 0.207576260
0.933356524 0.325623035 0.262109697
0.055121548 0.359442353 0.123203836
0.127527222 0.354760826 0.131329164
0.220265746 0.371350914 0.149810165
0.345968843 0.409975737 0.174399391
0.524508893 0.448183388 0.170625255
0.718903780 0.461004853 0.156931773
0.873355031 0.471661657 0.195440277
0.988868535 0.495431602 0.276541770
0.106637187 0.466281950 0.112304576
0.192262769 0.478827417 0.132965371
0.299910933 0.502071917 0.156273097
0.425062597 0.538527429 0.180562466
0.577588141 0.587906003 0.206613019
0.764387190 0.619512022 0.179348096
0.915641963 0.628121853 0.197635099
0.992751539 0.643957555 0.330937803
0.180313274 0.593241453 0.114710502
0.280064255 0.611856997 0.138983786
0.394166946 0.642511725 0.165867448
0.516384780 0.680464685 0.197651759
0.653695047 0.721288145 0.232984439
0.801945210 0.754639566 0.244541571
0.949521244 0.767999232 0.231262907
0.992051840 0.776627719 0.353432477
0.260146976 0.736402512 0.127444714
0.376656353 0.756374478 0.154737756
0.491284728 0.784907937 0.186304852
0.601307690 0.813005865 0.218859121
0.724160731 0.843736053 0.253085047
0.848994851 0.874015689 0.286227107
0.977587640 0.899643600 0.336505711
0.990458429 0.910791039 0.423850298
0.005267686 0.029682850 0.174711242
0.012724672 0.033590667 0.203441665
0.020973796 0.033914723 0.237319663
0.032150660 0.031545796 0.274338007
0.046309482 0.026890207 0.307828128
0.147542760 0.010005104 0.314810455
0.330388635 0.006779486 0.276089132
0.452959180 0.002773424 0.288134456
0.000684589 0.105460547 0.194529742
0.007028184 0.111818686 0.224481717
0.013478402 0.116671249 0.257917941
0.020231150 0.118131958 0.292036951
0.067432165 0.108746655 0.307566494
0.252877623 0.097387351 0.274119586
0.400983244 0.099093676 0.281548798
0.547465384 0.051360421 0.312628508
0.000000000 0.190832883 0.212830842
0.006558228 0.187289402 0.227382123
0.025748596 0.195570290 0.235585824
0.046743073 0.202677980 0.281813502
0.204131797 0.182792172 0.276713014
0.365222722 0.188878253 0.274244487
0.515113533 0.184937045 0.308235377
0.658896148 0.152348325 0.341518402
0.000124386 0.295410782 0.213932186
0.009243747 0.284961343 0.236261547
0.092947684 0.260286927 0.193755075
0.198315799 0.261371970 0.162541166
0.325671822 0.282837272 0.225242585
0.503648102 0.294240415 0.292242050
0.659008384 0.296266198 0.326100498
0.803021729 0.305331707 0.370230377
0.000037409 0.396209538 0.213872030
0.031805698 0.399305612 0.240843385
0.120619401 0.364339471 0.218593925
0.209208250 0.362710208 0.186006889
0.392747045 0.430019975 0.238933221
0.654758990 0.456648320 0.294709414
0.811495125 0.468031764 0.335093319
0.946368277 0.482579410 0.383760810
0.013496301 0.512041569 0.220405936
0.125148758 0.482747942 0.211678296
0.235911250 0.487438887 0.228102386
0.356609255 0.515595675 0.262629062
0.501891553 0.568337262 0.305415481
0.687975585 0.620964468 0.328918010
0.867881417 0.633961499 0.336064637
0.991635501 0.644309461 0.389867812
0.118372314 0.595566094 0.188338235
0.216269881 0.601545751 0.210340559
0.339679688 0.629436910 0.246744081
0.458686054 0.662516296 0.284729779
0.582347095 0.702897489 0.325163007
0.734264076 0.750314057 0.363057107
0.897024870 0.778112173 0.361391515
0.992384255 0.789534628 0.435542881
0.207096577 0.730446517 0.200566500
0.315911114 0.746715665 0.232535169
0.443076611 0.773220062 0.268755555
0.549907982 0.799260437 0.304342687
0.662167370 0.831020772 0.340918124
0.793582261 0.870188594 0.380505353
0.932381749 0.908663452 0.422218531
0.990386426 0.924913049 0.502332687
0.008670045 0.032127548 0.243337676
0.017844565 0.033364322 0.278471619
0.029674679 0.032382336 0.314447433
0.044993710 0.027794546 0.345963240
0.058193013 0.025885319 0.374615997
0.072271921 0.023469154 0.399850488
0.095512763 0.017230701 0.420481145
0.319902539 0.001229359 0.402896494
0.000669625 0.113332406 0.265706897
0.007359253 0.116837963 0.296766877
0.014157846 0.118637845 0.326280743
0.021814501 0.118988149 0.356099159
0.030411068 0.117967114 0.385594785
0.040585820 0.114807479 0.410716921
0.201830417 0.098069608 0.402165622
0.427182406 0.078019165 0.407896817
0.000000000 0.197036430 0.281173497
0.006451614 0.200137526 0.310202926
0.012903227 0.205023497 0.339617968
0.019354852 0.210631013 0.371026367
0.025862573 0.213476107 0.402950943
0.146916971 0.201635495 0.408376426
0.381222308 0.197685406 0.404261678
0.546885073 0.189109996 0.436105192
0.000000000 0.298625022 0.280960351
0.006451614 0.305786550 0.316999733
0.012903227 0.311945736 0.350200713
0.020413995 0.317399025 0.366302878
0.081624299 0.317937732 0.403487504
0.318451375 0.303003222 0.405556709
0.505783737 0.313148737 0.426806599
0.658217132 0.325234234 0.464592993
0.000000000 0.407699227 0.282198191
0.006451614 0.422399193 0.323334873
0.013251132 0.424075991 0.351533443
0.172253296 0.364224255 0.248466626
0.305776119 0.388562858 0.220420539
0.455676615 0.429245830 0.300510257
0.654520631 0.452929378 0.450913131
0.808005869 0.469714910 0.496153533
0.000000000 0.527872682 0.299488515
0.007487849 0.540946305 0.342713892
0.099852152 0.526746750 0.353298396
0.234429449 0.498563498 0.320034772
0.332826287 0.500953615 0.265880644
0.488721520 0.583279729 0.293792576
0.799305141 0.628231049 0.464367837
0.949140966 0.636579633 0.502697051
0.002721053 0.657498240 0.322016209
0.103126347 0.639264464 0.328341663
0.235645771 0.629621863 0.333932191
0.389371663 0.656364620 0.377378345
0.508733690 0.686075747 0.421632737
0.643284976 0.726320744 0.460811675
0.821041286 0.777825773 0.490488976
0.985074937 0.797815323 0.523113728
0.102475062 0.762346208 0.311208367
0.227481201 0.746854365 0.313242406
0.370233566 0.768201828 0.353974879
0.493229151 0.791674912 0.396496117
0.593500376 0.811705947 0.430736154
0.717552483 0.851659119 0.471886665
0.866097033 0.904113233 0.519085050
0.989742160 0.937714875 0.589594305
0.018859852 0.029025827 0.320720285
0.030667521 0.028359931 0.349573463
0.041039631 0.029702466 0.377240002
0.052219298 0.029483616 0.404951692
0.065309174 0.027512133 0.433242112
0.082571104 0.023319986 0.461249888
0.104777575 0.016775237 0.486820370
0.133198276 0.008153339 0.512705266
0.001537519 0.114913017 0.333300352
0.009052020 0.116201125 0.359965950
0.017164608 0.117434345 0.387118250
0.026238132 0.118709184 0.416128606
0.036252510 0.119961880 0.446234733
0.046922475 0.119708255 0.475938171
0.057857580 0.116368145 0.504057646
0.118808411 0.101200826 0.527270675
0.000000000 0.195633873 0.342412710
0.006451614 0.199786052 0.371485353
0.012908839 0.205811888 0.401403129
0.019354852 0.213476509 0.432560176
0.025877541 0.219960168 0.466840327
0.034115911 0.222397864 0.500818670
0.067573220 0.220134854 0.529314339
0.371688068 0.203277290 0.530625999
0.000000000 0.298409313 0.348146051
0.006451614 0.306394637 0.384098738
0.012903227 0.316219091 0.421171367
0.019354852 0.326879025 0.457517475
0.025806461 0.335167199 0.493491799
0.037324674 0.338348866 0.528275013
0.297073215 0.323890209 0.536919951
0.521717012 0.331127405 0.556983769
0.000000000 0.416722745 0.355466038
0.006451614 0.429472059 0.400400162
0.012903227 0.441292614 0.444174856
0.019354852 0.450380266 0.484063178
0.029487517 0.458163470 0.519373357
0.201024428 0.452311963 0.533412278
0.458947927 0.456798911 0.561802924
0.643483996 0.469790250 0.576365769
0.000000000 0.538620949 0.374730498
0.006451614 0.554489970 0.419591188
0.012903227 0.566611409 0.461807460
0.027063020 0.574915707 0.501146555
0.259512633 0.533064365 0.418372810
0.453331113 0.554367483 0.377548665
0.591012359 0.591352463 0.417351007
0.788832903 0.614837170 0.605293512
0.000000000 0.671471775 0.402476072
0.006451614 0.686777949 0.447690457
0.045566145 0.692996621 0.482444078
0.213892728 0.676758349 0.486389667
0.396476030 0.678424358 0.492228448
0.491026610 0.673533380 0.409202874
0.588672340 0.735212922 0.346932322
0.898624301 0.789535344 0.579998791
0.000407760 0.808163643 0.434085846
0.047138367 0.809633136 0.464141071
0.226228505 0.785601020 0.458716273
0.391192555 0.795337081 0.489290237
0.524154544 0.804823756 0.519798398
0.630168140 0.823537230 0.549617648
0.770459175 0.878256679 0.588228881
0.964017451 0.947330356 0.670792043
0.030954687 0.026506783 0.383118838
0.039081313 0.029449455 0.408833474
0.048924118 0.029545821 0.434793115
0.064343631 0.026607316 0.462612838
0.082768545 0.021993797 0.491607845
0.110233821 0.014832752 0.526089191
0.135361806 0.008863658 0.559766769
0.152215466 0.006024753 0.587784469
0.004726655 0.113518424 0.393138707
0.013540661 0.114969864 0.419656277
0.022978466 0.116881907 0.446335405
0.033031661 0.119056642 0.474748224
0.043904074 0.120871782 0.507820487
0.055910051 0.120227717 0.544469535
0.068646841 0.116258793 0.578907251
0.081935480 0.109901860 0.609513938
0.000022446 0.195621997 0.403069615
0.006619022 0.201105669 0.431718677
0.012906499 0.208145589 0.461672783
0.020731036 0.217080280 0.496081024
0.029379966 0.225089401 0.534108818
0.041067950 0.229349256 0.572150469
0.054546863 0.229900375 0.606883705
0.068563119 0.228967935 0.637393534
0.000000000 0.299686760 0.414024711
0.006451614 0.309519768 0.450983852
0.012903227 0.321077526 0.489035696
0.019354852 0.332821012 0.526868343
0.025806461 0.342558324 0.563966990
0.032258086 0.348291963 0.601132929
0.038709681 0.351391912 0.636446297
0.244876564 0.350237548 0.666485548
0.000000000 0.422134191 0.431973457
0.006451614 0.434697717 0.475239635
0.012903227 0.446757525 0.517669141
0.019354852 0.457532644 0.557257056
0.025806461 0.467653394 0.594309866
0.032258086 0.477790862 0.632122040
0.133333251 0.484470487 0.666789889
0.465343922 0.488484979 0.697239757
0.000000000 0.549057424 0.449746460
0.006451614 0.562783599 0.495354265
0.012903227 0.577088356 0.540628314
0.019354852 0.590043485 0.584343016
0.025806461 0.601458192 0.626177967
0.075443774 0.612389445 0.661916256
0.391001165 0.617919326 0.683180630
0.601011813 0.616921723 0.709661961
0.000000000 0.685322821 0.479963601
0.006451614 0.704437256 0.526906431
0.012903227 0.719119430 0.570160389
0.019635417 0.728827894 0.612471998
0.115508899 0.729670465 0.638263941
0.364725649 0.725847960 0.641369462
0.578744709 0.713405430 0.574135602
0.729864538 0.742005885 0.558689177
0.000000000 0.820411444 0.511010587
0.006451614 0.831928432 0.552778482
0.014425786 0.841710269 0.593200684
0.157563671 0.831316054 0.605463684
0.365765989 0.825303793 0.617789984
0.531424880 0.829371691 0.642703652
0.626330376 0.817521393 0.556974351
0.780476093 0.899280667 0.562461615
0.038987439 0.027068356 0.440523297
0.051618576 0.026209841 0.466259331
0.066099159 0.023283472 0.492644072
0.089634113 0.018123815 0.524325728
0.113756895 0.012903858 0.559378207
0.129184335 0.012209876 0.593492329
0.147783443 0.009115218 0.625897348
0.168709695 0.002985258 0.655668974
0.010599875 0.112357087 0.451335967
0.020318775 0.114455216 0.477680862
0.030469660 0.116399713 0.505971432
0.041647490 0.117008716 0.538940609
0.053822678 0.117027998 0.574976563
0.067208551 0.116261132 0.612659454
0.081784077 0.112901308 0.648211479
0.097481310 0.105147794 0.679641366
0.000421321 0.197080538 0.461594075
0.008178517 0.203658715 0.492060035
0.017289929 0.211347163 0.526666105
0.027412787 0.219928250 0.563344181
0.039855048 0.228147566 0.602369606
0.052975278 0.234090760 0.640733361
0.066993393 0.236134946 0.675582230
0.081168622 0.238515511 0.710415959
0.000000000 0.303271949 0.480353415
0.006451614 0.314370364 0.518475592
0.012903227 0.325819433 0.556587219
0.019354852 0.337733656 0.595421672
0.025806461 0.348890334 0.633672357
0.032965567 0.358345807 0.671358407
0.042409923 0.367163688 0.709137976
0.056448586 0.373728305 0.745192528
0.000000000 0.427137613 0.504737854
0.006451614 0.439411551 0.546480179
0.012903227 0.452281624 0.588461637
0.019354852 0.466949165 0.630414128
0.025806461 0.481374770 0.669524431
0.032258086 0.494162530 0.705899000
0.038709681 0.503970027 0.742521763
0.067423500 0.510768116 0.780082345
0.000000000 0.554991663 0.525247455
0.006451614 0.572608769 0.573040009
0.012903227 0.589982033 0.621049464
0.019354852 0.604496241 0.664727509
0.025806461 0.616744816 0.702805042
0.032258086 0.628016829 0.737074018
0.038709681 0.638707101 0.773411751
0.368692636 0.646317840 0.805693626
0.000000000 0.700843275 0.557120144
0.006451614 0.717806518 0.605701685
0.012903227 0.730209768 0.650033593
0.019354852 0.740023077 0.689439178
0.025806461 0.748495817 0.726020932
0.040537171 0.755648494 0.760090113
0.306536078 0.763444662 0.783602357
0.542621613 0.768940091 0.815100789
0.000000000 0.832440197 0.586115897
0.006451614 0.846922040 0.630444586
0.012903227 0.858723760 0.670427144
0.019354852 0.867615461 0.707643211
0.034360986 0.873840034 0.740847826
0.288684160 0.872447133 0.752460420
0.512748837 0.880652010 0.779416084
0.721047282 0.912789404 0.813232243
