Desert Affinity Presets/Desert Affinity Preset #19.cube
TITLE "32x32x32 Adobe/IRIDAS cube 3D LUT exported with GrossGrade v0.1.027.1 (beta) 64 bit"
DOMAIN_MIN 0 0 0
DOMAIN_MAX 1 1 1
LUT_3D_SIZE 32
0.033225015 0.032674108 0.033051070
0.035786692 0.033019714 0.033137057
0.039124168 0.033515360 0.032954711
0.051351432 0.035635557 0.030443650
0.064596795 0.037994191 0.027510773
0.079597004 0.040227089 0.024402982
0.094724886 0.042177934 0.021138052
0.109541431 0.044986937 0.018866370
0.124565639 0.048301417 0.016932314
0.139586538 0.052557182 0.015668832
0.154857755 0.057044405 0.014553103
0.170375377 0.061881404 0.013725422
0.186089829 0.066185355 0.012894939
0.201611221 0.069585837 0.012051369
0.216690600 0.072681427 0.011204061
0.231160805 0.075582072 0.010306234
0.245058745 0.078208193 0.009393441
0.258821994 0.080615476 0.008425960
0.273456097 0.082742184 0.007162464
0.289032280 0.084565878 0.005562752
0.304995447 0.085989267 0.003787687
0.321529716 0.087186843 0.001844280
0.339416444 0.089058243 0.000353519
0.357610166 0.092404500 0.000000000
0.375626802 0.096676797 0.000000000
0.393726826 0.101327762 0.000000000
0.412589550 0.106892496 0.000000000
0.431456000 0.112615727 0.000000000
0.444700837 0.116734192 0.000000000
0.456469655 0.120313361 0.000000000
0.461911410 0.121698946 0.000000000
0.466820121 0.122926205 0.000000000
0.033103880 0.035265792 0.033605207
0.036264099 0.036095768 0.034147155
0.039829802 0.036567576 0.033917084
0.053785399 0.038734037 0.030251466
0.067069978 0.041096907 0.027179696
0.082052916 0.043845091 0.024119582
0.097385667 0.046727970 0.021314854
0.112860516 0.051904913 0.019883443
0.127962843 0.055467635 0.018049475
0.143014014 0.059661694 0.016812176
0.158100784 0.063505046 0.015611363
0.173246682 0.067043483 0.014547509
0.188797265 0.071063556 0.013626766
0.204133645 0.074352302 0.012732703
0.219197661 0.077543758 0.011926047
0.233704701 0.080515020 0.011063320
0.247859463 0.082860619 0.009998552
0.261892349 0.084909216 0.008849619
0.276461482 0.086651988 0.007458463
0.292087346 0.088187620 0.005761487
0.308431327 0.089429639 0.003884012
0.325274229 0.090551451 0.001849889
0.343074560 0.092954062 0.000349310
0.361076057 0.096632816 0.000000000
0.378450453 0.100885049 0.000000000
0.396207750 0.105532683 0.000000000
0.414753407 0.110904999 0.000000000
0.433543384 0.116572984 0.000000000
0.446969986 0.120688438 0.000000000
0.458739012 0.124267772 0.000000000
0.464670628 0.125836253 0.000000000
0.469638228 0.127045289 0.000000000
0.032848604 0.038436789 0.034222417
0.036049463 0.039424803 0.034696613
0.040990449 0.041011959 0.035429373
0.055095669 0.043196611 0.031703807
0.070117928 0.045338295 0.027289530
0.085211217 0.048049558 0.024123318
0.100634761 0.051409796 0.021466348
0.116468996 0.057399943 0.020324860
0.132270113 0.063007601 0.019209163
0.147520199 0.067368582 0.018027991
0.162688985 0.071088009 0.016793482
0.177682698 0.073918030 0.015601531
0.192806631 0.076761082 0.014472698
0.207915694 0.079795912 0.013524843
0.222745195 0.082824215 0.012652247
0.237176925 0.085794009 0.011801189
0.251287222 0.088111505 0.010730342
0.265549064 0.089832827 0.009413549
0.280293405 0.091279626 0.007880722
0.295901269 0.092544518 0.006098170
0.312187314 0.093615316 0.004165050
0.329364806 0.094573475 0.002025715
0.347207546 0.097169705 0.000454524
0.365089118 0.101269200 0.000025251
0.382400453 0.105629280 0.000000000
0.399438113 0.110297263 0.000000000
0.417661190 0.115644790 0.000000000
0.436159164 0.121189542 0.000000000
0.449500650 0.125219315 0.000000000
0.461513221 0.128835410 0.000000000
0.467496902 0.130412355 0.000000000
0.472858936 0.131749198 0.000000000
0.031217074 0.047536224 0.035563532
0.033646904 0.050427929 0.035306338
0.038834251 0.052215166 0.035876881
0.062073845 0.062306285 0.037659883
0.077458546 0.064483516 0.033475183
0.094849698 0.065110117 0.028260812
0.110676453 0.068103269 0.025666963
0.127864301 0.071187243 0.023023516
0.144491374 0.076197267 0.021610379
0.161328316 0.079286799 0.019846525
0.177277848 0.082817748 0.018365562
0.193149358 0.085703850 0.016860785
0.208171383 0.088201389 0.015593071
0.223146111 0.090580113 0.014330994
0.237389594 0.093123026 0.013378480
0.251050770 0.095413454 0.012427362
0.264531076 0.097157180 0.011191420
0.278080285 0.098508134 0.009797468
0.292166770 0.100049868 0.008421748
0.307020903 0.101567462 0.006865522
0.322318941 0.102969356 0.005156862
0.338599175 0.104368307 0.003288274
0.355646938 0.107343435 0.001900855
0.373162657 0.111410595 0.000803829
0.390714735 0.115908206 0.000218844
0.407777518 0.120698586 0.000101005
0.425332874 0.126001239 0.000078559
0.443549544 0.131544128 0.000051905
0.456315428 0.135388047 0.000079962
0.468476236 0.139177799 0.000103811
0.474608272 0.140858218 0.000109422
0.480008006 0.142234907 0.000115033
0.029492524 0.057569869 0.037149698
0.031798854 0.060570113 0.037013590
0.035490762 0.064030476 0.036650237
0.059859257 0.073684394 0.038984645
0.085501991 0.084153861 0.039066434
0.103777371 0.085084371 0.033967588
0.121592261 0.086212188 0.030213533
0.139246151 0.088532500 0.027224550
0.157120600 0.091081992 0.024596581
0.174582109 0.093434565 0.022525016
0.191779852 0.095792361 0.020536728
0.207915172 0.098586246 0.018908959
0.223367423 0.101004764 0.017391998
0.238239199 0.102951847 0.015884448
0.252362698 0.104549989 0.014450739
0.265797436 0.106182151 0.013312086
0.278956592 0.107514121 0.011993413
0.292155564 0.108558871 0.010465229
0.305816948 0.109841980 0.008999715
0.319964945 0.111522347 0.007617452
0.334738195 0.113222659 0.006089289
0.349796683 0.115216434 0.004612562
0.365802258 0.118491486 0.003478124
0.382683009 0.122278221 0.002408683
0.399903089 0.126784161 0.001722227
0.417164505 0.131805971 0.001345797
0.434789777 0.137246341 0.001111054
0.452469975 0.142786115 0.000854333
0.465140849 0.146869406 0.001174181
0.476733893 0.150513366 0.001442127
0.482794464 0.152150020 0.001523487
0.488351911 0.153608546 0.001559029
0.028184092 0.069730312 0.040940642
0.030006472 0.072654299 0.041741647
0.033428151 0.076171756 0.041490067
0.049422976 0.085532442 0.040077392
0.076327339 0.095957503 0.043188959
0.113165863 0.106663696 0.041722950
0.132764444 0.108072236 0.037070639
0.153457373 0.109653130 0.032729808
0.171650484 0.111770064 0.029832894
0.189478800 0.113281704 0.027345659
0.206513703 0.115178205 0.025192272
0.222811535 0.116702415 0.022958495
0.237946242 0.118700132 0.021276046
0.252221376 0.119954012 0.019580940
0.266294360 0.120637305 0.017694566
0.279764026 0.120821081 0.015767960
0.293172926 0.121950053 0.014210799
0.306725293 0.123009704 0.012500760
0.320499599 0.124145128 0.010883764
0.334855974 0.125629559 0.009319570
0.350005031 0.127910063 0.007978450
0.365241438 0.130468085 0.006710749
0.380778313 0.133127600 0.005442574
0.397070199 0.136480585 0.004413818
0.414092243 0.140921190 0.003799844
0.431602955 0.145934328 0.003331759
0.448671669 0.151091099 0.003201294
0.466185898 0.156675652 0.003130686
0.478497148 0.161399409 0.004032246
0.489715487 0.165121794 0.004475546
0.495788246 0.166790634 0.004603673
0.501176357 0.168196172 0.004489108
0.027063668 0.081666276 0.045555066
0.028811742 0.084584191 0.046260733
0.031180779 0.088125437 0.046761971
0.045118582 0.097614750 0.044451516
0.064820252 0.108209468 0.043971688
0.104920171 0.119507372 0.047987148
0.142813087 0.130758509 0.045026172
0.165735900 0.132887051 0.040657688
0.186543956 0.134079754 0.036129329
0.204456031 0.135394007 0.033458337
0.221394584 0.136568025 0.030831303
0.237632081 0.137597978 0.028295878
0.252925426 0.138357192 0.025872696
0.266987562 0.139254138 0.024033565
0.280698657 0.139400259 0.021911504
0.294165343 0.138740838 0.019565029
0.307493269 0.138349548 0.017379368
0.321205705 0.139291704 0.015464497
0.335519880 0.140435576 0.013576294
0.350118816 0.141724497 0.011846560
0.365282118 0.143630207 0.010337098
0.380731642 0.146429971 0.009157315
0.396429330 0.149306953 0.007969568
0.412168264 0.152362242 0.006977286
0.428601950 0.156318232 0.006245940
0.446186721 0.161086753 0.005636170
0.463027358 0.166243225 0.005675443
0.479842603 0.171469226 0.005812921
0.491650760 0.175777555 0.006738796
0.502050519 0.179952994 0.007420585
0.507896483 0.181755856 0.007583305
0.513252378 0.183216646 0.007542642
0.026223885 0.093743473 0.051140245
0.027821310 0.096617967 0.051197790
0.029979469 0.100225084 0.051548481
0.037469849 0.110092796 0.048431389
0.054974172 0.120442279 0.046600185
0.092064977 0.134236768 0.049268879
0.134845689 0.146205425 0.051689267
0.177589774 0.159417614 0.051495671
0.201068133 0.161100015 0.047159411
0.220076382 0.161504969 0.042350497
0.237074688 0.162445724 0.039297927
0.253477186 0.163054571 0.035829149
0.268801332 0.163521662 0.032999154
0.282965451 0.163348541 0.030196270
0.296514124 0.163460493 0.027902151
0.309896439 0.162461549 0.025158657
0.322580934 0.161061183 0.022826651
0.335528702 0.160050020 0.020605939
0.350329340 0.160742953 0.018415185
0.365902901 0.161708280 0.016236534
0.380980670 0.163011178 0.014478745
0.396032155 0.165292978 0.013229784
0.412172168 0.168260530 0.011849369
0.428500414 0.171348661 0.010545190
0.443802625 0.174197078 0.009545439
0.460180849 0.178005844 0.008842134
0.476074368 0.182877213 0.009282623
0.491964221 0.187738270 0.009523920
0.502958417 0.191574484 0.010419399
0.512951195 0.195546404 0.011211557
0.518831074 0.197666511 0.011872243
0.524229705 0.199260980 0.012064021
0.025558002 0.105733737 0.056014691
0.027135788 0.108574413 0.056072187
0.028960060 0.112287566 0.056040388
0.035091083 0.122867770 0.053495672
0.045378692 0.133287266 0.050285019
0.079170987 0.146651596 0.050596919
0.122695118 0.161936373 0.054580074
0.170755133 0.177069783 0.057606921
0.214314669 0.190639883 0.058715623
0.236101970 0.191580802 0.054123159
0.253576696 0.190602109 0.049169254
0.269879580 0.190956593 0.045329183
0.285436630 0.191046193 0.041614451
0.299611777 0.190649688 0.038477719
0.313235551 0.189802408 0.035504632
0.326461017 0.188850686 0.032606803
0.339450389 0.187410384 0.029902110
0.351673603 0.185336500 0.027542520
0.365259260 0.184089541 0.024894904
0.381087184 0.184552640 0.022366056
0.396691322 0.185190678 0.020100892
0.411691993 0.186723366 0.018562451
0.427696258 0.188950852 0.017060457
0.444653600 0.191853434 0.015460742
0.460269123 0.194385946 0.014218804
0.475186825 0.197015837 0.013323760
0.489970088 0.201218009 0.013709046
0.504598856 0.205910221 0.014102810
0.515590668 0.210088491 0.015185821
0.525135636 0.213656500 0.016229082
0.531089962 0.216145769 0.017385913
0.536481082 0.218138129 0.018128011
0.025298906 0.117311507 0.059079420
0.026844952 0.120115951 0.059435260
0.028603757 0.123864099 0.059482019
0.032536957 0.136495903 0.059013017
0.041019119 0.147597730 0.056248475
0.063818760 0.159527063 0.052894287
0.103226118 0.174783021 0.054287799
0.161556259 0.195668682 0.059619986
0.210259438 0.213489711 0.064311102
0.253098100 0.226174474 0.066186711
0.273315728 0.224952623 0.061582591
0.288238883 0.222710133 0.057045303
0.303416669 0.222343296 0.053070579
0.317751676 0.221459910 0.049128585
0.331364721 0.220231280 0.045985717
0.344529897 0.218496189 0.042980358
0.357665300 0.217157304 0.040131211
0.370543748 0.215497047 0.037419472
0.383003831 0.213268995 0.034359891
0.397223979 0.211841449 0.031057138
0.412822574 0.211411923 0.028226634
0.428085595 0.211571336 0.026002223
0.443636626 0.212946430 0.024448801
0.459884614 0.215076938 0.022943042
0.475668192 0.217217743 0.021475237
0.490557224 0.219295949 0.020263186
0.504709721 0.223378882 0.020603569
0.518808484 0.228101254 0.021227377
0.530443490 0.233314484 0.022717202
0.540421903 0.237606391 0.024025625
0.546721280 0.241018489 0.026091531
0.552307308 0.243516028 0.027351309
0.025104413 0.129610389 0.063112132
0.026634052 0.132381842 0.063453019
0.028277332 0.136191711 0.063608274
0.031528294 0.149399966 0.062896594
0.036616068 0.162074059 0.061529703
0.055157557 0.173717961 0.056957889
0.084343925 0.188652337 0.054920912
0.141035199 0.209644303 0.058582816
0.202764302 0.232657015 0.066679113
0.250422984 0.250518948 0.072466284
0.291771293 0.261784792 0.075083569
0.309732556 0.258958548 0.070971854
0.324050426 0.256258100 0.066127338
0.338255584 0.254788548 0.061808441
0.352290303 0.253205180 0.058073118
0.365249842 0.251043558 0.055007428
0.378133178 0.248845741 0.051990375
0.391173899 0.247257560 0.049124841
0.403867334 0.245356023 0.045888942
0.416521400 0.242878675 0.042200394
0.431207031 0.241041794 0.038538028
0.446224302 0.240085065 0.035701502
0.461610377 0.240243062 0.033339091
0.477074236 0.241562426 0.031709913
0.492551178 0.242799580 0.029791771
0.507511079 0.244604796 0.028369749
0.522214413 0.249344617 0.029043116
0.535915792 0.254305780 0.029969919
0.548286498 0.261048108 0.032467909
0.559199691 0.266479522 0.034142900
0.565932274 0.270461500 0.036706381
0.572055399 0.273823231 0.038836855
0.024920136 0.143303156 0.069351546
0.026463842 0.146001428 0.069645211
0.028065544 0.149795368 0.069817305
0.030358363 0.163645044 0.067733593
0.034307435 0.176918328 0.065844387
0.044314947 0.187987819 0.059546106
0.069183320 0.202411756 0.056058642
0.118191987 0.225961581 0.056670316
0.182644814 0.246893704 0.063983768
0.244505465 0.270825297 0.076093614
0.290809810 0.287671328 0.082758963
0.330032915 0.297343552 0.086665452
0.347893417 0.294633985 0.082404546
0.361857176 0.291343510 0.076862358
0.375900805 0.289269805 0.072861426
0.389500648 0.286767721 0.069550283
0.402421772 0.284092784 0.066357866
0.415397704 0.281452507 0.063124768
0.428294152 0.279342771 0.059725225
0.440916359 0.276956230 0.055970740
0.454216123 0.274648070 0.051894519
0.468224794 0.273001939 0.048193812
0.482702076 0.272471964 0.045223556
0.497551858 0.272921294 0.042802237
0.512798786 0.273667306 0.040332302
0.527933657 0.274996549 0.038328055
0.543657362 0.280819505 0.039265156
0.558552563 0.287091970 0.040598817
0.572874427 0.296223849 0.044742834
0.585520685 0.303633571 0.047715418
0.592985451 0.308389157 0.050944321
0.599771321 0.312354565 0.053511541
0.024738681 0.157468572 0.076397568
0.026284734 0.160078704 0.076496243
0.027825186 0.163783520 0.076489203
0.029731266 0.177702218 0.073761620
0.032412656 0.191960678 0.070847899
0.040075086 0.203985795 0.064790398
0.054944433 0.216542780 0.059088755
0.098202586 0.238256380 0.058092777
0.156259924 0.263577163 0.060824595
0.227726281 0.284214884 0.075202331
0.286060810 0.308495969 0.088029794
0.330927014 0.323888808 0.096043840
0.369217634 0.332866192 0.100025989
0.386524886 0.330075443 0.095231369
0.400449544 0.326479912 0.089490660
0.414175957 0.323642939 0.085886866
0.428197116 0.320907891 0.082164645
0.441413045 0.317848712 0.078573845
0.454964250 0.315306604 0.074586034
0.468071550 0.313056439 0.070695005
0.481872529 0.311533868 0.066561304
0.495375812 0.309885353 0.062440187
0.509824634 0.309366882 0.058652498
0.524200380 0.309449941 0.055555020
0.539688170 0.310546279 0.052906461
0.554783881 0.311558306 0.050160605
0.571122408 0.317358255 0.050682459
0.587447762 0.324831009 0.052393939
0.603279591 0.335779041 0.058156818
0.618310690 0.345912874 0.062908255
0.626847982 0.351961881 0.066847436
0.634247601 0.356888443 0.070276491
0.024456270 0.172205567 0.084123939
0.025999941 0.174742535 0.083919637
0.027515605 0.178377777 0.083644673
0.029073363 0.192103788 0.080290481
0.031258591 0.206518218 0.076890886
0.036386535 0.220635206 0.071877129
0.048193496 0.233561277 0.066164739
0.077882908 0.249813393 0.062100194
0.127564490 0.274144441 0.061928120
0.201092348 0.299869895 0.072550945
0.271067083 0.322152466 0.089151151
0.328139395 0.345484495 0.103531025
0.372760832 0.360125214 0.111545347
0.408672035 0.368563116 0.115832575
0.425621063 0.365869164 0.110854112
0.439642549 0.362074912 0.104797833
0.454052329 0.359271675 0.100564763
0.469005764 0.356845260 0.096121229
0.483500332 0.354579210 0.091563851
0.498140037 0.352892190 0.086599529
0.512862146 0.352061301 0.082225904
0.527848601 0.351697773 0.077698939
0.543175280 0.351756811 0.073324390
0.558673203 0.352519184 0.069570839
0.574916601 0.354505181 0.066896096
0.590976536 0.356752783 0.064329803
0.607450128 0.362871081 0.065019108
0.624068499 0.370631903 0.066931151
0.640155673 0.383316398 0.075158335
0.655889392 0.395955235 0.083413579
0.665137172 0.403600574 0.089173362
0.673199058 0.409869552 0.094127633
0.024067249 0.187748477 0.093582809
0.025626799 0.190328270 0.093655035
0.027134962 0.193865567 0.093336478
0.028471060 0.207530081 0.090874553
0.030002598 0.221781030 0.086642385
0.034150910 0.235832229 0.080181025
0.041674905 0.249299884 0.074648231
0.065088511 0.263437033 0.069157012
0.102181740 0.282145917 0.066110462
0.165963501 0.310773939 0.070334911
0.245913878 0.335313022 0.086819872
0.312982649 0.358925849 0.105277158
0.371317685 0.382674336 0.119805932
0.413800299 0.396611035 0.128061131
0.449169099 0.405910283 0.132190108
0.466344357 0.403526723 0.126853675
0.482216448 0.401169717 0.120308608
0.497856438 0.399052978 0.115296192
0.514945984 0.398571074 0.110083334
0.530650675 0.397412717 0.104532436
0.546643317 0.397207737 0.098859437
0.562334836 0.397532254 0.093861744
0.578504860 0.398754358 0.088866316
0.594567299 0.399925947 0.084437236
0.611161947 0.402747452 0.081951432
0.627923846 0.406139880 0.080197841
0.644937217 0.414125919 0.083972491
0.661547720 0.422470570 0.087851249
0.676252842 0.435070366 0.099219024
0.691623807 0.449248016 0.112665720
0.699582815 0.456985474 0.124159858
0.707484543 0.463933915 0.132378370
0.023601046 0.204088300 0.104697257
0.025131159 0.206687450 0.105103180
0.026620593 0.210228711 0.105193898
0.027703241 0.223797694 0.104643039
0.029074844 0.238067895 0.101633199
0.032200504 0.251644135 0.092310570
0.038214568 0.264526337 0.084923118
0.051997639 0.275593340 0.077438928
0.082378224 0.291320205 0.073103204
0.134977579 0.315896630 0.072031416
0.206652388 0.345110506 0.081776552
0.289056122 0.370105952 0.103104271
0.355974108 0.396064401 0.121765539
0.413859129 0.420175254 0.136659071
0.455827445 0.434473068 0.144545928
0.491087198 0.444546878 0.147426665
0.510298371 0.444415361 0.141503528
0.528561234 0.444379687 0.134702161
0.546885252 0.444984615 0.129225180
0.565838158 0.446665823 0.123580918
0.582623422 0.447126299 0.117188141
0.599142134 0.448074311 0.111453138
0.615452886 0.449763119 0.105970040
0.631780624 0.451770753 0.101142168
0.648088932 0.455349177 0.099746063
0.664520562 0.459553301 0.100332014
0.681166112 0.468834072 0.109122925
0.697332680 0.478660911 0.119262278
0.709040880 0.489403933 0.136254609
0.720741749 0.500870109 0.154963493
0.726911008 0.507725477 0.171384141
0.733281195 0.514101207 0.183638006
0.022957595 0.221143901 0.115740299
0.024465717 0.223569110 0.115955770
0.025934136 0.226970062 0.116406411
0.027074307 0.239389285 0.116275825
0.028347194 0.253974676 0.115143672
0.030936513 0.269267082 0.107080653
0.035564132 0.281183988 0.096996158
0.046355888 0.290100574 0.087084435
0.065020368 0.301211923 0.079679750
0.109014541 0.320996553 0.076469600
0.170658976 0.350598782 0.078386314
0.250612110 0.378808111 0.096032374
0.333182663 0.406999409 0.118915170
0.399323493 0.434805065 0.137761787
0.456927270 0.459313214 0.153112844
0.498723984 0.474163264 0.159447595
0.535092413 0.486232847 0.159921065
0.556657374 0.489014477 0.153835207
0.577627003 0.492018253 0.147103623
0.598120093 0.495087475 0.141516924
0.617693186 0.498218209 0.136097997
0.634678423 0.499677241 0.130731955
0.650328815 0.501385868 0.126905963
0.666144907 0.503455877 0.123370901
0.680858195 0.507477045 0.125211328
0.695942461 0.511606038 0.129284620
0.709349513 0.519384205 0.145161986
0.723496675 0.528382182 0.161693558
0.733006775 0.537148774 0.184358209
0.742330253 0.546619534 0.204334423
0.748304427 0.553314030 0.221057877
0.754065514 0.559917212 0.235322908
0.022256147 0.238986135 0.126855344
0.023787199 0.241164133 0.126827151
0.025282277 0.244277984 0.127046093
0.026527667 0.255004078 0.126582056
0.027844997 0.268566430 0.125296816
0.029929267 0.286591083 0.119856976
0.033980303 0.300088763 0.111018479
0.042366635 0.306610495 0.098266140
0.057065282 0.315106183 0.088276863
0.085427642 0.327488005 0.080688410
0.137816995 0.352840066 0.078467235
0.213027596 0.385946035 0.088607341
0.295692116 0.413936257 0.110251702
0.377587855 0.446630418 0.134103775
0.443118423 0.475341886 0.153456941
0.500683069 0.501048386 0.168022484
0.543467045 0.517926574 0.171853051
0.580810606 0.531857967 0.171582118
0.604838550 0.536992073 0.166483968
0.627643585 0.541688859 0.161340699
0.647864938 0.545430541 0.157983005
0.666293085 0.548247874 0.155894682
0.681194663 0.549800396 0.154277533
0.695030510 0.551206887 0.154844135
0.707772136 0.554450750 0.160855919
0.720285177 0.558383882 0.168544441
0.731079817 0.564441144 0.188527286
0.742353380 0.572270513 0.208999068
0.751407504 0.580679238 0.232866123
0.760476708 0.590228677 0.254283130
0.766986132 0.597533762 0.270472437
0.773009598 0.604648292 0.285508573
0.021658529 0.257680118 0.138237208
0.023212967 0.259525925 0.138082117
0.024724914 0.262198418 0.138011724
0.026042737 0.271349549 0.137259915
0.027403576 0.283678591 0.135289714
0.029449508 0.302388430 0.129114360
0.032672860 0.318201244 0.121885516
0.039507635 0.325134426 0.108539432
0.050161391 0.330951363 0.096678190
0.072127707 0.339958429 0.087933175
0.110135250 0.357793510 0.081101775
0.177662641 0.390120208 0.083900921
0.257814169 0.421625495 0.099669985
0.340663880 0.452576190 0.123847358
0.423111409 0.489610285 0.149608076
0.489065737 0.520210564 0.169259444
0.547010362 0.547314942 0.181744158
0.589971244 0.564882338 0.186284289
0.626719654 0.577966928 0.189891309
0.651376069 0.583749831 0.188038543
0.671843290 0.587512076 0.189437672
0.689727366 0.589657187 0.190716371
0.703639507 0.591498494 0.193103865
0.716521025 0.592522919 0.195642665
0.728330970 0.596405208 0.206224054
0.740084052 0.600844741 0.215125367
0.750933468 0.607690930 0.236009002
0.761556625 0.615862012 0.257211477
0.770622015 0.624177337 0.280567378
0.779286027 0.633898020 0.304001987
0.785968423 0.641327500 0.320219636
0.792323887 0.649013281 0.335945219
0.021093193 0.276810110 0.149746597
0.022670560 0.278407782 0.149508119
0.024228314 0.280716956 0.149262041
0.025697639 0.288421631 0.148245633
0.027211383 0.299185932 0.146107703
0.029119842 0.318232089 0.138444677
0.031973783 0.335156143 0.130107284
0.037332308 0.343540102 0.116560772
0.046047341 0.349510640 0.104256868
0.061515681 0.355315417 0.095382601
0.092625722 0.369105250 0.088112265
0.146979660 0.395830035 0.083396874
0.220949337 0.427912444 0.091509141
0.302470684 0.459678829 0.111226022
0.388002843 0.495877832 0.138735920
0.471723706 0.537324905 0.166604862
0.538411975 0.569111526 0.184501499
0.595187306 0.595158398 0.200226188
0.635471165 0.609073877 0.211863294
0.669577301 0.619113386 0.221871048
0.691218019 0.624015331 0.225189716
0.709562242 0.627711415 0.229047790
0.722982466 0.629710913 0.232653588
0.734585404 0.632025540 0.236646503
0.746410251 0.636861444 0.248259753
0.758106470 0.643259883 0.262353420
0.769479275 0.651048183 0.283822954
0.780621767 0.660172105 0.307778120
0.789697170 0.668467522 0.330834180
0.798410237 0.677419543 0.354550391
0.805123031 0.684658527 0.370782912
0.811748981 0.692140341 0.386653721
0.020696670 0.295522869 0.159708709
0.022290383 0.296961397 0.159567803
0.023900976 0.298970550 0.159323260
0.025478326 0.305691302 0.158764422
0.027069241 0.315083742 0.156301871
0.028820086 0.333511084 0.146916017
0.031551968 0.352386534 0.138056993
0.036766481 0.364693403 0.126258701
0.043967377 0.371579170 0.113934480
0.056624424 0.375945866 0.104680248
0.077345945 0.384260297 0.096806310
0.121219642 0.405100197 0.090377480
0.184393123 0.435744852 0.088327378
0.266271770 0.468544632 0.102184810
0.354455113 0.505118370 0.128239721
0.444730252 0.547119558 0.159638330
0.527520001 0.590190411 0.187405810
0.591970503 0.619699597 0.209743962
0.641660631 0.638036788 0.235129237
0.678087294 0.648481429 0.250708640
0.707370400 0.659160554 0.263625175
0.727097094 0.664777577 0.267866284
