Desert Affinity Presets/Desert Affinity Preset #4.cube
TITLE "32x32x32 Adobe/IRIDAS cube 3D LUT exported with GrossGrade v0.1.027.1 (beta) 64 bit"
LUT_3D_SIZE 8
DOMAIN_MIN 0.000000 0.000000 0.000000
DOMAIN_MAX 0.903226 0.903226 0.903226
0.000000000 0.041618261 0.186940998
0.012324392 0.041890386 0.204841450
0.101814568 0.028859314 0.209453151
0.250754148 0.001350473 0.197213277
0.423450202 0.000000000 0.178652272
0.598439515 0.000000000 0.160404921
0.758691430 0.000000000 0.148078635
0.911233485 0.000000000 0.141428366
0.000000000 0.090467520 0.189003423
0.006451614 0.098313145 0.184457421
0.085806705 0.082399838 0.187144652
0.240506738 0.055178966 0.178292572
0.420664042 0.025451319 0.166446075
0.607171834 0.008247260 0.159538463
0.782418311 0.006595640 0.162242055
0.949276924 0.006451614 0.170038924
0.000000000 0.153959394 0.171028167
0.006451614 0.170670390 0.178693339
0.045445036 0.179200351 0.171460599
0.227729604 0.163492501 0.169703633
0.430631191 0.143650889 0.173164606
0.629404128 0.127047405 0.175707713
0.811187923 0.117003240 0.183208168
0.983358562 0.111253381 0.195219234
0.000000000 0.275077850 0.150214687
0.006451614 0.303214937 0.170080364
0.031166395 0.321004808 0.175143570
0.185972631 0.322074026 0.159992099
0.396248937 0.307522506 0.153797045
0.612889230 0.290799111 0.162236974
0.805460989 0.281993002 0.175837710
0.983771384 0.278215528 0.191643760
0.000000000 0.428503782 0.140923455
0.006451614 0.461058229 0.165374085
0.023192633 0.482604623 0.176958680
0.173034862 0.489318103 0.167885080
0.357933462 0.487088293 0.149882659
0.569997251 0.475936443 0.143092558
0.775089860 0.464697957 0.155401692
0.962649286 0.457769632 0.173216268
0.000000000 0.593569815 0.148098901
0.006451614 0.628457010 0.174941584
0.026935406 0.651255846 0.188880131
0.176838383 0.658297539 0.183152795
0.351056635 0.658414423 0.165962949
0.538297415 0.653703928 0.146196380
0.729604363 0.645347655 0.139446661
0.921016514 0.633708715 0.148185566
0.000000000 0.755389273 0.178090289
0.006451614 0.789350927 0.204052567
0.046929251 0.810392797 0.216540933
0.194406390 0.814456701 0.210068271
0.364021122 0.811207652 0.191918477
0.536091328 0.805734456 0.168388620
0.703449547 0.799717426 0.147969365
0.877049208 0.789223909 0.137188613
0.000000000 0.905675352 0.214428291
0.006451614 0.935916543 0.236713931
0.067968182 0.952732921 0.245130479
0.211194277 0.952107608 0.235181510
0.376314461 0.944397748 0.214619502
0.542639613 0.935517728 0.189557388
0.695541799 0.929724872 0.165464282
0.849805593 0.922415733 0.144320861
0.000000000 0.041749131 0.228701964
0.006451614 0.050258346 0.238362983
0.083953135 0.034050833 0.255655050
0.236325666 0.003509452 0.247223541
0.409972101 0.000000000 0.230234131
0.585666060 0.000000000 0.213310376
0.747016072 0.000000000 0.202567831
0.901223004 0.000000000 0.197960407
0.000000000 0.089057252 0.230809674
0.006451614 0.097060889 0.232559070
0.077525333 0.085309274 0.238448694
0.230955601 0.059907511 0.230698526
0.412115306 0.032162979 0.220589623
0.599850178 0.010334689 0.215097666
0.775657654 0.008121935 0.218341336
0.942767918 0.007074476 0.226251647
0.000000000 0.154639423 0.215823084
0.006451614 0.172860801 0.226892576
0.055179812 0.183666795 0.225291982
0.235645667 0.168857649 0.229086906
0.430929810 0.152131841 0.230733663
0.627409756 0.136762843 0.233240798
0.808884680 0.127366945 0.241957307
0.981034696 0.122181073 0.254943430
0.000000000 0.280178756 0.199692637
0.006451614 0.308601141 0.220698878
0.045575485 0.326501250 0.229553297
0.197903439 0.328738153 0.216023013
0.410558909 0.313320100 0.214554578
0.620976508 0.299020529 0.223560765
0.808833480 0.292165250 0.235841274
0.984573841 0.289451689 0.250681967
0.000000000 0.435143411 0.192046940
0.006451614 0.467808843 0.217191666
0.038740359 0.489535809 0.230641142
0.188563615 0.496262848 0.224644721
0.370886475 0.494772851 0.206934124
0.585465968 0.482547730 0.203067258
0.787577569 0.471977532 0.217649132
0.970017076 0.466393650 0.234477803
0.000000000 0.601006985 0.200082079
0.006451614 0.635827661 0.227314338
0.042588808 0.658642292 0.242020682
0.192706376 0.665159822 0.238583535
0.365825534 0.665060997 0.222694963
0.550617695 0.660756588 0.202615991
0.743645847 0.651241601 0.197456792
0.934296966 0.638933718 0.208696917
0.000000000 0.762655497 0.229942173
0.006451614 0.796274424 0.255926788
0.061683897 0.816950858 0.268573582
0.209044576 0.820337296 0.263088077
0.378122628 0.816472530 0.246458024
0.548611403 0.810889482 0.223574117
0.713900745 0.804900885 0.202519715
0.888662934 0.793355227 0.192585111
0.000000000 0.911632776 0.264998168
0.006874340 0.941486478 0.287198454
0.081246570 0.957847238 0.295571297
0.224168733 0.956725061 0.285893500
0.389197409 0.948268235 0.266892761
0.554991364 0.939212263 0.242940143
0.706202209 0.933548510 0.219213367
0.859120250 0.926463187 0.197734147
0.000000000 0.039912362 0.298168033
0.006451614 0.048549656 0.304315120
0.053656388 0.042710535 0.303273380
0.202832639 0.011236356 0.305385262
0.385918975 0.000000000 0.298933834
0.566612959 0.000000000 0.286708385
0.731000483 0.000000000 0.278948486
0.887908816 0.000000000 0.277226299
0.000000000 0.086445101 0.298916668
0.006451614 0.095031448 0.301845968
0.053456228 0.092246875 0.300200343
0.213083878 0.065098993 0.306565702
0.399533570 0.037677564 0.302130282
0.589931726 0.016028840 0.299913317
0.766752899 0.008991702 0.304784656
0.934573531 0.007981652 0.313878387
0.000000000 0.154180244 0.287326872
0.006451614 0.173803225 0.300711304
0.062950231 0.186167762 0.306831926
0.231179446 0.175573677 0.313875288
0.424485445 0.159977347 0.315912932
0.620719850 0.145332560 0.318918884
0.802188456 0.136588067 0.327815741
0.974336743 0.131897703 0.340765744
0.000000000 0.283302397 0.275768578
0.006451614 0.312164664 0.298045129
0.057833582 0.330376029 0.309106201
0.207916006 0.333483517 0.299796522
0.418379396 0.318584681 0.303507507
0.620929599 0.307155520 0.310457706
0.806386471 0.301420659 0.322597951
0.981402576 0.298944890 0.338241160
0.000000000 0.439678013 0.270014405
0.006451614 0.472799689 0.296218634
0.052008469 0.494658142 0.310672820
0.202318847 0.501110733 0.308074057
0.381767988 0.500380874 0.291572243
0.598480999 0.487046778 0.292185545
0.793820381 0.478330672 0.306786180
0.970859945 0.474029362 0.321627975
0.000000000 0.606394529 0.279141665
0.006451614 0.641262889 0.306896061
0.056004688 0.663944721 0.322060615
0.206099257 0.669939160 0.319777936
0.378729790 0.669382215 0.306496978
0.560660541 0.665522814 0.286419511
0.755810559 0.654546499 0.283796757
0.942945361 0.642361164 0.296765953
0.000000000 0.767640233 0.308747590
0.006451614 0.801103055 0.334970862
0.074168295 0.821340919 0.347626150
0.221055299 0.824089408 0.342263371
0.390022159 0.819368899 0.327588201
0.559352875 0.813517630 0.305948496
0.722077549 0.807799459 0.284451902
0.898496568 0.795053661 0.276067793
0.000000000 0.915409207 0.342706650
0.008739184 0.944820404 0.364776760
0.092159659 0.960673094 0.373006433
0.234681845 0.959040165 0.363349259
0.399849057 0.950148761 0.345586836
0.565313578 0.940699697 0.323366404
0.715069771 0.935039401 0.300407052
0.866129398 0.928203225 0.278503776
0.000000000 0.033903014 0.420149773
0.006451614 0.042128425 0.425170481
0.047791492 0.037095912 0.419888169
0.173350289 0.014607837 0.404295146
0.342318088 0.000000000 0.399292469
0.529730022 0.000000000 0.398993701
0.702065825 0.000000000 0.399685502
0.864884317 0.000000000 0.403625399
0.000000000 0.079995781 0.420044899
0.006451614 0.089137673 0.423942864
0.049933199 0.087878406 0.420182675
0.181624636 0.072598577 0.409696519
0.366388142 0.046625398 0.417309284
0.567655563 0.022851357 0.427058637
0.749607623 0.009711827 0.436773837
0.919929624 0.008662502 0.448316276
0.000000000 0.150883868 0.411479384
0.006451614 0.172328636 0.426632434
0.065221436 0.185914099 0.434556901
0.208764359 0.184167027 0.433959186
0.407564044 0.166117132 0.449411392
0.607991636 0.150699556 0.456979394
0.790694296 0.142024904 0.467734218
0.963387251 0.137480319 0.481858045
0.000000000 0.282948226 0.403720856
0.006451614 0.312249422 0.426780790
0.065293431 0.330727458 0.439008862
0.213848084 0.334142745 0.436174244
0.411750555 0.323143125 0.442817271
0.612272024 0.312787771 0.450099379
0.797123909 0.307429552 0.462383181
0.971586585 0.305051446 0.477649182
0.000000000 0.440597534 0.400056750
0.006451614 0.473974019 0.427026868
0.061088610 0.495922178 0.442395180
0.211676151 0.502072215 0.441392899
0.388558060 0.501896918 0.428807437
0.602776110 0.488786966 0.434298217
0.789809406 0.482503623 0.446396410
0.963816524 0.478697598 0.460465252
0.000000000 0.607841015 0.410242140
0.006451614 0.642706871 0.438453078
0.065164804 0.665180266 0.454007298
0.215090275 0.670784235 0.452205807
0.387814820 0.669558406 0.441931993
0.566543877 0.666139781 0.422753692
0.763296545 0.653506875 0.424066335
0.943306267 0.642841220 0.436706871
0.000000000 0.768692017 0.439769089
0.006518952 0.801783621 0.466006726
0.082347818 0.821541667 0.478650421
0.228747636 0.823668718 0.473266870
0.397629708 0.818355680 0.459674001
0.566229045 0.811806321 0.440400332
0.725895524 0.806350350 0.418715119
0.904641807 0.792338729 0.413061649
0.000000000 0.915166378 0.472632587
0.015419994 0.944031954 0.494497597
0.098762080 0.959278166 0.502502978
0.240922779 0.957181275 0.492829770
0.405992389 0.948032975 0.475562930
0.571628690 0.938011706 0.455585837
0.720371127 0.932226777 0.434019089
0.869188845 0.925991535 0.412006497
0.000000000 0.026402511 0.558614075
0.006451614 0.034363639 0.563038468
0.042050157 0.029420948 0.556633890
0.165673703 0.008182344 0.536449134
0.316793531 0.000000000 0.516953886
0.486913234 0.000000000 0.512657762
0.659562588 0.000000000 0.522208810
0.830143690 0.000000000 0.536255419
0.000000000 0.072312392 0.558095455
0.006451614 0.082079485 0.562840402
0.046395700 0.082010247 0.559559226
0.178107187 0.069323860 0.546627581
0.340912670 0.053996876 0.538205564
0.528667450 0.035391867 0.550027966
0.717175484 0.017974121 0.571482241
0.894778728 0.009663187 0.590815365
0.000000000 0.146964654 0.552888334
0.006451614 0.170405358 0.570263386
0.066450782 0.184640378 0.579245687
0.209351406 0.183910459 0.576016366
0.379418135 0.176938012 0.573839605
0.577072740 0.161876440 0.592369497
0.769346833 0.149780273 0.613791406
0.946810126 0.143659905 0.632381678
0.000000000 0.281941831 0.548185885
0.006451614 0.311781496 0.571726143
0.069125026 0.330750465 0.584401965
0.216827378 0.334606647 0.582603633
0.390057236 0.332462043 0.581598401
0.595948637 0.319526702 0.602171123
0.784393251 0.312786162 0.618420303
0.959598184 0.309986651 0.635054290
0.000000000 0.440648526 0.546253681
0.006451614 0.474288642 0.573638260
0.067886330 0.496315539 0.589412928
0.218937352 0.502224922 0.589077353
0.394041449 0.502104938 0.582709253
0.595293045 0.492482245 0.590728819
0.779726684 0.486709476 0.602587521
0.952696860 0.482838392 0.616366744
0.000000000 0.608313978 0.557500958
0.006451614 0.643066764 0.585918844
0.072456799 0.665121734 0.601565063
0.222490877 0.670369029 0.600232422
0.395290375 0.668650687 0.591357231
0.570970774 0.665299296 0.575593770
0.764716446 0.652374029 0.581270695
0.936203837 0.643919230 0.591201127
0.000000000 0.768489480 0.586849689
0.007330730 0.801145077 0.612991691
0.088759281 0.820293367 0.625488400
0.235021800 0.822012544 0.620294690
0.403559446 0.816142619 0.607016802
0.572014928 0.808684587 0.590512991
0.728378952 0.803562939 0.569621146
0.908996284 0.788169980 0.568180084
0.000000000 0.913485289 0.618572235
0.020841995 0.941855848 0.640270293
0.103814721 0.956537247 0.648098350
0.245850146 0.954138458 0.638583064
0.410711616 0.944637954 0.621567726
0.576346278 0.934111714 0.602768600
0.724704564 0.927987576 0.583917081
0.870913446 0.922440410 0.562149167
0.000000000 0.019182947 0.690335393
0.006451614 0.027001979 0.694441259
0.037085462 0.022196271 0.687477767
0.160636500 0.002448904 0.666394889
0.309569925 0.000000000 0.642170548
0.465996504 0.000000000 0.626393795
0.623170972 0.000000000 0.630632102
0.788797677 0.000000000 0.649508595
0.000000000 0.065423496 0.690004289
0.006451614 0.075830728 0.695532262
0.043672755 0.076831430 0.692998528
0.176848680 0.066137075 0.680846095
0.339555502 0.053908475 0.669665694
0.509669840 0.042900372 0.667199850
0.680362344 0.031829569 0.684129894
0.857306898 0.019815600 0.711333811
0.000000000 0.144178391 0.688569009
0.006451614 0.169183269 0.707762837
0.068285652 0.183950797 0.717497230
0.211557701 0.183798894 0.714139938
0.380576342 0.178330213 0.708424866
0.554887474 0.172543362 0.709539294
0.732932508 0.164885148 0.732321262
0.916856766 0.156260818 0.762561560
0.000000000 0.281803608 0.686335623
0.006451614 0.312233597 0.710491955
0.072842129 0.331667066 0.723858297
0.220629945 0.335896820 0.722833216
0.393107355 0.334663063 0.719111323
0.569930792 0.332474738 0.721709073
0.755083680 0.325573474 0.748401225
0.939688444 0.319172829 0.775529742
0.000000000 0.441667229 0.685770690
0.006451614 0.475563407 0.713367760
0.073602945 0.497681201 0.729184091
0.224430606 0.503909767 0.729124129
0.398442686 0.504000604 0.723543346
0.574296653 0.502507448 0.723201990
0.763395488 0.493435949 0.747638702
0.939811587 0.488049239 0.765238345
0.000000000 0.609540522 0.697752118
0.006451614 0.644199908 0.726163030
0.079252191 0.665862560 0.741582572
0.229422569 0.670894504 0.740364313
0.402335495 0.668588936 0.731805325
0.575644612 0.664700508 0.721677065
0.756068289 0.654915512 0.729523182
0.924806952 0.646808743 0.739065170
0.000000000 0.768939734 0.726861238
0.008986084 0.801063836 0.752685130
0.095046751 0.819630384 0.764915407
0.241202146 0.820841968 0.759727716
0.409606069 0.814378023 0.746679723
0.577979922 0.806268454 0.731405199
0.731306434 0.801212013 0.713944852
0.909220815 0.785845399 0.717179835
0.000000000 0.912287951 0.757404029
0.026094710 0.940002143 0.778683245
0.108992986 0.954339206 0.786510229
0.250988692 0.951613188 0.777135134
0.415772080 0.941768169 0.760370433
0.581210911 0.930831075 0.742029786
0.729858339 0.924222946 0.726375878
0.873116136 0.919375598 0.705752194
0.000000000 0.013923225 0.796162128
0.006451614 0.021615071 0.800021291
0.034246594 0.016974432 0.792785645
0.157945752 0.000000000 0.771406353
0.307506263 0.000000000 0.746670067
0.461518019 0.000000000 0.726240516
0.608146966 0.000000000 0.721573472
0.760814011 0.000000000 0.735163867
0.000000000 0.060767002 0.796342254
0.006451614 0.072107598 0.802899718
0.043754604 0.074419454 0.801500678
0.178417951 0.065439381 0.790360391
0.342433363 0.054992869 0.779663682
0.510370374 0.045890287 0.772474647
0.666842997 0.040869463 0.777409494
0.827135563 0.035308599 0.798131824
0.000000000 0.144249454 0.799377322
0.006451614 0.170180693 0.819700599
0.072237983 0.185389370 0.830022216
0.216049105 0.185825646 0.826930642
0.385289192 0.181115165 0.820756972
0.557885051 0.176804796 0.817498267
0.718001008 0.176452488 0.825692236
0.884003460 0.174081773 0.851318479
0.000000000 0.283911914 0.798910320
0.006451614 0.314735502 0.823610544
0.078403935 0.334619075 0.837664783
0.226619601 0.339363754 0.837390125
0.399236023 0.338462919 0.833279490
0.574449837 0.337225795 0.831797659
0.735955775 0.339295685 0.840763211
0.906130731 0.337142795 0.869048178
0.000000000 0.444955111 0.799481809
0.006451614 0.479079604 0.827306390
0.080540016 0.501347840 0.843301058
0.231121823 0.507809639 0.843691826
0.404799372 0.507835984 0.838467896
0.579332411 0.506690085 0.834827781
0.739029169 0.508039713 0.840967596
0.911852837 0.502191901 0.868707061
0.000000000 0.612995327 0.811882079
0.006780816 0.647498667 0.840111852
0.087044165 0.669054389 0.855369568
0.236760929 0.673884988 0.853892505
0.408866376 0.671308041 0.845027149
0.580502748 0.667047977 0.835096657
0.735384107 0.665248930 0.834445536
0.908770561 0.653847754 0.856550753
0.000000000 0.771451533 0.840496540
0.015473771 0.803050816 0.865839303
0.102543101 0.821271479 0.877808332
0.248361349 0.821954250 0.872245848
0.416505903 0.814872444 0.858916163
0.584831119 0.806000292 0.843794703
0.736152768 0.800791144 0.832340956
0.900973499 0.788767576 0.837959766
0.000000000 0.913213849 0.869884431
0.032853149 0.940324128 0.890708327
0.115597770 0.954290688 0.898376882
0.257527322 0.951200247 0.888951480
0.422335893 0.940983236 0.872327864
0.587946415 0.929754555 0.854518890
0.736834764 0.922815919 0.840416014
0.877325237 0.918303311 0.823496819
0.000000000 0.010029890 0.883955181
0.006451614 0.017631911 0.887655497
0.032876454 0.013157321 0.880284250
0.156970352 0.000000000 0.858940542
0.307168961 0.000000000 0.834436119
0.462734550 0.000000000 0.814164579
0.606914878 0.000000000 0.805121303
0.750818968 0.000000000 0.811257958
0.000000000 0.057636738 0.884836257
0.006451614 0.070046820 0.892528951
0.045985132 0.074136086 0.892787099
0.182380646 0.067017153 0.883074522
0.347068071 0.057612423 0.872601390
0.515404880 0.049112149 0.864672959
0.668866634 0.046191875 0.864366353
0.817620218 0.045821056 0.875198722
0.000000000 0.146303385 0.892860234
0.006451614 0.172720686 0.913833499
0.077876493 0.188510105 0.924830317
0.222147241 0.189427584 0.922042727
0.391660959 0.185223684 0.915678620
0.564328849 0.181450725 0.911657333
0.722150147 0.182900235 0.915022254
0.873835146 0.186462983 0.928531289
0.000000000 0.287677765 0.893869340
0.006672328 0.318884492 0.919090509
0.085465975 0.339117706 0.933719039
0.234050721 0.344273567 0.933985949
0.406784892 0.343554467 0.929737866
0.581837475 0.342681825 0.927403331
0.741354585 0.345964372 0.931732535
0.893166184 0.350686729 0.944999397
0.000000000 0.449819773 0.895381033
0.006846281 0.484043479 0.923353314
0.088672392 0.506595016 0.939764440
0.239050373 0.513124168 0.940464616
0.412407994 0.512930274 0.935249329
0.586709619 0.511748552 0.930862606
0.744529545 0.513775110 0.932647407
0.893258214 0.516438842 0.942204475
0.000000000 0.617906034 0.907858789
0.007871293 0.652161002 0.935802877
0.095412433 0.673750460 0.951091290
0.244500384 0.678343594 0.949416697
0.415780365 0.675423563 0.940422118
0.586793184 0.670821309 0.930565834
0.740195751 0.669202089 0.926458001
0.883764088 0.667801976 0.929845810
0.000000000 0.775357604 0.935709238
0.023826296 0.806549609 0.960626841
0.110461719 0.824440181 0.972229123
0.255715907 0.824701667 0.966193020
0.423092365 0.817110240 0.952299118
0.590754867 0.808109522 0.937008262
0.740686715 0.802811503 0.926060319
0.880059242 0.798871219 0.923261940
0.002723391 0.915455818 0.963806689
0.040390201 0.942190647 0.984299421
0.122887790 0.955837548 0.991693795
0.264627546 0.952437997 0.982053638
0.429212898 0.941805243 0.965168297
0.595082819 0.930475354 0.947586298
0.744362772 0.923235714 0.934103847
0.882907569 0.918631494 0.923247218
