Desert Affinity Presets/Desert Affinity Preset #15.cube
TITLE "32x32x32 Adobe/IRIDAS cube 3D LUT exported with GrossGrade v0.1.027.1 (beta) 64 bit"
DOMAIN_MIN 0 0 0
DOMAIN_MAX 1 1 1
LUT_3D_SIZE 32
0.082975470 0.082975470 0.082975470
0.116112202 0.079282254 0.079282254
0.143388271 0.077579208 0.077579208
0.168525860 0.076608434 0.076608434
0.192269340 0.075820968 0.075820968
0.215203688 0.075189255 0.075189255
0.237706825 0.074612245 0.074612245
0.260217518 0.073982306 0.073982306
0.283164829 0.073279031 0.073279031
0.306932837 0.072404608 0.072404608
0.331789494 0.071076550 0.071076550
0.358152986 0.069306187 0.069306187
0.385937214 0.067123324 0.067123324
0.414882928 0.064646833 0.064646833
0.444864929 0.061943095 0.061943095
0.475697577 0.058982637 0.058982637
0.507095635 0.055795394 0.055795394
0.538828790 0.052508537 0.052508537
0.570586145 0.049211808 0.049211808
0.602193296 0.046076927 0.046076927
0.633181870 0.043076709 0.043076709
0.663161814 0.040285513 0.040285513
0.692251563 0.037746392 0.037746392
0.720883727 0.035341911 0.035341911
0.749307692 0.033086088 0.033086088
0.777561545 0.030953301 0.030953301
0.805573821 0.028831251 0.028831251
0.833499730 0.026719047 0.026719047
0.861340344 0.024661532 0.024661532
0.889020443 0.022720007 0.022720007
0.916755080 0.020915929 0.020915929
0.944045007 0.019236265 0.019236265
0.087070398 0.102568939 0.080246970
0.117585286 0.099621370 0.080696829
0.144943789 0.097953640 0.079134479
0.169850156 0.096694060 0.077993512
0.193479434 0.095744736 0.077149019
0.216359705 0.094997980 0.076508850
0.238855824 0.094344288 0.075972006
0.261445940 0.093748569 0.075481497
0.284299344 0.092906311 0.074747354
0.307922512 0.091837376 0.073794380
0.332767397 0.090434052 0.072500013
0.359135062 0.088608481 0.070788994
0.386976451 0.086441576 0.068722107
0.416008472 0.083991729 0.066373296
0.445935398 0.081172921 0.063674234
0.476734400 0.078126401 0.060740881
0.508171558 0.074925140 0.057644349
0.539978385 0.071651854 0.054483723
0.571873903 0.068434164 0.051377337
0.603503346 0.065269783 0.048317742
0.634498179 0.062230300 0.045383446
0.664558709 0.059475604 0.042733014
0.693766117 0.056988813 0.040361274
0.722541332 0.054674622 0.038155962
0.751104951 0.052490879 0.036098961
0.779403925 0.050351027 0.034059238
0.807543039 0.048299141 0.032120466
0.835636854 0.046294954 0.030223805
0.863625407 0.044351522 0.028385658
0.891524971 0.042558700 0.026698051
0.919387639 0.040850535 0.025093677
0.946831346 0.039250743 0.023627689
0.090989001 0.122410387 0.077342145
0.118501544 0.119842805 0.081471674
0.145601630 0.117946550 0.079688661
0.170449018 0.116613388 0.078473322
0.194011346 0.115611658 0.077576406
0.216813385 0.114787132 0.076857723
0.239326581 0.114163496 0.076338634
0.261769712 0.113418728 0.075700358
0.284597158 0.112538904 0.074937217
0.308210790 0.111456126 0.073962666
0.333029717 0.110020943 0.072643079
0.359411925 0.108219840 0.070947051
0.387286931 0.106086500 0.068923227
0.416237921 0.103560090 0.066506125
0.446189106 0.100774132 0.063822016
0.477023840 0.097764008 0.060930736
0.508492768 0.094587997 0.057866916
0.540389657 0.091398925 0.054790508
0.572323740 0.088226549 0.051729459
0.603977323 0.085083216 0.048691832
0.635051787 0.082110122 0.045832846
0.665183902 0.079431184 0.043253921
0.694559336 0.077116504 0.041048653
0.723459005 0.074927583 0.038968690
0.752072752 0.072794303 0.036951397
0.780468941 0.070750847 0.035016887
0.808709621 0.068800882 0.033160474
0.836978972 0.066971563 0.031445287
0.865257740 0.065305911 0.029899288
0.893291473 0.063646823 0.028358988
0.921233714 0.062029831 0.026821502
0.948833048 0.060586799 0.025509367
0.094624273 0.141820744 0.074153990
0.119923979 0.139443561 0.081510976
0.146126449 0.137658969 0.080107160
0.170909643 0.136275038 0.078841820
0.194451138 0.135225371 0.077897184
0.217338666 0.134499580 0.077278093
0.239715129 0.133725971 0.076621078
0.262119889 0.132947341 0.075945854
0.284936398 0.132075980 0.075171508
0.308573782 0.131007776 0.074217536
0.333497763 0.129677624 0.072996624
0.359881639 0.127876699 0.071310386
0.387693435 0.125680268 0.069220148
0.416670591 0.123174638 0.066824086
0.446677864 0.120437682 0.064200327
0.477624863 0.117543526 0.061412387
0.509234786 0.114517190 0.058490697
0.541130483 0.111333959 0.055418484
0.573072553 0.108168647 0.052364476
0.604820549 0.105107129 0.049416650
0.636028349 0.102270134 0.046697926
0.666371763 0.099806204 0.044335537
0.695816875 0.097561151 0.042191964
0.724773884 0.095438235 0.040175151
0.753534317 0.093456917 0.038308419
0.782139838 0.091612197 0.036582008
0.810585737 0.089864269 0.034941621
0.839082301 0.088263631 0.033445746
0.867447257 0.086682566 0.031982537
0.895679832 0.085235305 0.030641425
0.923921466 0.083893307 0.029402675
0.951769888 0.082712598 0.028328121
0.097927526 0.160995409 0.070633739
0.122295938 0.158625633 0.080235280
0.146466836 0.157275543 0.080318496
0.171281368 0.155930027 0.079095721
0.194846570 0.154916972 0.078187115
0.217597067 0.154041678 0.077417441
0.239978254 0.153285280 0.076777779
0.262434065 0.152545035 0.076142244
0.285275221 0.151699707 0.075403430
0.308990508 0.150710881 0.074531764
0.333884060 0.149360418 0.073278561
0.360300243 0.147589743 0.071620874
0.388195276 0.145465165 0.069606416
0.417260557 0.143050075 0.067306690
0.447371811 0.140420303 0.064781554
0.478407055 0.137612775 0.062083844
0.510050118 0.134608582 0.059192117
0.542070627 0.131558836 0.056247108
0.574161828 0.128540829 0.053335737
0.606023252 0.125602350 0.050509002
0.637413800 0.122952044 0.047970802
0.667882025 0.120604597 0.045728102
0.697473168 0.118500926 0.043739799
0.726621926 0.116560109 0.041916572
0.755554795 0.114758782 0.040221930
0.784435034 0.113192201 0.038762022
0.813144505 0.111708060 0.037382584
0.841795743 0.110270374 0.036053147
0.870380700 0.108904578 0.034801781
0.898832500 0.107670709 0.033676267
0.927354991 0.106621116 0.032720439
0.955693662 0.105933219 0.032147635
0.100955307 0.180152282 0.066835776
0.124921501 0.177736685 0.078061365
0.146952957 0.176880941 0.080189019
0.171421543 0.175624982 0.079128921
0.194956228 0.174569011 0.078191787
0.217754439 0.173742399 0.077470250
0.240175068 0.173023149 0.076858170
0.262648612 0.172310740 0.076250300
0.285652637 0.171616718 0.075661063
0.309354186 0.170627743 0.074780591
0.334300965 0.169317454 0.073597953
0.360802144 0.167635128 0.072017893
0.388790190 0.165613651 0.070095077
0.418028742 0.163362637 0.067963675
0.448256075 0.160852507 0.065568969
0.479349703 0.158100799 0.062919468
0.511092663 0.155201271 0.060126897
0.543259084 0.152294070 0.057324491
0.575564861 0.149490803 0.054634262
0.607691228 0.146815345 0.052069858
0.639195263 0.144278273 0.049644828
0.669773221 0.142035022 0.047511578
0.699554384 0.140124470 0.045715921
0.728987038 0.138467640 0.044168115
0.758275032 0.137026012 0.042824674
0.787315249 0.135623142 0.041532181
0.816203117 0.134319842 0.040336467
0.845148325 0.133156046 0.039298374
0.874107778 0.132193163 0.038432792
0.902918816 0.131302059 0.037658904
0.931854367 0.130650401 0.037124939
0.960334301 0.130115420 0.036683004
0.103698537 0.199489191 0.062743194
0.127524689 0.197117507 0.075212181
0.148085654 0.196475267 0.079238757
0.171283796 0.195481390 0.078861855
0.194851607 0.194483280 0.077970140
0.217713088 0.193719417 0.077323943
0.240257770 0.193124220 0.076833352
0.262876838 0.192545071 0.076373734
0.285839915 0.191811413 0.075745277
0.309626549 0.190897301 0.074935772
0.334709167 0.189741239 0.073886506
0.361355066 0.188194335 0.072453663
0.389508873 0.186342761 0.070709482
0.418818027 0.184175223 0.068652943
0.449157476 0.181760505 0.066355057
0.480441272 0.179201096 0.063904248
0.512410641 0.176529929 0.061335206
0.544773281 0.173820570 0.058737624
0.577255428 0.171189800 0.056217138
0.609537244 0.168663815 0.053807527
0.641296387 0.166383699 0.051629383
0.672169030 0.164440244 0.049790721
0.702186644 0.162770987 0.048236351
0.731915474 0.161414415 0.046991576
0.761450708 0.160207793 0.045895495
0.790828228 0.159132361 0.044930842
0.820052922 0.158169985 0.044076011
0.849311471 0.157338053 0.043346033
0.878686249 0.156776205 0.042894308
0.907922447 0.156320125 0.042553950
0.937140703 0.155958265 0.042294852
0.965969205 0.155768424 0.042210206
0.105993457 0.219200239 0.058218081
0.129630178 0.216743737 0.071475469
0.149318337 0.216272131 0.077247709
0.170946613 0.215757102 0.078170300
0.194440156 0.214887887 0.077452041
0.217379659 0.214221358 0.076882035
0.240045309 0.213738322 0.076515399
0.262726724 0.213222757 0.076104373
0.285834998 0.212632224 0.075633481
0.309775740 0.211881205 0.074987262
0.334959418 0.210819364 0.074030027
0.361838728 0.209505141 0.072820783
0.390119374 0.207778290 0.071203753
0.419597238 0.205776617 0.069318824
0.450114906 0.203548685 0.067204244
0.481597781 0.201189801 0.064949878
0.513826609 0.198781043 0.062649176
0.546479821 0.196355283 0.060327969
0.579155564 0.193923667 0.058001108
0.611640334 0.191606134 0.055802859
0.643663168 0.189586535 0.053893108
0.674905062 0.188015997 0.052421991
0.705357194 0.186773434 0.051291291
0.735344827 0.185668066 0.050309282
0.765112102 0.184710279 0.049452174
0.794810772 0.183957189 0.048808757
0.824506819 0.183447957 0.048415929
0.854252398 0.183114827 0.048180744
0.883883655 0.182795405 0.047983844
0.913358867 0.182576239 0.047874935
0.942864597 0.182517320 0.047913749
0.972095013 0.182718799 0.048219565
0.107590929 0.239367932 0.052999504
0.131199881 0.236963257 0.066951312
0.150380746 0.236606091 0.074275516
0.170699924 0.236494571 0.076610833
0.193611145 0.236050561 0.076514937
0.216676489 0.235493600 0.076063208
0.239380181 0.235047787 0.075734504
0.262175590 0.234653965 0.075448327
0.285479635 0.234261975 0.075157896
0.309626997 0.233707651 0.074722596
0.335095078 0.232927367 0.074051097
0.362025648 0.231674567 0.072903082
0.390477568 0.230118543 0.071457192
0.420234948 0.228399724 0.069848157
0.451040864 0.226468027 0.068021655
0.482806146 0.224384010 0.066049702
0.515251756 0.222188100 0.063958526
0.548108220 0.219965354 0.061851457
0.581142187 0.217892140 0.059882827
0.614040136 0.215987906 0.058088567
0.646408916 0.214307949 0.056522995
0.677938879 0.213023409 0.055342734
0.708687067 0.212081701 0.054509431
0.739070773 0.211372465 0.053919278
0.769268155 0.210837543 0.053496599
0.799304485 0.210434303 0.053197760
0.829343915 0.210272178 0.053144470
0.859328687 0.210171551 0.053148702
0.889262021 0.210166022 0.053247787
0.919049680 0.210260451 0.053456374
0.948846877 0.210471407 0.053787470
0.978420675 0.211015552 0.054440681
0.108377345 0.260278076 0.046951812
0.132082984 0.258025914 0.061581172
0.151001573 0.257788301 0.070303105
0.170435444 0.258075535 0.074048288
0.192088321 0.257949650 0.074753419
0.215224639 0.257594138 0.074504182
0.238173559 0.257393390 0.074421875
0.261180371 0.257212073 0.074345209
0.284625381 0.256951392 0.074202135
0.309040099 0.256670862 0.074016497
0.334673882 0.256059796 0.073520824
0.361911058 0.255103946 0.072684258
0.390668273 0.253848523 0.071539007
0.420618743 0.252323061 0.070120744
0.451781392 0.250747889 0.068646379
0.483858377 0.248976260 0.066985413
0.516628921 0.247101799 0.065227181
0.549801230 0.245202035 0.063428722
0.583168328 0.243457511 0.061800025
0.616451085 0.241942778 0.060393900
0.649260759 0.240703359 0.059264578
0.681106150 0.239732221 0.058403239
0.712122083 0.239053905 0.057835553
0.742792070 0.238636300 0.057531614
0.773379147 0.238491729 0.057495631
0.803816319 0.238493711 0.057598047
0.834060431 0.238526672 0.057748143
0.864252865 0.238628507 0.057957187
0.894426167 0.238872379 0.058305539
0.924593985 0.239343643 0.058885809
0.954755127 0.239923298 0.059579771
0.984497845 0.240637079 0.060409360
0.108192988 0.282248259 0.039944150
0.132030070 0.280178100 0.055171557
0.150882855 0.280109286 0.065165900
0.169593707 0.280633390 0.070132457
0.190198004 0.280970126 0.071964562
0.212989375 0.280932754 0.072164245
0.236139759 0.280944049 0.072269902
0.259517461 0.281125486 0.072576247
0.283252329 0.281160891 0.072710387
0.307792276 0.281008989 0.072673485
0.333657175 0.280624479 0.072393864
0.361248195 0.280027896 0.071907014
0.390350163 0.279120862 0.071114898
0.420779765 0.278054953 0.070166565
0.452134162 0.276677012 0.068881586
0.484478533 0.275180280 0.067502588
0.517691731 0.273751169 0.066178292
0.551296473 0.272279441 0.064815700
0.585030138 0.270906240 0.063551255
0.618593454 0.269666046 0.062426165
0.651604950 0.268634677 0.061509617
0.683788419 0.268006712 0.060981661
0.715217531 0.267745882 0.060830157
0.746194541 0.267622739 0.060822703
0.777013779 0.267706960 0.061021894
0.807652771 0.267906189 0.061322145
0.838172853 0.268227994 0.061753273
0.868684649 0.268647105 0.062284496
0.899152339 0.269184768 0.062926985
0.929609716 0.269936264 0.063796736
0.959934354 0.270683646 0.064649627
0.989881158 0.271611482 0.065677486
0.106959246 0.305561095 0.031881984
0.130860984 0.303578317 0.047545712
0.149668828 0.303637236 0.058619790
0.167996675 0.304475754 0.064862914
0.187906206 0.305343479 0.067960374
0.209982634 0.305813551 0.068968557
0.233390987 0.306145489 0.069416553
0.256903410 0.306469679 0.069847696
0.280948579 0.306815356 0.070298471
0.305951595 0.307116240 0.070713222
0.332192242 0.307112873 0.070818931
0.359996825 0.306743890 0.070555195
0.389504224 0.306233227 0.070158646
0.420209199 0.305455029 0.069491327
0.452005893 0.304504037 0.068647295
0.484777451 0.303439736 0.067686386
0.518205702 0.302230239 0.066589355
0.552181065 0.301123053 0.065595195
0.586200953 0.300032735 0.064615987
0.620035052 0.299070776 0.063763991
0.653321803 0.298309505 0.063111678
0.685808659 0.297985226 0.062892362
0.717518926 0.298005164 0.063022830
0.748832524 0.298223764 0.063350633
0.779852033 0.298509806 0.063750431
0.810686529 0.298900217 0.064245664
0.841427147 0.299447328 0.064902663
0.872280777 0.300202668 0.065775700
0.903076649 0.301061660 0.066741295
0.933624268 0.301913798 0.067701325
0.964124084 0.302827150 0.068725392
0.994250953 0.303944051 0.069942579
0.104752183 0.330114961 0.022842066
0.128873885 0.328374773 0.039043065
0.147812352 0.328688115 0.051172528
0.165939391 0.329833031 0.058670271
0.185327232 0.331171215 0.062981240
0.206713513 0.332261235 0.065058820
0.230036438 0.332975894 0.065957114
0.253879696 0.333621234 0.066719331
0.278253525 0.334296912 0.067498356
0.303553969 0.334892929 0.068201691
0.330288947 0.335387141 0.068801612
0.358544797 0.335460603 0.068988651
0.388254583 0.335156471 0.068795085
0.419198304 0.334617794 0.068361618
0.451364160 0.334044576 0.067900516
0.484440237 0.333277792 0.067237452
0.518288910 0.332481027 0.066558488
0.552409828 0.331528395 0.065707430
0.586650372 0.330655724 0.064951763
0.620844662 0.330053717 0.064457923
0.654452085 0.329618216 0.064132459
0.687195003 0.329544157 0.064168967
0.719109058 0.329768598 0.064508453
0.750575662 0.330145359 0.064983547
0.781859517 0.330688000 0.065638214
0.813064694 0.331451535 0.066509858
0.844024241 0.332217336 0.067392722
0.875056505 0.333151340 0.068441093
0.905968368 0.334118515 0.069514737
0.936717927 0.335182846 0.070680946
0.967426717 0.336312532 0.071922965
0.997819662 0.337682039 0.073406681
0.102115534 0.356059104 0.013381761
0.126488745 0.354591191 0.030097621
0.145722866 0.355297387 0.043318011
0.163917929 0.356860310 0.052120846
0.182888731 0.358605474 0.057559222
0.203584105 0.360151678 0.060638908
0.226515979 0.361405313 0.062273696
0.250782400 0.362534881 0.063514337
0.275529146 0.363573849 0.064669311
0.301179081 0.364529938 0.065721929
0.328085214 0.365184069 0.066493496
0.356617153 0.365540713 0.066951260
0.386753440 0.365669012 0.067188829
0.418063551 0.365494043 0.067127556
0.450376004 0.365055501 0.066799767
0.483779848 0.364620984 0.066471010
0.517811894 0.364000291 0.065963671
0.552248538 0.363365740 0.065439001
0.586831152 0.362845123 0.065025143
0.621205568 0.362414449 0.064705305
0.655111074 0.362280250 0.064681910
0.688065231 0.362418085 0.064928353
0.720166743 0.362825394 0.065455362
0.751833975 0.363408953 0.066137113
0.783396423 0.364229918 0.067070514
0.814801633 0.365190893 0.068139471
0.846014738 0.366213173 0.069272548
0.877136528 0.367236704 0.070409261
0.908177316 0.368326426 0.071610101
0.939061880 0.369530320 0.072919421
0.970045149 0.370929152 0.074430272
0.999848306 0.372508824 0.076114632
0.099498004 0.383614540 0.004411954
0.124235719 0.382532388 0.021244708
0.143709093 0.383552045 0.035378825
0.161952257 0.385392934 0.045329213
0.180707783 0.387596369 0.051903877
0.200980738 0.389679790 0.056107722
0.223299965 0.391462773 0.058592636
0.247615874 0.392955035 0.060231656
0.272722483 0.394362181 0.061755147
0.298637927 0.395575404 0.063075706
0.325808942 0.396497667 0.064107716
0.354609042 0.397112757 0.064837158
0.384975553 0.397471070 0.065292135
0.416637063 0.397656411 0.065590061
0.449305505 0.397587061 0.065632105
0.482825637 0.397260129 0.065411411
0.517041087 0.396830648 0.065093443
0.551824212 0.396536171 0.064903080
0.586625814 0.396230340 0.064710446
0.621288717 0.396091640 0.064689398
0.655317724 0.396072149 0.064777300
0.688431621 0.396371484 0.065186456
0.720825613 0.397077441 0.066001087
0.752741277 0.397907287 0.066935815
0.784468412 0.398895770 0.068036608
0.815970004 0.399956763 0.069205604
0.847272515 0.401066214 0.070419572
0.878546655 0.402242184 0.071706429
0.909858048 0.403595090 0.073185988
0.940869689 0.404932946 0.074615918
0.971957505 0.406428844 0.076230116
1.000000000 0.407963037 0.077869147
0.097100385 0.412802577 0.000000000
0.122228175 0.412117451 0.012601772
0.141841382 0.413344175 0.027470028
0.160161808 0.415437698 0.038464636
0.178743303 0.417998672 0.046075519
0.198739290 0.420616120 0.051391833
0.220526695 0.422925442 0.054820430
0.244508058 0.424814165 0.056985445
0.269752532 0.426388830 0.058672622
0.295933396 0.427867770 0.060266722
0.323490679 0.429176092 0.061679877
0.352575660 0.430067927 0.062689409
0.383175611 0.430658877 0.063387088
0.414992720 0.431000590 0.063833214
0.447852105 0.431122243 0.064059578
0.481719881 0.431144327 0.064201213
0.516248226 0.431035101 0.064189516
0.551107943 0.430808902 0.064081982
0.586165845 0.430764973 0.064137153
0.620944560 0.430735618 0.064227425
0.655179560 0.430929244 0.064531356
0.688554883 0.431485802 0.065193027
0.721079290 0.432324231 0.066142783
0.753176987 0.433336109 0.067259885
0.784991324 0.434410304 0.068449982
0.816583931 0.435557216 0.069705062
0.847991824 0.436774909 0.071026966
0.879462898 0.438147426 0.072511673
0.910859644 0.439600468 0.074081495
0.941990972 0.441043258 0.075625040
0.973003983 0.442471623 0.077171430
1.000000000 0.444037020 0.078842260
0.095042653 0.443392575 0.000000000
0.120342091 0.442901760 0.004245017
0.140215769 0.444433749 0.019697366
0.158723757 0.446859151 0.031733789
0.177250877 0.449785650 0.040393081
0.196915880 0.452761263 0.046637628
0.218183011 0.455456823 0.050908353
0.241620794 0.457777709 0.053741630
0.266972899 0.459680021 0.055780899
0.293418050 0.461426675 0.057639189
0.321176976 0.462941200 0.059263226
0.350572914 0.464142174 0.060571603
0.381377697 0.464935720 0.061482981
0.413370758 0.465452403 0.062100239
0.446437806 0.465782166 0.062539808
0.480502188 0.466008246 0.062871329
0.515250325 0.466104090 0.063086413
0.550383985 0.466158271 0.063245870
0.585495949 0.466150045 0.063355282
0.620394230 0.466259837 0.063565269
0.654895544 0.466721982 0.064137653
0.688375115 0.467385113 0.064905904
0.721030056 0.468345731 0.065981440
0.753176928 0.469410360 0.067147665
0.785053790 0.470543981 0.068397112
0.816805542 0.471848309 0.069817290
0.848356903 0.473214209 0.071279950
0.879859269 0.474618196 0.072801590
0.911214769 0.476026893 0.074324161
0.942333281 0.477460772 0.075862594
0.973354578 0.478903860 0.077416956
1.000000000 0.480567753 0.079186417
0.093444459 0.475146383 0.000000000
0.118974403 0.474887133 0.000266540
0.139028281 0.476647645 0.012287088
0.157777220 0.479426175 0.025315300
0.176306069 0.482681245 0.034971546
0.195620447 0.485894561 0.042010102
0.216442898 0.488929272 0.047093049
0.239354610 0.491700530 0.050699294
0.264583349 0.494045019 0.053266518
0.291234642 0.496009290 0.055343665
0.319216251 0.497742891 0.057186071
0.348687112 0.499025613 0.058580011
0.379684061 0.500010371 0.059669539
0.411998481 0.500844419 0.060621157
0.445264071 0.501377702 0.061254341
0.479435235 0.501697242 0.061692473
0.514302850 0.501933217 0.062033817
0.549514949 0.502052069 0.062263910
0.584825337 0.502255201 0.062580004
0.619967461 0.502597868 0.063033581
0.654449522 0.503038228 0.063578799
0.688066483 0.503839910 0.064485088
0.720724642 0.504810750 0.065571316
0.752927899 0.505919576 0.066786215
0.784926295 0.507182360 0.068160966
0.816745341 0.508558989 0.069649860
0.848321199 0.509937704 0.071139693
0.879766643 0.511295140 0.072596319
0.911065757 0.512652516 0.074065082
0.942170203 0.514059603 0.075586259
0.973257363 0.515575469 0.077206984
1.000000000 0.517220795 0.078957260
0.092508301 0.507834017 0.000000000
0.118442617 0.507990837 0.000072948
0.138690501 0.509990990 0.005668434
0.157515511 0.512923479 0.019436914
0.175934583 0.516300499 0.029880144
0.195058674 0.519849420 0.037776299
0.215614125 0.523285866 0.043747719
0.238061324 0.526452661 0.048112903
0.262812018 0.529160678 0.051212732
0.289505273 0.531320035 0.053501241
0.317611367 0.533180356 0.055472750
0.347273946 0.534658611 0.057060767
0.378503591 0.535870314 0.058380801
0.410896361 0.536787093 0.059408139
0.444374502 0.537519336 0.060253602
0.478654355 0.537966311 0.060805410
0.513579786 0.538234830 0.061192110
0.548888147 0.538468242 0.061531596
0.584354758 0.538830400 0.061998338
0.619511008 0.539176941 0.062464021
0.654117823 0.539741278 0.063141130
0.687682331 0.540501356 0.063997820
0.720367312 0.541493535 0.065096736
0.752733529 0.542772114 0.066492513
0.784690261 0.543989062 0.067816839
0.816444337 0.545299411 0.069243960
0.847969890 0.546621561 0.070674874
0.879361987 0.547926188 0.072081938
0.910653114 0.549279392 0.073546536
0.941779971 0.550709248 0.075085931
0.972750068 0.552106261 0.076588809
1.000000000 0.553576827 0.078172639
0.092590630 0.541450739 0.000000000
0.118729971 0.541825831 0.000000000
0.139180273 0.544062018 0.001600176
0.158045143 0.547110081 0.014219685
0.176469862 0.550666153 0.025487360
0.195416614 0.554479539 0.034159765
0.215734214 0.558277726 0.040971979
0.237781689 0.561783791 0.046061508
0.261883229 0.564724088 0.049650926
0.288346708 0.567112029 0.052227452
0.316658646 0.569179952 0.054404709
0.346541017 0.570880055 0.056213927
0.377817184 0.572142899 0.057592444
0.410353661 0.573202550 0.058760524
0.443811148 0.573917329 0.059585392
0.478163660 0.574416935 0.060197014
0.513301015 0.574920416 0.060806796
0.548678756 0.575214922 0.061211772
0.584078252 0.575506210 0.061608307
0.619287908 0.575928867 0.062135343
0.653823137 0.576410115 0.062736630
0.687413573 0.577172756 0.063616730
0.720229268 0.578312635 0.064856343
0.752443910 0.579446495 0.066096924
0.784406662 0.580663860 0.067431986
0.816032469 0.581842780 0.068718359
0.847445905 0.583049774 0.070042185
0.878802776 0.584319234 0.071416050
0.910098016 0.585680425 0.072886236
0.941079259 0.586968780 0.074280217
0.971846044 0.588163733 0.075580150
1.000000000 0.589436293 0.076962940
0.093860656 0.575727403 0.000000000
0.120068774 0.576171875 0.000000000
0.140635848 0.578548312 0.000476032
0.159625217 0.581792533 0.009950371
0.178209648 0.585644305 0.022116799
0.197004378 0.589662611 0.031514950
0.216969579 0.593644798 0.038969629
0.238505557 0.597293377 0.044611432
0.262088925 0.600525558 0.048786771
0.288189232 0.603255570 0.051831856
0.316519260 0.605459571 0.054155942
0.346501082 0.607247710 0.056063347
0.377841711 0.608581781 0.057506394
0.410353541 0.609615266 0.058649700
0.443865329 0.610385895 0.059525542
0.478379101 0.611061394 0.060305502
0.513435721 0.611469507 0.060823612
0.548879921 0.611832142 0.061306715
0.584245205 0.612097263 0.061670989
0.619361341 0.612411976 0.062098823
0.653871298 0.612888098 0.062679633
0.687554717 0.613750279 0.063652270
