Desert Affinity Presets/Desert Affinity Preset #4.cube
TITLE "32x32x32 Adobe/IRIDAS cube 3D LUT exported with GrossGrade v0.1.027.1 (beta) 64 bit"
DOMAIN_MIN 0 0 0
DOMAIN_MAX 1 1 1
LUT_3D_SIZE 32
0.000000000 0.041618261 0.186940998
0.001612904 0.040615201 0.190337956
0.003225807 0.040608615 0.194732025
0.005255357 0.041759416 0.200309157
0.012324392 0.041890386 0.204841450
0.027063726 0.040867712 0.208233222
0.046010211 0.038544580 0.210324749
0.070895381 0.034515623 0.210706413
0.101814568 0.028859314 0.209453151
0.135989666 0.022331905 0.207340196
0.172272682 0.015116573 0.204539239
0.210571855 0.007309764 0.201141253
0.250754148 0.001350473 0.197213277
0.292450219 0.000000000 0.192901880
0.335361838 0.000000000 0.188328087
0.379175782 0.000000000 0.183553055
0.423450202 0.000000000 0.178652272
0.467811465 0.000000000 0.173745081
0.511903226 0.000000000 0.168969706
0.555569649 0.000000000 0.164508551
0.598439515 0.000000000 0.160404921
0.640118122 0.000000000 0.156689629
0.680546522 0.000000000 0.153359964
0.719934702 0.000000000 0.150465280
0.758691430 0.000000000 0.148078635
0.797067285 0.000000000 0.146134883
0.835091352 0.000000000 0.144388661
0.873050869 0.000000000 0.142756164
0.911233485 0.000000000 0.141428366
0.949908316 0.000000000 0.140562132
0.989346981 0.000000000 0.140131921
1.000000000 0.000000000 0.139858052
0.000000000 0.055140387 0.186912522
0.001612904 0.056460850 0.185134947
0.003225807 0.055450343 0.188753456
0.004844324 0.056020875 0.193923205
0.007953128 0.055750616 0.198153913
0.022577897 0.054445490 0.201366872
0.041499574 0.051963374 0.203428239
0.066423066 0.047867082 0.203869700
0.097272262 0.042051353 0.202610731
0.131358817 0.035361595 0.200455293
0.167643815 0.028078036 0.197710395
0.206024989 0.020272627 0.194448575
0.246360675 0.012026681 0.190742686
0.288249403 0.004792221 0.186681882
0.331272691 0.001612904 0.182285041
0.375219703 0.001612904 0.177711174
0.419742733 0.001612904 0.173118383
0.464466453 0.001612904 0.168648630
0.508989811 0.001612904 0.164377004
0.552968979 0.001612904 0.160305977
0.596162438 0.001612904 0.156587169
0.638359189 0.001612904 0.153444216
0.679479301 0.001612904 0.150886983
0.719584048 0.001612904 0.148777306
0.758971572 0.001612904 0.147091836
0.797992289 0.001612904 0.145856529
0.837046206 0.001612904 0.145199433
0.876283824 0.001612904 0.144930869
0.915630877 0.001612904 0.144831568
0.955291331 0.001612904 0.145023257
0.995420814 0.001612904 0.145621926
1.000000000 0.001612904 0.146701008
0.000000000 0.067613102 0.187853932
0.001612904 0.068734944 0.186698884
0.003225807 0.070445962 0.184477180
0.004838713 0.070144385 0.187659845
0.007057643 0.069023937 0.192340881
0.018222529 0.067397103 0.195511922
0.037360739 0.064834580 0.197349235
0.062348291 0.060624167 0.197591543
0.093359165 0.054836005 0.196292922
0.127622187 0.048217878 0.194205269
0.164095730 0.041041814 0.191569850
0.202656493 0.033365462 0.188425869
0.243199274 0.025278542 0.184882239
0.285312802 0.016852586 0.181007817
0.328699052 0.008416809 0.176937714
0.373019010 0.003512923 0.172725752
0.417872071 0.003225807 0.168446839
0.463010192 0.003225807 0.164368063
0.508074999 0.003225807 0.160620883
0.552711725 0.003225807 0.157199532
0.596565425 0.003225807 0.154130653
0.639363050 0.003225807 0.151573136
0.681317985 0.003225807 0.149845198
0.722517490 0.003225807 0.148829967
0.763088524 0.003225807 0.148317575
0.803161621 0.003225807 0.148141563
0.843084693 0.003225807 0.148342282
0.883391380 0.003225807 0.149151370
0.924254537 0.003225807 0.150557682
0.965255976 0.003225807 0.152088866
0.997424722 0.003225807 0.153572097
1.000000000 0.003225807 0.155188456
0.000000000 0.079109550 0.188716948
0.001612904 0.080108821 0.187629908
0.003225807 0.082040094 0.186383262
0.004838713 0.084568478 0.184870884
0.006500246 0.083608992 0.186015621
0.011617453 0.081054844 0.189706907
0.032595240 0.077955030 0.192192554
0.058510598 0.073626757 0.192761183
0.089974582 0.067869507 0.191502750
0.124575593 0.061393946 0.189420924
0.161472857 0.054512087 0.186974123
0.200471058 0.047165334 0.184096381
0.241394281 0.039359942 0.180798233
0.283881813 0.031236066 0.177199766
0.327717900 0.023010733 0.173505485
0.372702897 0.014852710 0.169884205
0.418354273 0.008253242 0.166353613
0.464119703 0.005458769 0.162866995
0.509786665 0.004838713 0.159680903
0.555265844 0.004838713 0.157062322
0.600294948 0.004838713 0.155146882
0.644427717 0.004838713 0.153905988
0.687370718 0.004838713 0.153149068
0.729439259 0.004838713 0.152985647
0.771110296 0.004838713 0.153566614
0.812582433 0.004838713 0.154776245
0.853830934 0.004838713 0.156277671
0.895117581 0.004838713 0.158046991
0.936337709 0.004838713 0.159819737
0.977713943 0.004838713 0.161712378
0.997812390 0.004838713 0.163638636
1.000000000 0.004838713 0.165628016
0.000000000 0.090467520 0.189003423
0.001612904 0.091481857 0.187993407
0.003225807 0.093419671 0.187441304
0.004838713 0.096678883 0.186748266
0.006451614 0.098313145 0.184457421
0.008414291 0.096722469 0.183994964
0.024006983 0.093001977 0.186112911
0.052547559 0.088243082 0.187503338
0.085806705 0.082399838 0.187144652
0.121601105 0.076058947 0.185752392
0.159200862 0.069334663 0.183651477
0.198822826 0.062354080 0.181086898
0.240506738 0.055178966 0.178292572
0.283820719 0.047775272 0.175323546
0.328404963 0.040212046 0.172211766
0.374126524 0.032701194 0.169193715
0.420664042 0.025451319 0.166446075
0.467664838 0.018598409 0.164112836
0.514603853 0.012090113 0.162126541
0.561112940 0.008806520 0.160473868
0.607171834 0.008247260 0.159538463
0.652446568 0.007745966 0.159397095
0.696711600 0.007306413 0.159922346
0.739962280 0.006919229 0.160908386
0.782418311 0.006595640 0.162242055
0.824489832 0.006451614 0.164019972
0.866164148 0.006451614 0.165938303
0.907720625 0.006451614 0.167951137
0.949276924 0.006451614 0.170038924
0.989918709 0.006451614 0.172185928
0.998225808 0.006451614 0.174429595
1.000000000 0.006451614 0.176985979
0.000000000 0.102592930 0.188307956
0.001612904 0.103754416 0.187460124
0.003225807 0.105836675 0.187312841
0.004838713 0.109254040 0.187544495
0.006451614 0.111917652 0.185884684
0.008064517 0.112773210 0.182983816
0.012730007 0.110659674 0.181321532
0.042455494 0.105858050 0.181571692
0.078655541 0.099842824 0.181943446
0.116818294 0.093578801 0.181642890
0.156315282 0.087203696 0.180682644
0.197336689 0.080618754 0.179090440
0.240189552 0.073973946 0.177150637
0.284778267 0.067524575 0.175189227
0.330740184 0.061159883 0.173217610
0.377665251 0.054759644 0.171197385
0.425220251 0.048434675 0.169285372
0.473242998 0.042520761 0.167815134
0.521466374 0.037235275 0.167000562
0.569417536 0.032428168 0.166697949
0.616488338 0.027907304 0.166685119
0.662372172 0.023789003 0.167073518
0.707077563 0.020155624 0.167972997
0.750797331 0.017019812 0.169373080
0.793798149 0.014320275 0.171203077
0.836108327 0.012680816 0.173181012
0.878025413 0.012130420 0.175308213
0.919908881 0.011812447 0.177614883
0.961896002 0.011557603 0.180088282
0.994754076 0.011288721 0.182592392
0.998387098 0.011010495 0.185282141
1.000000000 0.010736939 0.187856019
0.000000000 0.116403267 0.185622647
0.001612904 0.117963843 0.185181454
0.003225807 0.120392494 0.185476527
0.004838713 0.124060109 0.186492905
0.006451614 0.127120152 0.185834005
0.008064517 0.129328847 0.183545828
0.010471434 0.129739210 0.180347592
0.030374136 0.127080441 0.177680910
0.067639001 0.121667951 0.176491335
0.108589038 0.115526147 0.176600903
0.150997832 0.109650642 0.176994503
0.194686383 0.103905648 0.177075341
0.239700377 0.098134287 0.176675901
0.285868019 0.092325583 0.175892711
0.333223939 0.086700201 0.175046101
0.381675482 0.081408650 0.174306348
0.430677652 0.076309778 0.173635826
0.479780555 0.071344182 0.173042282
0.528653383 0.066612855 0.172694221
0.576970994 0.062107369 0.172607496
0.624476314 0.057956781 0.172902301
0.670831382 0.054250948 0.173651084
0.715904415 0.050931819 0.174815595
0.760032654 0.048146721 0.176536798
0.803306401 0.045675848 0.178565279
0.845967114 0.043417737 0.180826128
0.888247430 0.041322783 0.183262587
0.930453777 0.039377972 0.185843229
0.972869039 0.037699286 0.188701123
0.995483577 0.036017720 0.191537589
0.998387098 0.034291316 0.194352716
1.000000000 0.032598533 0.197194338
0.000000000 0.133263886 0.179692656
0.001612904 0.135178477 0.179626182
0.003225807 0.138208359 0.180558652
0.004838713 0.142620757 0.182615682
0.006451614 0.146396741 0.183184341
0.008064517 0.149364203 0.182101607
0.009677423 0.151417002 0.179610148
0.020178284 0.151334092 0.176062524
0.055436593 0.148571700 0.172936097
0.097077765 0.143914759 0.171759412
0.141851291 0.138506204 0.172207922
0.188410029 0.133297473 0.173412696
0.236044124 0.128199309 0.174451157
0.284492522 0.123162404 0.175138384
0.333534271 0.118104428 0.175425187
0.383128256 0.113113150 0.175479904
0.433056653 0.108282670 0.175465241
0.482906938 0.103605926 0.175421178
0.532268882 0.099080898 0.175368339
0.580975413 0.094804071 0.175479844
0.628865063 0.090930723 0.175983742
0.675674498 0.087613046 0.177043766
0.721251190 0.084737271 0.178578496
0.765637755 0.082152218 0.180436119
0.809142828 0.079854414 0.182591230
0.852107823 0.077847853 0.185054630
0.894830346 0.076139189 0.187849581
0.937511325 0.074636720 0.190830737
0.980106056 0.073098324 0.193820879
0.995997012 0.071585536 0.196813032
0.998387098 0.070107453 0.199852973
1.000000000 0.068763509 0.203033164
0.000000000 0.153959394 0.171028167
0.001612904 0.156611025 0.171695068
0.003225807 0.160353884 0.173366368
0.004838713 0.165646210 0.176432282
0.006451614 0.170670390 0.178693339
0.008064517 0.174880177 0.179301620
0.009677423 0.178068832 0.178203732
0.015774755 0.179646641 0.175253347
0.045445036 0.179200351 0.171460599
0.085118100 0.177029297 0.168679938
0.130047023 0.173423827 0.167906582
0.178087160 0.168643951 0.168474525
0.227729604 0.163492501 0.169703633
0.278084874 0.158434600 0.170966908
0.328764170 0.153391689 0.171945035
0.379705817 0.148472980 0.172666669
0.430631191 0.143650889 0.173164606
0.481260747 0.138983548 0.173565671
0.531440139 0.134655103 0.174091220
0.580932379 0.130676404 0.174789324
0.629404128 0.127047405 0.175707713
0.676623821 0.123927638 0.177012146
0.722510517 0.121235333 0.178694636
0.767276645 0.118948586 0.180776909
0.811187923 0.117003240 0.183208168
0.854496658 0.115289427 0.185901657
0.897590697 0.113899834 0.188959122
0.940485418 0.112555280 0.192048565
0.983358562 0.111253381 0.195219234
0.996232688 0.109991297 0.198431030
0.998387098 0.108753935 0.201703206
1.000000000 0.107752018 0.205187887
0.000000000 0.178307623 0.162797973
0.001612904 0.182229757 0.164757222
0.003225807 0.187184289 0.167650118
0.004838713 0.193564549 0.171854272
0.006451614 0.199319884 0.175159216
0.008064517 0.204555169 0.177168563
0.009677423 0.208994105 0.177741200
0.015064448 0.211861104 0.176146537
0.039922521 0.212760046 0.172590807
0.076766446 0.212210104 0.168793827
0.118943982 0.209990874 0.165780455
0.165909618 0.206317812 0.164375097
0.216267452 0.201634839 0.164508089
0.268142194 0.196458429 0.165492967
0.320663303 0.191400632 0.166874975
0.373128384 0.186355054 0.168071911
0.425370544 0.181480989 0.169108242
0.477143198 0.176845908 0.170040160
0.528290868 0.172602087 0.171114489
0.578640938 0.168769211 0.172355458
0.627902210 0.165353686 0.173829392
0.675694704 0.162321448 0.175524816
0.722064078 0.159743771 0.177529454
0.767276168 0.157647774 0.179918900
0.811681271 0.156028777 0.182691336
0.855437338 0.154671177 0.185695753
0.898704171 0.153393894 0.188796163
0.941798568 0.152187765 0.191960365
0.984916627 0.151083440 0.195263460
0.996345818 0.150153965 0.198756382
0.998387098 0.149232581 0.202294663
1.000000000 0.148297817 0.205821618
0.000000000 0.207095295 0.157006219
0.001612904 0.212067932 0.160010517
0.003225807 0.218149439 0.164049238
0.004838713 0.225519314 0.169282034
0.006451614 0.232086346 0.173534840
0.008064517 0.237798125 0.176421359
0.009677423 0.242557898 0.177642524
0.014478520 0.245983869 0.176972300
0.036583748 0.247625202 0.174051523
0.071245767 0.247958854 0.170029894
0.110690638 0.247022197 0.165923655
0.155241057 0.244772330 0.162729874
0.204208583 0.241150677 0.160893261
0.256401926 0.236673281 0.160728693
0.309942007 0.231533036 0.161439598
0.363953561 0.226353183 0.162696272
0.417811275 0.221501127 0.164200395
0.470999777 0.216862708 0.165697500
0.523348153 0.212635756 0.167286754
0.574669480 0.208782762 0.168981373
0.624684334 0.205320477 0.170805126
0.673251987 0.202411383 0.172987625
0.720414102 0.200087547 0.175570846
0.766228437 0.198127761 0.178378850
0.811105847 0.196594834 0.181484371
0.855222464 0.195294470 0.184709102
0.898843467 0.194184303 0.188034594
0.942300618 0.193204701 0.191431120
0.985734344 0.192344248 0.194921970
0.996408522 0.191645354 0.198602855
0.998387098 0.190780237 0.202113330
1.000000000 0.189929202 0.205663010
0.000000000 0.240080848 0.153503031
0.001612904 0.245657772 0.157108113
0.003225807 0.252128303 0.161530897
0.004838713 0.259836257 0.167136475
0.006451614 0.266840756 0.171909884
0.008064517 0.272877455 0.175402120
0.009677423 0.278013885 0.177307755
0.013869683 0.281522423 0.177060723
0.033835553 0.283535093 0.174804866
0.067512810 0.284732282 0.171390116
0.105147138 0.284836471 0.167234257
0.147156015 0.283680558 0.162986755
0.193923876 0.281421751 0.159647495
0.244445264 0.277862549 0.157483280
0.297816277 0.273403674 0.156865776
0.352746874 0.268552899 0.157487601
0.407881051 0.263574153 0.158802956
0.462623566 0.258945674 0.160635158
0.516247213 0.254592925 0.162563711
0.568695247 0.250647455 0.164651826
0.619733155 0.247154459 0.166921586
0.669262528 0.244322538 0.169587493
0.717207670 0.242041096 0.172588497
0.763749182 0.240206361 0.175851181
0.809111536 0.238652006 0.179234535
0.853679955 0.237357989 0.182731330
0.897748411 0.236308888 0.186363295
0.941713691 0.235527426 0.190155029
0.985554636 0.234838679 0.193938687
0.996437490 0.234077647 0.197581202
0.998387098 0.233265921 0.201141626
1.000000000 0.232496351 0.204721987
0.000000000 0.275077850 0.150214687
0.001612904 0.281003416 0.154177606
0.003225807 0.287835419 0.158972874
0.004838713 0.295873374 0.164919659
0.006451614 0.303214937 0.170080364
0.008064517 0.309591621 0.174079522
0.009677423 0.314907074 0.176484808
0.013283761 0.318698764 0.176786751
0.031166395 0.321004808 0.175143570
0.064645402 0.322534770 0.172275379
0.101237819 0.323535264 0.168644175
0.141592264 0.323400319 0.164347976
0.185972631 0.322074026 0.159992099
0.234291673 0.319603264 0.156343281
0.286143273 0.316272318 0.154078662
0.340525508 0.312053204 0.153256610
0.396248937 0.307522506 0.153797045
0.451913238 0.302758336 0.155148089
0.506836951 0.298264503 0.157120407
0.560644686 0.294339687 0.159548908
0.612889230 0.290799111 0.162236974
0.663419306 0.287887126 0.165275246
0.712215483 0.285518199 0.168605506
0.759419203 0.283552825 0.172108069
0.805460989 0.281993002 0.175837710
0.850744486 0.280849457 0.179787308
0.895303488 0.279815793 0.183706582
0.939676762 0.279018044 0.187739938
0.983771384 0.278215528 0.191643760
0.996358931 0.277447551 0.195471168
0.998387098 0.276658028 0.199210122
1.000000000 0.276009530 0.202995569
0.000000000 0.311549813 0.147066101
0.001612904 0.317760587 0.151314646
0.003225807 0.325031310 0.156553805
0.004838713 0.333446860 0.162898585
0.006451614 0.341001511 0.168300211
0.008064517 0.347549409 0.172556832
0.009677423 0.353124738 0.175519377
0.012799311 0.357306272 0.176452965
0.028676355 0.359899759 0.175362363
0.062337246 0.361765414 0.173119262
0.098415278 0.363014758 0.169856891
0.137519807 0.363546163 0.165792212
0.180380732 0.363218278 0.161399975
0.226743430 0.361853868 0.157050774
0.276455939 0.359415561 0.153352305
0.329248697 0.356268257 0.150987968
0.384105861 0.352257818 0.149975404
0.439919114 0.347902149 0.150302500
0.495742738 0.343608737 0.151855007
0.550642729 0.339525759 0.154136553
0.604149640 0.335939139 0.157014981
0.655682027 0.332830131 0.160226867
0.705384731 0.330250710 0.163771108
0.753442347 0.328165174 0.167573377
0.800341725 0.326624513 0.171688929
0.846264541 0.325388551 0.175897628
0.891419172 0.324326575 0.180097356
0.936126947 0.323327065 0.184211433
0.980582893 0.322420508 0.188278213
0.996194303 0.321571559 0.192272365
0.998387098 0.320844233 0.196288168
1.000000000 0.320179760 0.200245380
0.000000000 0.349396318 0.144344747
0.001612904 0.355980843 0.148960710
0.003225807 0.363539934 0.154503644
0.004838713 0.372154534 0.161052883
0.006451614 0.379977643 0.166744113
0.008064517 0.386832237 0.171375051
0.009677423 0.392654985 0.174746066
0.012305046 0.397081852 0.176219270
0.026486980 0.399995655 0.175670415
0.060227875 0.402037740 0.173852980
0.096363343 0.403501540 0.171086818
0.134907588 0.404492676 0.167487979
0.176523238 0.404769033 0.163222313
0.221386060 0.404289186 0.158744842
0.269275367 0.402868241 0.154394820
0.320029318 0.400482267 0.150671229
0.373130143 0.397332996 0.148064494
0.428171694 0.393741220 0.147094086
0.483772933 0.389772832 0.147462249
0.539220810 0.385863066 0.149091199
0.593517303 0.382094294 0.151563704
0.646096945 0.378784150 0.154723868
0.696878672 0.376135796 0.158453554
0.745902359 0.373906851 0.162498787
0.793592453 0.372163832 0.166800141
0.840164959 0.370700002 0.171162397
0.885853112 0.369399101 0.175481662
0.931073070 0.368241310 0.179746076
0.976106048 0.367318273 0.184094787
0.995949328 0.366342843 0.188213781
0.998387098 0.365481168 0.192341074
1.000000000 0.364499062 0.196230501
0.000000000 0.388471633 0.142233104
0.001612904 0.395396173 0.147188559
0.003225807 0.403085858 0.152876049
0.004838713 0.411928177 0.159659520
0.006451614 0.420019984 0.165637523
0.008064517 0.427245557 0.170667529
0.009677423 0.433328331 0.174404591
0.011931889 0.437911242 0.176300183
0.024516910 0.440903902 0.176049873
0.058429871 0.443159044 0.174664825
0.094784662 0.444966853 0.172478586
0.133335412 0.446181267 0.169347957
0.174199983 0.446905136 0.165431261
0.217770308 0.446915805 0.160951197
0.264045715 0.446135104 0.156257093
0.313075602 0.444669306 0.151902780
0.364489734 0.442448080 0.148284927
0.417685866 0.439518332 0.145706922
0.472302139 0.436239243 0.144696072
0.527221560 0.432570964 0.145019144
0.581698120 0.428925455 0.146588579
0.635046542 0.425643533 0.149368346
0.686727464 0.422793120 0.152926937
0.736707330 0.420371324 0.156987891
0.785112381 0.418299794 0.161247700
0.832366586 0.416510940 0.165651709
0.878723979 0.414975673 0.170098573
0.924635351 0.413714439 0.174619347
0.970142066 0.412572294 0.179054976
0.995630324 0.411375403 0.183260113
0.998387098 0.410130411 0.187265560
1.000000000 0.408917964 0.191181615
0.000000000 0.428503782 0.140923455
0.001612904 0.435554951 0.146013394
0.003225807 0.443524152 0.151981771
0.004838713 0.452672035 0.159076884
0.006451614 0.461058229 0.165374085
0.008064517 0.468503416 0.170645401
0.009677423 0.474727631 0.174584299
0.011699484 0.479423404 0.176779896
0.023192633 0.482604623 0.176958680
0.057292614 0.485059083 0.175981373
0.093719408 0.487007052 0.174143285
0.132385164 0.488456398 0.171478555
0.173034862 0.489318103 0.167885080
0.215667903 0.489677042 0.163583010
0.260754794 0.489437521 0.158924639
0.308280021 0.488589525 0.154241085
0.357933462 0.487088293 0.149882659
0.409457058 0.484955043 0.146304876
0.462281018 0.482227683 0.143770278
0.515957355 0.479105055 0.142604440
0.569997251 0.475936443 0.143092558
0.623204589 0.472712278 0.144773781
0.675278902 0.469759941 0.147657126
0.725884914 0.467084318 0.151301876
0.775089860 0.464697957 0.155401692
0.823159158 0.462689400 0.159800082
0.870231748 0.460905880 0.164303079
0.916702807 0.459301651 0.168816879
0.962649286 0.457769632 0.173216268
0.995205760 0.456238687 0.177423313
0.998387098 0.454682410 0.181414530
1.000000000 0.453274757 0.185390413
0.000000000 0.469206661 0.140623137
0.001612904 0.476458102 0.145921126
0.003225807 0.484635621 0.152091414
0.004838713 0.494116604 0.159534320
0.006451614 0.502742708 0.166080311
0.008064517 0.510226309 0.171405464
0.009677423 0.516586661 0.175527856
0.011712576 0.521468699 0.178026661
0.022745114 0.524856150 0.178663641
0.056932092 0.527389169 0.177942842
0.093443915 0.529460669 0.176422343
0.132004097 0.530887306 0.173934817
0.172625467 0.531837344 0.170662656
0.215051085 0.532501638 0.166794449
0.259167343 0.532614708 0.162254900
0.305407405 0.532152176 0.157438308
0.353558630 0.531162083 0.152674392
0.403260767 0.529544890 0.148239106
0.454387873 0.527479529 0.144678459
0.506587327 0.525074184 0.142313257
0.559157073 0.522273421 0.141196907
0.611682057 0.519412935 0.141686037
0.663388908 0.516450882 0.143346399
0.714099944 0.513644695 0.146118239
0.763869166 0.511121750 0.149771452
0.812649429 0.508858979 0.153950915
0.860417187 0.506714284 0.158293203
0.907337248 0.504662693 0.162573844
0.953754783 0.502681196 0.166836694
0.994696021 0.500792861 0.171016172
0.998387098 0.499003261 0.175099611
1.000000000 0.497282803 0.179056436
0.000000000 0.510364234 0.141578287
0.001612904 0.518000305 0.147251263
0.003225807 0.526350260 0.153610438
0.004838713 0.535946846 0.161167160
0.006451614 0.544580996 0.167726323
0.008064517 0.552214205 0.173231959
0.009677423 0.558772862 0.177576661
0.011876239 0.563803673 0.180288166
0.023214595 0.567268312 0.181202710
0.057470769 0.569823146 0.180719510
0.093918987 0.571846962 0.179312438
0.132488266 0.573330641 0.177071720
0.173168808 0.574425459 0.174144551
0.215431079 0.575063288 0.170457497
0.259073734 0.575387299 0.166196302
0.304226577 0.575157106 0.161341995
0.351035327 0.574432671 0.156317741
0.399295330 0.573300064 0.151472479
0.448806882 0.571829915 0.147214264
0.499189585 0.569828451 0.143678367
0.550213635 0.567557037 0.141315386
0.601198018 0.565025389 0.140210539
0.651999474 0.562331021 0.140577778
0.702450275 0.559760332 0.142343313
0.752078652 0.557062507 0.144965112
0.801066399 0.554474831 0.148396805
0.849293411 0.551973760 0.152278736
0.896819711 0.549523473 0.156298697
0.943808079 0.547177672 0.160402313
0.989660680 0.544959784 0.164477900
0.998387098 0.542712271 0.168399885
1.000000000 0.540498376 0.172175065
0.000000000 0.551947832 0.144075811
0.001612904 0.559721589 0.149882257
0.003225807 0.568213105 0.156379282
0.004838713 0.577802479 0.163946718
0.006451614 0.586533666 0.170601979
0.008064517 0.594294071 0.176251054
0.009677423 0.601002753 0.180776477
0.012246122 0.606100500 0.183595806
0.024541223 0.609463394 0.184525579
0.058863830 0.612004161 0.184266895
0.095413208 0.614115596 0.183124274
0.134032384 0.615676880 0.181117594
0.174513638 0.616635859 0.178231552
0.216702163 0.617294908 0.174763352
0.260042369 0.617488861 0.170552894
0.304455310 0.617361128 0.165791079
0.350327045 0.616994560 0.160841659
0.397276908 0.616113603 0.155707330
0.445215553 0.614886761 0.150836959
0.493978411 0.613367379 0.146555662
0.543199718 0.611410320 0.143027872
0.592590392 0.609244049 0.140639141
0.642047882 0.607080281 0.139696375
0.691362083 0.604599178 0.139989093
0.740464211 0.602007627 0.141478181
0.789122343 0.599216104 0.143757299
0.837373614 0.596403122 0.146762475
0.885290265 0.593656242 0.150275081
0.932859242 0.591030002 0.154125080
0.979818225 0.588323474 0.157913491
0.998140216 0.585550189 0.161458418
1.000000000 0.582788229 0.164972737
0.000000000 0.593569815 0.148098901
0.001612904 0.601300001 0.153868943
0.003225807 0.609848917 0.160427704
0.004838713 0.619533777 0.168085292
0.006451614 0.628457010 0.174941584
0.008064517 0.636258125 0.180641204
0.009677423 0.642955840 0.185174912
0.012864780 0.647918522 0.187899977
0.026935406 0.651255846 0.188880131
0.061359014 0.653821945 0.188837484
0.097909451 0.655895352 0.187839568
0.136481225 0.657423735 0.185967207
0.176838383 0.658297539 0.183152795
0.218732566 0.658725262 0.179635003
0.261872560 0.658823609 0.175513417
0.306138515 0.658803940 0.171015009
0.351056635 0.658414423 0.165962949
0.396949410 0.657733083 0.160739586
0.443499386 0.656646192 0.155462474
0.490710378 0.655299783 0.150522470
0.538297415 0.653703928 0.146196380
0.586207449 0.652060211 0.142942533
