Desert Affinity Presets/Desert Affinity Preset #9.cube
TITLE "32x32x32 Adobe/IRIDAS cube 3D LUT exported with GrossGrade v0.1.027.1 (beta) 64 bit"
LUT_3D_SIZE 8
DOMAIN_MIN 0.000000 0.000000 0.000000
DOMAIN_MAX 0.903226 0.903226 0.903226
0.301097721 0.000000000 0.000000000
0.328224719 0.000000000 0.000000000
0.378395677 0.000000000 0.000000000
0.468222320 0.000000000 0.000000000
0.589626253 0.000000000 0.000000000
0.731196344 0.000000000 0.000000000
0.881486475 0.000000000 0.000000000
0.995161295 0.000000000 0.000000000
0.241398335 0.077906504 0.000000000
0.295869201 0.090786487 0.000000000
0.327243060 0.105417401 0.000000000
0.413814932 0.107899569 0.000000000
0.536494851 0.100912720 0.000000000
0.680071771 0.088950165 0.000000000
0.833351731 0.075830720 0.000000000
0.992038488 0.061799452 0.000000000
0.190327197 0.171412691 0.000000000
0.246235073 0.200308070 0.000000000
0.335731357 0.204129934 0.000000000
0.414961696 0.208794191 0.000000000
0.519306362 0.213001356 0.000000000
0.662026763 0.208616450 0.000000000
0.818962991 0.201435104 0.000000000
0.987765372 0.192137137 0.000000000
0.135962933 0.265736580 0.000000000
0.208361953 0.310750902 0.000000000
0.300775021 0.333864212 0.000000000
0.436219841 0.331645250 0.000000000
0.562922895 0.330505818 0.000000000
0.682557821 0.334971219 0.000000000
0.825142682 0.335965008 0.000000000
0.989511788 0.331894666 0.000000000
0.094129056 0.381395638 0.000000000
0.176785424 0.433501005 0.000000000
0.270503789 0.474443346 0.000000000
0.413810521 0.480452448 0.000000000
0.581920147 0.472852767 0.000000000
0.738345206 0.466832399 0.000000000
0.870389581 0.469362497 0.000000000
0.993266046 0.472015679 0.000000000
0.068673953 0.512483418 0.000000000
0.155355647 0.566407263 0.000000000
0.251279473 0.613350749 0.000000000
0.391325533 0.634051204 0.000000000
0.569215596 0.628550589 0.000000000
0.756664455 0.616473198 0.000000000
0.926596463 0.607344866 0.000000000
0.995161295 0.604549050 0.000000000
0.058614165 0.645926476 0.000000000
0.147286773 0.700468540 0.000000000
0.246025875 0.749167144 0.000000000
0.382428527 0.779492736 0.000000000
0.557311118 0.780305326 0.000000000
0.753011823 0.766838551 0.000000000
0.946174562 0.750956476 0.000000000
0.995161295 0.736391842 0.000000000
0.056580499 0.777333260 0.000000000
0.145063773 0.830835938 0.000000000
0.245415062 0.878564239 0.000000000
0.378006518 0.911099494 0.000000000
0.547488451 0.921183586 0.000000000
0.742988110 0.909413874 0.000000000
0.944026411 0.891730309 0.000000000
0.995161295 0.872070670 0.000000000
0.297953457 0.000000000 0.009146953
0.328409702 0.000000000 0.006451614
0.378533244 0.000000000 0.006462837
0.468430132 0.000000000 0.006451614
0.590053558 0.000000000 0.006451614
0.731797695 0.000000000 0.006451614
0.882398903 0.000000000 0.006451614
0.995161295 0.000000000 0.006451614
0.187799633 0.082484409 0.006451614
0.272739619 0.092004694 0.006451614
0.322594553 0.103139892 0.006451614
0.413183242 0.104411751 0.006451614
0.536329389 0.097912960 0.006451614
0.680304587 0.086582214 0.006451614
0.833884239 0.073987417 0.006451614
0.992139518 0.060627185 0.006451614
0.124014542 0.169230163 0.006451614
0.229815289 0.193659708 0.006451614
0.313375294 0.206134945 0.006451614
0.388998806 0.214435920 0.006451614
0.513167143 0.214190394 0.006451614
0.662714124 0.208400086 0.006451614
0.821680307 0.200956121 0.006451614
0.991020977 0.191901788 0.006451614
0.067349710 0.247382879 0.006451614
0.184107736 0.296631128 0.006451614
0.278993309 0.335027665 0.006451614
0.415701032 0.335473090 0.006451614
0.533234894 0.338106453 0.006451614
0.663370669 0.342445999 0.006451614
0.819085121 0.340190470 0.006451614
0.989279091 0.334250778 0.006451614
0.021131082 0.349894047 0.006451614
0.138989285 0.409025520 0.006451614
0.252034605 0.465202868 0.006451614
0.391859382 0.485137939 0.006451614
0.562775552 0.478061587 0.006451614
0.712816298 0.474599749 0.006451614
0.843648851 0.479397684 0.006451614
0.991771996 0.479809731 0.006451614
0.001704461 0.480131567 0.006451614
0.109216854 0.535785377 0.006451614
0.229163855 0.595693111 0.006451614
0.371385485 0.634541333 0.006451614
0.548777759 0.634309530 0.006451614
0.738160729 0.622325480 0.006451614
0.903542876 0.614395618 0.006451614
0.995161295 0.614015400 0.006451614
0.000000000 0.614128351 0.006451614
0.100170575 0.670242310 0.006451614
0.219974697 0.727791607 0.006451614
0.362207472 0.770478010 0.006451614
0.535717070 0.784305751 0.006451614
0.732685387 0.772222221 0.006451614
0.926974535 0.756111741 0.006451614
0.995161295 0.742217898 0.006451614
0.000000000 0.745437264 0.006451614
0.096828520 0.800326347 0.006451614
0.214993656 0.854865789 0.006451614
0.357469976 0.896725237 0.006451614
0.526877046 0.919731259 0.006451614
0.720691741 0.913812280 0.006451614
0.923495352 0.896573901 0.006451614
0.995161295 0.876839519 0.006451614
0.281844944 0.000000000 0.285739630
0.320087671 0.000000000 0.240410358
0.366061032 0.000000000 0.236984253
0.455890685 0.000000000 0.233767956
0.577522278 0.000000000 0.222029999
0.719290316 0.000000000 0.204759926
0.870147228 0.000000000 0.185708225
0.995161295 0.000000000 0.164808467
0.163335219 0.053251516 0.222468019
0.254378766 0.070141748 0.210031763
0.310304940 0.087123170 0.184730798
0.401097506 0.088377818 0.182481259
0.524654984 0.082061291 0.172671005
0.669350147 0.071225673 0.158327997
0.823777556 0.059251897 0.142842606
0.989370525 0.046429895 0.126519665
0.052423444 0.149866506 0.117679253
0.159200713 0.181222200 0.145543456
0.278978944 0.196088254 0.156907424
0.373536915 0.201342210 0.158224896
0.502064943 0.200221553 0.153164327
0.652315676 0.195168108 0.144179225
0.811805248 0.188483417 0.133558229
0.981279016 0.179764643 0.120903581
0.000000000 0.230694234 0.014126512
0.097932331 0.274600863 0.060077656
0.249816567 0.315629035 0.131225199
0.382879525 0.327015966 0.132393375
0.496454716 0.332939327 0.150886804
0.646191001 0.332593203 0.142203003
0.808782220 0.328983396 0.134863049
0.980801523 0.322578371 0.124948099
0.000000000 0.320751756 0.012903227
0.046713740 0.367014140 0.014334137
0.210653603 0.433955193 0.095520973
0.358461499 0.474689305 0.117022321
0.530649066 0.470292360 0.111424506
0.671577752 0.470651805 0.146529123
0.812829137 0.475233078 0.141465589
0.979622126 0.472040176 0.127548516
0.000000000 0.441984922 0.012903227
0.012751793 0.478716761 0.012903227
0.171152517 0.550997078 0.059491746
0.338314712 0.610712469 0.117448136
0.514556408 0.626737058 0.085758165
0.706751049 0.615276039 0.093122974
0.865627766 0.609770834 0.130677387
0.992415905 0.611264050 0.139529452
0.000000000 0.572113872 0.012903227
0.009406004 0.614321411 0.012903227
0.152529359 0.675877094 0.044340059
0.323047221 0.735769689 0.111247756
0.502263069 0.771283448 0.101216465
0.699221313 0.764958858 0.066962354
0.895353973 0.748847067 0.076445095
0.995161295 0.736069024 0.108296834
0.000000000 0.701140642 0.012903227
0.010391744 0.746212006 0.012903227
0.147083685 0.803861439 0.042365782
0.313522816 0.857467055 0.107323997
0.491648406 0.895704627 0.116097443
0.685999691 0.904719830 0.068870194
0.890165806 0.888953388 0.047784515
0.995161295 0.869083941 0.056513932
0.277710259 0.000000000 0.440166861
0.323384672 0.000000000 0.387668878
0.369027674 0.000000000 0.361765742
0.456272751 0.000000000 0.353948116
0.577833772 0.000000000 0.342128932
0.719748437 0.000000000 0.325010002
0.870797396 0.000000000 0.306150794
0.995161295 0.000000000 0.285459250
0.155707061 0.036169477 0.381349564
0.244824350 0.057085011 0.359048575
0.314310104 0.080802880 0.315476865
0.401993841 0.085769951 0.303176701
0.525631249 0.079540282 0.293442726
0.670827389 0.069198534 0.279591471
0.825888872 0.057859354 0.264747918
0.991002262 0.045668624 0.249058470
0.029831076 0.126692623 0.285202086
0.139737725 0.156994388 0.309204280
0.272076279 0.185693815 0.308573067
0.375906557 0.199985027 0.280589759
0.504845977 0.199053764 0.276154459
0.655774057 0.194451690 0.268042713
0.816008627 0.188282937 0.258368075
0.985910177 0.179769650 0.246351913
0.000000000 0.217328280 0.167527661
0.034203675 0.263101608 0.209794909
0.189043581 0.313036650 0.256222695
0.363324493 0.331818044 0.271510452
0.495329559 0.334179759 0.269935995
0.649217367 0.332763791 0.264583826
0.812414706 0.329776943 0.257661581
0.984747469 0.323915660 0.247863919
0.000000000 0.316013962 0.058816396
0.006451614 0.356126875 0.100670852
0.129081130 0.416527301 0.172072232
0.340371460 0.466376036 0.252028883
0.511338890 0.475334615 0.250775486
0.648194551 0.478870362 0.266882122
0.808960557 0.478692502 0.258366883
0.982469618 0.473983049 0.249915943
0.000000000 0.434503943 0.019354852
0.006451614 0.451869130 0.026270866
0.079374745 0.509483635 0.109933749
0.303959131 0.586497188 0.219088033
0.493755460 0.628887773 0.242243513
0.687320948 0.620207071 0.232356474
0.836828649 0.618265688 0.265172035
0.986711323 0.619463921 0.256720364
0.000000000 0.558281302 0.019354852
0.006451614 0.577677369 0.019996420
0.051734462 0.617414594 0.079298899
0.268687189 0.694728315 0.187282100
0.478877634 0.757138252 0.247935861
0.676995277 0.769370079 0.212451711
0.875811517 0.753666759 0.215572819
0.995161295 0.743505180 0.248478130
0.000000000 0.681066036 0.019354852
0.006451614 0.706409872 0.019977713
0.053873800 0.748387814 0.081699640
0.248898864 0.808368206 0.170963034
0.460262686 0.868776321 0.238382697
0.664235175 0.903388917 0.227459565
0.868958354 0.893954694 0.190095931
0.995161295 0.874329805 0.196065739
0.275090456 0.000000000 0.576941729
0.324730366 0.000000000 0.521723568
0.375629187 0.000000000 0.480747581
0.459571093 0.000000000 0.458651543
0.579518497 0.000000000 0.444451362
0.721671760 0.000000000 0.427558690
0.872952759 0.000000000 0.408934981
0.995161295 0.000000000 0.388498396
0.152349845 0.025084719 0.520337284
0.236129984 0.044886295 0.489743143
0.316116810 0.070524231 0.442058057
0.406838536 0.083146140 0.410673946
0.528452814 0.078853913 0.396880120
0.673981547 0.068848751 0.383378237
0.829578102 0.058044057 0.369065970
0.991763592 0.046350393 0.353868008
0.022188351 0.109750643 0.434278816
0.126622006 0.134422794 0.443426073
0.259601235 0.169709638 0.435485661
0.382596970 0.196360111 0.394857794
0.509486794 0.200195819 0.381420493
0.660522819 0.195695683 0.373423606
0.820990503 0.189757213 0.363980502
0.990726709 0.181478113 0.352197856
0.000000000 0.202991977 0.325126469
0.012767695 0.234961793 0.353176326
0.164371252 0.283588886 0.395499855
0.356967926 0.321960568 0.404540718
0.500859201 0.335976750 0.376292080
0.654815078 0.334408939 0.371209443
0.818305373 0.331493199 0.364794701
0.990885377 0.326003373 0.355796605
0.000000000 0.314305663 0.218903765
0.006451614 0.339706004 0.240799502
0.060816463 0.400504410 0.298090070
0.276658386 0.460834265 0.354920387
0.494029462 0.482390881 0.372971475
0.649034977 0.482091039 0.368735880
0.813661039 0.480533510 0.363242507
0.987667620 0.476345569 0.355124652
0.000000000 0.435555786 0.131250620
0.006451614 0.443885505 0.138541952
0.012903227 0.491683513 0.188086271
0.214472830 0.561157227 0.268543959
0.474572361 0.619470119 0.356979012
0.669144690 0.626376808 0.353671849
0.814192712 0.627233028 0.367093474
0.983573079 0.623650193 0.355174661
0.000000000 0.557045400 0.072138235
0.006451614 0.564834177 0.086840540
0.012903227 0.580071807 0.117138267
0.164880782 0.641194105 0.206530333
0.439163417 0.727564096 0.325041026
0.656356633 0.771686137 0.349932253
0.856667995 0.758878350 0.335917383
0.993170619 0.752530456 0.364331096
0.000000000 0.675189734 0.036452666
0.006451614 0.685694158 0.062486161
0.012903227 0.700646341 0.103422157
0.134568200 0.736361563 0.173215896
0.397929847 0.819758713 0.287279278
0.638858736 0.887243211 0.353004366
0.847459316 0.899087310 0.317137718
0.995161295 0.880234420 0.317101836
0.273776650 0.000000000 0.701784730
0.325800955 0.000000000 0.645592153
0.381797612 0.000000000 0.595361650
0.466770917 0.000000000 0.559516668
0.583188593 0.000000000 0.535845876
0.724577487 0.000000000 0.517862618
0.876138568 0.000000000 0.499512970
0.995161295 0.000000000 0.479467928
0.154444426 0.020785462 0.649846971
0.232180744 0.037429243 0.611955762
0.315057486 0.060414396 0.560484290
0.413401455 0.076538734 0.516365767
0.533903182 0.078508310 0.490500480
0.678326011 0.069687210 0.475111544
0.834453583 0.059410427 0.461319804
0.992234945 0.048176881 0.446584165
0.028732160 0.106807932 0.577347636
0.122444145 0.122507691 0.568360209
0.247815818 0.154419959 0.549869657
0.384344101 0.186011031 0.508137822
0.517622828 0.200857773 0.478974730
0.666679084 0.198346481 0.466965199
0.827078402 0.192342624 0.457450360
0.991682231 0.184357435 0.445962846
0.000000000 0.202685580 0.481198579
0.006451614 0.217012897 0.488010466
0.146337256 0.256105959 0.511580110
0.341367513 0.302856505 0.515105009
0.509523928 0.334331959 0.479296356
0.661857903 0.337949812 0.465644658
0.825035751 0.334724247 0.458918929
0.991729856 0.329467505 0.450156510
0.000000000 0.315594941 0.378906429
0.006451614 0.324382573 0.384180069
0.030210126 0.365752399 0.421626419
0.245254979 0.424667180 0.474238604
0.486939222 0.471793264 0.492038071
0.656204522 0.485538572 0.463496864
0.820378542 0.483298957 0.457751542
0.991414249 0.479192764 0.450150609
0.000000000 0.437891930 0.284607857
0.006451614 0.443126738 0.286337912
0.012903227 0.470632851 0.310338676
0.140366495 0.539271176 0.375470847
0.406722963 0.609814048 0.442511052
0.652519643 0.634112716 0.463316709
0.815352619 0.630762219 0.456030369
0.988477051 0.625707328 0.447030514
0.000000000 0.559706509 0.209169403
0.006451614 0.564529955 0.211874753
0.012903227 0.567187011 0.213494256
0.052164614 0.615147769 0.263205498
0.340393543 0.692940593 0.351988614
0.634562016 0.759669483 0.448832601
0.838347077 0.764915287 0.443860829
0.990614653 0.761575580 0.453090161
0.000000000 0.676146388 0.150143042
0.006451614 0.680561721 0.157380879
0.012903227 0.680981219 0.164714858
0.020634247 0.687687814 0.186479926
0.281331003 0.753434360 0.280496061
0.593164861 0.851693392 0.410896152
0.826885164 0.901476085 0.441447228
0.995161295 0.885903001 0.424678624
0.273911893 0.000000000 0.807884872
0.327513903 0.000000000 0.751320839
0.387709141 0.000000000 0.695678532
0.475618720 0.000000000 0.649076939
0.591435492 0.000000000 0.614931703
0.729544818 0.000000000 0.590166450
0.880743623 0.000000000 0.571303427
0.995161295 0.000000000 0.551749527
0.157257095 0.018055016 0.759217024
0.232444108 0.034190055 0.718181610
0.316159517 0.054413512 0.664180577
0.419782788 0.069979958 0.610989690
0.542999744 0.075924262 0.573060095
0.685130835 0.071652122 0.549436867
0.840928257 0.062386341 0.534988999
0.992850780 0.051648021 0.520747066
0.037967544 0.106924377 0.698411882
0.129521728 0.123193651 0.682651043
0.244891211 0.147987679 0.652896464
0.383484483 0.176108509 0.606562614
0.526511788 0.196576595 0.566787779
0.675847471 0.201723918 0.544103980
0.834790945 0.196553186 0.532352686
0.992387831 0.188791767 0.521091104
0.000000000 0.205957323 0.615833402
0.015302154 0.220712632 0.617527127
0.142598450 0.244621411 0.616739511
0.327211529 0.285188794 0.606913149
0.511142313 0.323854268 0.572250247
0.672579646 0.341204524 0.545589209
0.833788931 0.339974821 0.534859598
0.992505729 0.334546596 0.525924921
0.000000000 0.319336355 0.520341814
0.006451614 0.329582095 0.525562525
0.021440474 0.345950127 0.534398794
0.221680805 0.391648471 0.564573288
0.467670888 0.449020058 0.578734159
0.666228890 0.485231519 0.547656596
0.829408109 0.488826036 0.533981442
0.992191494 0.484196275 0.525847256
0.000000000 0.441237658 0.426366061
0.006451614 0.448254913 0.429986537
0.012903227 0.453926027 0.432144076
0.099383749 0.497711062 0.472003371
0.368060946 0.566373646 0.534354448
0.643809140 0.621901572 0.560558021
0.823594451 0.635282755 0.531670392
0.991578341 0.629399538 0.522281826
0.000000000 0.563498437 0.345162660
0.006451614 0.568393528 0.346556515
0.012903227 0.566744328 0.341414750
0.019354852 0.589132667 0.360289246
0.259805799 0.664575219 0.432229489
0.561883986 0.745164573 0.509325802
0.822371840 0.773301065 0.533950388
0.991212249 0.765740275 0.522453845
0.000000000 0.679906428 0.273526639
0.006451614 0.682660818 0.273641914
0.012903227 0.679075420 0.267952144
0.019354852 0.670060992 0.257900864
0.159706607 0.719330370 0.308915734
0.485692382 0.808374524 0.408942401
0.803426743 0.887785316 0.518476129
0.993609786 0.892908514 0.513391614
0.275113046 0.000000000 0.900205612
0.329795063 0.000000000 0.843481064
0.393301904 0.000000000 0.784634471
0.484686226 0.000000000 0.730291605
0.601739943 0.000000000 0.686584651
0.738540471 0.000000000 0.653772891
0.886955559 0.000000000 0.629930913
0.995161295 0.000000000 0.610458016
0.160407290 0.016212614 0.853782296
0.233807549 0.032041885 0.810653627
0.318266124 0.050560378 0.755452216
0.426104724 0.064988606 0.696864605
0.553087473 0.072529398 0.649031520
0.695897341 0.072345152 0.616216004
0.849161208 0.066361062 0.595728040
0.993591487 0.056280185 0.581232846
0.046877477 0.107670963 0.802023351
0.136648208 0.124781139 0.781486452
0.248226181 0.147819892 0.747359633
0.386095196 0.171609536 0.696919143
0.534264505 0.191390932 0.647943318
0.687290847 0.201483116 0.614166617
0.844510734 0.201434121 0.594768703
0.993216932 0.194397151 0.582548261
0.000000000 0.210076615 0.731897295
0.026942069 0.227363557 0.730280221
0.154886857 0.250527143 0.721409440
0.324966818 0.279442757 0.695781708
0.509168088 0.312831223 0.654718041
0.682108581 0.337557554 0.619197726
0.845176935 0.345559657 0.599369645
0.993396461 0.340705365 0.587934315
0.000000000 0.324796617 0.645421565
0.006451614 0.338574708 0.651070833
0.035016283 0.354913533 0.654342353
0.217004910 0.379222989 0.653955221
0.449508369 0.427361101 0.651685297
0.666291475 0.473201901 0.624208987
0.841591537 0.493543148 0.600538552
0.993129969 0.490795463 0.588289380
0.000000000 0.446313620 0.555002034
0.006451614 0.456047863 0.560625851
0.012903227 0.463411957 0.562970340
0.085528478 0.474893987 0.566913188
0.337454349 0.526311636 0.602822185
0.619400740 0.593989372 0.627269924
0.833717585 0.635094225 0.601082325
0.992470562 0.635403156 0.584135056
0.000000000 0.567826748 0.472952843
0.006451614 0.573896050 0.475646973
0.012903227 0.574349821 0.472694218
0.019354852 0.569575012 0.464405447
0.210348710 0.614545643 0.505445361
0.514752686 0.693261325 0.577857792
0.811403155 0.758819938 0.614091039
0.992020309 0.770700097 0.583698511
0.000000000 0.684031665 0.395898730
0.006451614 0.687013507 0.395377785
0.012903227 0.683579028 0.388440639
0.019354852 0.669138253 0.370497406
0.091194034 0.687579274 0.385430723
0.398576885 0.773462832 0.467813730
0.726352155 0.868893504 0.559728980
0.992167592 0.902014732 0.589350224
