Desert Affinity Presets/Desert Affinity Preset #23.cube
TITLE "32x32x32 Adobe/IRIDAS cube 3D LUT exported with GrossGrade v0.1.027.1 (beta) 64 bit"
LUT_3D_SIZE 5
DOMAIN_MIN 0.000000 0.000000 0.000000
DOMAIN_MAX 0.903226 0.903226 0.903226
0.002087435 0.001710532 0.002957198
0.178811818 0.030944442 0.021093678
0.371162713 0.027166111 0.018500233
0.512011588 0.027301697 0.002811304
0.653758585 0.021244198 0.000000000
0.075172402 0.134264410 0.026406668
0.225069612 0.175174594 0.023513561
0.404306054 0.185197771 0.001919558
0.584698677 0.201562330 0.000000000
0.749781966 0.211227462 0.000000000
0.086649090 0.312897682 0.035252098
0.213331684 0.357802153 0.028002195
0.374262273 0.408241272 0.023269935
0.582701087 0.447158992 0.000000000
0.777443826 0.487116426 0.000000000
0.019618355 0.534589946 0.063613422
0.188506782 0.578019857 0.027737526
0.356009603 0.648284078 0.008301106
0.531287193 0.719811380 0.017518256
0.708637893 0.770082474 0.072356410
0.012443729 0.787700176 0.159438640
0.150991470 0.819470882 0.125646189
0.304084480 0.881143212 0.128746063
0.485197663 0.930893064 0.158223808
0.639356375 0.938300133 0.254175156
0.006739741 0.009925581 0.137133598
0.146202862 0.028126553 0.048687819
0.340493590 0.033410184 0.032417636
0.495317459 0.027358305 0.016448120
0.646082401 0.021075901 0.011290320
0.001736726 0.137851968 0.148987591
0.226667389 0.139331326 0.099438533
0.395204663 0.180954292 0.015324448
0.568910062 0.200007543 0.011290320
0.738670647 0.208307892 0.011290320
0.056348596 0.299733996 0.120710120
0.212783083 0.329935700 0.095322669
0.388824016 0.409816295 0.064683087
0.615844309 0.449002713 0.011290320
0.806986570 0.484719098 0.011290320
0.008546163 0.536021352 0.197693944
0.180139855 0.536071479 0.141824260
0.358585149 0.619719148 0.140551686
0.548420668 0.716900527 0.117012545
0.741416812 0.773302138 0.106255554
0.006191690 0.791176856 0.289575160
0.139189869 0.799223602 0.244375691
0.302434534 0.848813415 0.237326235
0.498097867 0.917773545 0.257206172
0.663274944 0.938231826 0.308017552
0.017547224 0.010214593 0.241758540
0.023571782 0.020971643 0.210510567
0.315943092 0.012094396 0.129322514
0.498037517 0.011227905 0.092801020
0.674585044 0.002497534 0.058673967
0.000067337 0.149487853 0.271307707
0.149186403 0.141792238 0.177565426
0.361686409 0.157318771 0.145227417
0.568180561 0.175254717 0.120838851
0.758978665 0.181522295 0.105561204
0.000000000 0.332817882 0.273151726
0.149966359 0.300680250 0.282351911
0.446383476 0.310644060 0.343580127
0.636768699 0.403046042 0.173344195
0.822832704 0.451074779 0.172675312
0.000000000 0.542399406 0.327761859
0.166180626 0.525811493 0.272729397
0.386127979 0.575727999 0.291296631
0.584788322 0.688061178 0.315402538
0.803309083 0.750695288 0.303085446
0.000032733 0.795309603 0.420116931
0.099043950 0.809699178 0.409026414
0.313538134 0.818143308 0.382540971
0.520985246 0.888618171 0.412174433
0.704068542 0.936978400 0.439599544
0.054860629 0.000144962 0.365249276
0.068208896 0.000210428 0.371543765
0.275075108 0.000000000 0.274151951
0.468208134 0.002750524 0.248347789
0.680649698 0.000000000 0.254294366
0.003240103 0.130638838 0.388829827
0.011892144 0.145099446 0.361712724
0.299174547 0.146117225 0.289590299
0.546781600 0.136685222 0.303458899
0.773304343 0.111655556 0.330748349
0.000000000 0.315220147 0.404941410
0.014284927 0.340054035 0.418243170
0.339150876 0.334706843 0.372655898
0.599507868 0.365881085 0.391114473
0.824341118 0.406653464 0.427369535
0.000000000 0.541155517 0.477055967
0.011807503 0.571193218 0.493925899
0.330468684 0.577159464 0.471068889
0.617400110 0.592627347 0.609291017
0.842550337 0.671623886 0.541784883
0.000000000 0.793964505 0.566781878
0.011290320 0.822944820 0.588158131
0.275305122 0.813168228 0.565497279
0.529921472 0.838457584 0.590666175
0.763085306 0.934791327 0.659373105
0.085092396 0.000000000 0.470412135
0.102147982 0.000000000 0.488046020
0.113227367 0.000000000 0.481361657
0.434271723 0.000000000 0.421782583
0.646281004 0.000000000 0.434466153
0.019486960 0.103475094 0.500740230
0.029323416 0.117054276 0.505150735
0.133694708 0.118150517 0.490406275
0.508235157 0.100729801 0.482890159
0.737079859 0.098391481 0.519809544
0.000260929 0.295732468 0.567357421
0.011290320 0.318802565 0.563678503
0.137979314 0.336167186 0.574014485
0.535939813 0.359813631 0.577403665
0.778977513 0.399440855 0.622105896
0.000000000 0.531658888 0.633114040
0.011290320 0.561884999 0.663302779
0.069073327 0.590916514 0.689717233
0.514974117 0.614148319 0.700186014
0.774820089 0.643760324 0.721106827
0.000000000 0.785129368 0.723615587
0.011290320 0.810861170 0.746808708
0.027723018 0.835738540 0.773830116
0.448042065 0.858239174 0.785254955
0.749084532 0.915348768 0.861155450
