Desert Affinity Presets/Desert Affinity Preset #23.cube
TITLE "32x32x32 Adobe/IRIDAS cube 3D LUT exported with GrossGrade v0.1.027.1 (beta) 64 bit"
LUT_3D_SIZE 8
DOMAIN_MIN 0.000000 0.000000 0.000000
DOMAIN_MAX 0.903226 0.903226 0.903226
0.002087435 0.001710532 0.002957198
0.109994099 0.022474978 0.016001783
0.206053883 0.033211421 0.022421716
0.319538176 0.032275230 0.021547228
0.417153686 0.022924364 0.014477384
0.494015336 0.025577128 0.005199880
0.571633220 0.026921060 0.000107084
0.653758585 0.021244198 0.000000000
0.055929121 0.076613054 0.018454399
0.131116331 0.093890078 0.021348955
0.249979094 0.105050825 0.021583728
0.355889201 0.107826665 0.014562490
0.445558399 0.111814059 0.005040426
0.534442246 0.119922034 0.000066869
0.624390602 0.123796046 0.000000000
0.707862973 0.113451496 0.000000000
0.081546992 0.155890808 0.028793385
0.153358296 0.181542799 0.033472374
0.250665635 0.202162206 0.020502098
0.354661584 0.208589554 0.002009347
0.453907967 0.218313769 0.000049100
0.561612666 0.228429615 0.000000000
0.665407002 0.235204786 0.000000000
0.760159194 0.247653261 0.000000000
0.094943717 0.257293135 0.036823317
0.162812948 0.281828612 0.034126565
0.238976225 0.307358563 0.032021370
0.330352485 0.330427200 0.021094607
0.454049587 0.352180958 0.000203413
0.564783692 0.366344512 0.000000000
0.675037324 0.380774826 0.000000000
0.777130008 0.403930306 0.000000000
0.072703876 0.369647503 0.032454804
0.142937228 0.395439595 0.026263615
0.225154892 0.425301731 0.022258036
0.317456752 0.460467577 0.018511014
0.421552956 0.492357016 0.015576734
0.532479107 0.520801187 0.010281928
0.653321743 0.548267961 0.000538692
0.770586789 0.571365595 0.000000000
0.036782172 0.500004470 0.051476508
0.132642776 0.520190120 0.034700766
0.210833490 0.553780794 0.020117730
0.310670197 0.592351198 0.008317932
0.407310575 0.633546472 0.002159447
0.511335731 0.673144400 0.011032001
0.614702284 0.705217242 0.032783579
0.718891203 0.733555496 0.062822238
0.016668618 0.637550175 0.093024857
0.113090500 0.659551740 0.064531341
0.204568952 0.696143627 0.047533542
0.291281879 0.737477481 0.033193205
0.392186999 0.778772473 0.024885084
0.488459438 0.815943599 0.046405178
0.582912803 0.845760822 0.076344207
0.676823139 0.870555282 0.102608658
0.012443729 0.787700176 0.159438640
0.066499479 0.805977285 0.138559386
0.177695513 0.826740384 0.125047043
0.262204617 0.862406373 0.126997456
0.358621389 0.899565458 0.130824924
0.460001469 0.928123891 0.144077763
0.555074453 0.931347072 0.224483818
0.639356375 0.938300133 0.254175156
0.004231450 0.008029886 0.088706538
0.088365674 0.020571796 0.030655837
0.183951855 0.033632778 0.027794527
0.295005977 0.036213033 0.028943412
0.396752775 0.027101122 0.022804126
0.477665097 0.026812114 0.013751552
0.556423604 0.029708050 0.006746210
0.643055320 0.024835026 0.006451614
0.020843927 0.075232655 0.075525366
0.133768320 0.080517203 0.048028667
0.234954745 0.102847621 0.028254632
0.334981203 0.108539559 0.023099657
0.423857868 0.112880714 0.013930183
0.511177361 0.121193312 0.006986099
0.607386172 0.127241760 0.006451614
0.694369793 0.119261965 0.006451614
0.078194611 0.148062080 0.057483390
0.156080708 0.173066288 0.051857077
0.254046410 0.203252301 0.027659368
0.362309724 0.208995298 0.008199089
0.461664647 0.217416748 0.006472657
0.567621410 0.226854846 0.006451614
0.667170167 0.233514756 0.006451614
0.759610534 0.246232286 0.006451614
0.090615384 0.247707248 0.067686282
0.165301666 0.271885395 0.058969025
0.241883561 0.303893656 0.047099974
0.335901499 0.334339887 0.027275443
0.465820760 0.355520308 0.006451614
0.579096437 0.367205858 0.006451614
0.689701319 0.381425172 0.006451614
0.789397061 0.403691679 0.006451614
0.065649405 0.356808871 0.083952256
0.141546488 0.377201408 0.070404544
0.225346833 0.413237303 0.059926197
0.323284686 0.459039211 0.041206166
0.431195706 0.497081101 0.022593712
0.545880556 0.526056826 0.014851833
0.671309710 0.551645100 0.006604992
0.786957324 0.573118746 0.006451614
0.020299656 0.497872144 0.130603701
0.124727249 0.496785372 0.094817832
0.204450384 0.533134699 0.087925084
0.310642093 0.578275502 0.073203683
0.415302843 0.632212579 0.046021216
0.522052050 0.677563846 0.026788205
0.628277779 0.710168123 0.043482538
0.735800564 0.737304807 0.071749851
0.009994810 0.640235186 0.178440362
0.096950181 0.639721215 0.141880959
0.194951355 0.667075455 0.128805414
0.281083733 0.711525917 0.124785230
0.390081406 0.761426032 0.119698197
0.494187295 0.809875071 0.111929350
0.593693197 0.847077310 0.104404576
0.691479564 0.873658895 0.116572306
0.009990091 0.789088964 0.235528901
0.044336859 0.811265588 0.225755066
0.168822318 0.805214763 0.184749708
0.257615745 0.843226314 0.188998520
0.358234078 0.883322656 0.193191081
0.465177864 0.919903576 0.201133654
0.563944280 0.928646684 0.260992467
0.651401758 0.938746810 0.275704116
0.007289652 0.011160116 0.147967994
0.011549554 0.019816617 0.118057735
0.167242587 0.028983243 0.057876136
0.281770527 0.035779145 0.045641441
0.389594555 0.028488539 0.030840471
0.475483119 0.026149966 0.020533780
0.558121800 0.027034240 0.013191749
0.649654508 0.018383369 0.012903227
0.001519748 0.080815978 0.176053286
0.082938902 0.075089566 0.108943835
0.210292175 0.090844005 0.079359308
0.317286879 0.107547879 0.043807466
0.411289811 0.112598322 0.024227923
0.500560820 0.120025851 0.013871661
0.601953387 0.125586525 0.012903227
0.695200741 0.114639521 0.012903227
0.004542416 0.159168467 0.174467683
0.135216698 0.140204206 0.125722796
0.254272312 0.157482803 0.118895397
0.353456020 0.199439168 0.035290763
0.448158264 0.213098869 0.013968467
0.552649260 0.224101707 0.012903227
0.657432437 0.231130615 0.012903227
0.753385186 0.241562650 0.012903227
0.042808756 0.255196571 0.136002034
0.156154290 0.238214925 0.124464795
0.246883571 0.256657243 0.129986063
0.342613637 0.326903522 0.074774317
0.484409958 0.353880435 0.013303973
0.597599804 0.362083882 0.012903227
0.704254270 0.375794381 0.012903227
0.801340103 0.397697568 0.012903227
0.023334946 0.370084763 0.162655637
0.135898098 0.357700884 0.120531082
0.225191295 0.388564706 0.118440464
0.323877424 0.436889231 0.115085714
0.440382868 0.489577264 0.090076536
0.567197561 0.526011825 0.043842029
0.699959397 0.549906611 0.014639019
0.810965359 0.568991005 0.012903227
0.006238930 0.505728126 0.206393391
0.118988462 0.482568443 0.154217407
0.205754176 0.509979248 0.148073196
0.309005797 0.553564131 0.149214610
0.420297325 0.613202631 0.145925522
0.531532526 0.668309748 0.128881022
0.646554649 0.707548916 0.111845650
0.762020886 0.736041367 0.101738691
0.000613979 0.644088507 0.252541065
0.087138534 0.638375700 0.216105103
0.192501426 0.645976603 0.190494999
0.281065762 0.688247383 0.194778323
0.396931052 0.741734028 0.201666266
0.504295349 0.795652509 0.202728450
0.605181396 0.838045418 0.191929594
0.711332560 0.869991899 0.187029570
0.004686900 0.792019665 0.307657987
0.039625645 0.810553133 0.299778908
0.165308699 0.799762785 0.256272376
0.256646395 0.822822094 0.248283282
0.364111781 0.864797890 0.258506298
0.475228488 0.907836735 0.267414749
0.574678063 0.925099492 0.309299499
0.668529034 0.938250422 0.321882427
0.012337076 0.012325389 0.207835019
0.015562627 0.019672114 0.195596546
0.131739095 0.015325177 0.116047859
0.267969906 0.021321379 0.103828117
0.384015560 0.016364217 0.081787527
0.477611363 0.019210115 0.057014231
0.568572879 0.019228337 0.033330001
0.666579127 0.006829061 0.021015814
0.001485143 0.086782321 0.227606684
0.026462257 0.090415694 0.173333377
0.171501070 0.090638697 0.125738457
0.293310940 0.095918976 0.110258766
0.402039587 0.103175074 0.086672232
0.506600678 0.110851824 0.061657641
0.614658952 0.112909317 0.040822577
0.713688433 0.094486281 0.027942579
0.000000000 0.171148911 0.223226562
0.057108335 0.158969253 0.224463224
0.207352787 0.149304792 0.174195081
0.328158647 0.174297005 0.130803585
0.433418542 0.197304502 0.097086936
0.547353387 0.210085869 0.076306634
0.659179330 0.217596218 0.058528360
0.761142671 0.229076117 0.047754493
0.000746316 0.278910726 0.229086667
0.059587196 0.256125450 0.251152694
0.228288546 0.225566179 0.228557214
0.376732856 0.249693185 0.243599877
0.489583105 0.301847458 0.151353538
0.592277646 0.336392224 0.091389537
0.702071130 0.355774432 0.075702906
0.802578032 0.381451517 0.073277369
0.000455925 0.385765374 0.246700063
0.096455403 0.364755392 0.198598653
0.235131785 0.352915168 0.217097983
0.360875279 0.366848588 0.271422118
0.476546735 0.454494238 0.228470311
0.600505471 0.508727074 0.147418290
0.736304045 0.531364620 0.094996087
0.838265121 0.551140189 0.093302920
0.000000000 0.510065794 0.279823780
0.087380446 0.497068912 0.242654055
0.210225001 0.494904310 0.211855531
0.323094934 0.529701948 0.222122431
0.436473131 0.588670850 0.240133658
0.552278757 0.653277397 0.241485819
0.675952971 0.695877433 0.233996645
0.800249815 0.722532392 0.210166037
0.000000000 0.646020532 0.325331300
0.049720980 0.654820859 0.310863763
0.191287935 0.634345889 0.262945145
0.298423260 0.666906595 0.268889099
0.414133698 0.717407942 0.288486093
0.524846673 0.774604321 0.303085923
0.628612220 0.823300242 0.297985345
0.742939472 0.859690964 0.293670684
0.000151507 0.795058608 0.382445306
0.013762775 0.816422999 0.385959774
0.157077551 0.801563919 0.346097976
0.259064883 0.808667123 0.328960717
0.375449181 0.843736827 0.341724247
0.489589483 0.887636125 0.356167436
0.589677513 0.918564498 0.380483389
0.692201197 0.937527418 0.394718945
0.024593256 0.007752594 0.277687848
0.027735580 0.012671426 0.274205714
0.030810077 0.016454875 0.249996647
0.247082815 0.003540782 0.169340730
0.358962268 0.006885635 0.157443926
0.468845129 0.001354215 0.139564708
0.573390841 0.001888699 0.126570314
0.679600596 0.000147299 0.113241993
0.003047445 0.083520211 0.297296643
0.008296354 0.092037782 0.279372662
0.111155972 0.085371479 0.217169479
0.253559709 0.092012972 0.180859208
0.378953964 0.089040413 0.168341279
0.503391027 0.086988516 0.156250969
0.619590521 0.073757835 0.146685734
0.729388595 0.039686900 0.137998462
0.000000000 0.167854086 0.307781816
0.007460257 0.179337174 0.276749700
0.158096194 0.163175821 0.221573904
0.289082646 0.171044514 0.193873987
0.417922854 0.181355461 0.188727811
0.544496715 0.186141446 0.183059856
0.662801027 0.190038636 0.179049700
0.774834037 0.205256969 0.180438310
0.000000000 0.271314830 0.299540818
0.008911269 0.285827607 0.299328297
0.165284470 0.259744585 0.248777583
0.313808620 0.261257350 0.241041541
0.455066621 0.288675487 0.224328831
0.579679668 0.306347489 0.218082383
0.696978390 0.328516364 0.219763070
0.804308355 0.357760072 0.231060386
0.000000000 0.387558818 0.321819156
0.007203536 0.403797388 0.322701752
0.157547742 0.375498652 0.301590472
0.340525359 0.359494537 0.388831884
0.507087648 0.388297111 0.432496995
0.644152761 0.431190938 0.351352513
0.735206723 0.491821915 0.273339421
0.838172078 0.520401120 0.286192387
0.000000000 0.512124598 0.358889252
0.012560546 0.527947903 0.360920519
0.173673391 0.500881016 0.310806751
0.341821492 0.506988883 0.358053744
0.478642523 0.526249945 0.464740515
0.610820651 0.594570696 0.475042433
0.712323487 0.675628483 0.359085411
0.839721620 0.695989668 0.338454932
0.000000000 0.646452844 0.404655755
0.007520117 0.667986751 0.413007706
0.162489071 0.646515846 0.372923702
0.308322847 0.659063280 0.364172935
0.436652124 0.697738349 0.388853818
0.540569246 0.747731686 0.416651487
0.649251580 0.801409483 0.418318421
0.777516842 0.844989121 0.417863637
0.000000000 0.794598043 0.459832460
0.006451614 0.814269722 0.469641805
0.098138250 0.813184023 0.457263947
0.258143395 0.805311501 0.431979477
0.386841297 0.828671515 0.441903353
0.501608968 0.865885496 0.460366189
0.603600681 0.906504393 0.475442946
0.717150390 0.936422348 0.489475608
0.049292743 0.000531679 0.349210501
0.057159346 0.000764083 0.353717387
0.062663533 0.001154543 0.352120310
0.211366355 0.000071077 0.281537265
0.333802879 0.000989473 0.230095640
0.441883117 0.008576065 0.226134807
0.567484558 0.000000000 0.227861732
0.681622088 0.000000000 0.226138771
0.008595724 0.068972237 0.360485911
0.013840400 0.076795928 0.359403789
0.024811983 0.082776710 0.330243558
0.213747948 0.072107591 0.270434082
0.346919358 0.088712536 0.246975556
0.486080885 0.064234838 0.248572901
0.619394541 0.015328830 0.253198117
0.736217618 0.009268993 0.261417329
0.000485851 0.155769765 0.376355678
0.006451614 0.165447623 0.351727366
0.056256332 0.169044092 0.336590171
0.245543391 0.164948553 0.283553869
0.388445318 0.179546788 0.278050810
0.527885318 0.173388019 0.286987662
0.657737911 0.155740663 0.294708878
0.782820165 0.172315076 0.313279271
0.000000000 0.259411365 0.376391917
0.006451614 0.272714168 0.375787973
0.051110223 0.278939158 0.368898660
0.264671415 0.267276257 0.323530048
0.418815047 0.286383629 0.320866734
0.558644235 0.294078916 0.332157403
0.694032609 0.308485925 0.347094834
0.812205434 0.333524972 0.367094338
0.000000000 0.380553365 0.402281791
0.006451614 0.396528035 0.412338018
0.038089931 0.408222198 0.414126426
0.263304174 0.395222813 0.372588158
0.432238996 0.411554694 0.378358454
0.573701620 0.435032904 0.391183376
0.719778955 0.458999276 0.401793122
0.832122862 0.489591211 0.424200505
0.000000000 0.510389984 0.445244610
0.006451614 0.527507901 0.453106284
0.040236723 0.539611518 0.455291659
0.254948348 0.528351545 0.421938360
0.439034969 0.540673852 0.509815991
0.597242177 0.552399635 0.575443447
0.745540977 0.586988628 0.561195552
0.841295421 0.648480713 0.479918569
0.000000000 0.649432063 0.490938872
0.006451614 0.669336915 0.502501011
0.044007145 0.681432307 0.507120192
0.247006789 0.667892277 0.479655921
0.438288718 0.683087051 0.519379258
0.552399755 0.684378028 0.621118844
0.718321443 0.735047579 0.703574538
0.814396620 0.814157903 0.566028953
0.000000000 0.793423772 0.544191360
0.006451614 0.810756028 0.555382431
0.020021280 0.825811028 0.566870630
0.219049096 0.809374034 0.539873600
0.385608763 0.818919837 0.542213440
0.505004585 0.838706911 0.555726111
0.612257600 0.876749158 0.582367122
0.746014237 0.936727762 0.603305638
0.068095505 0.000000000 0.409704536
0.077058248 0.000000000 0.417557806
0.084989391 0.000000000 0.422221780
0.090177968 0.000000000 0.409976602
0.310578257 0.000000000 0.334221750
0.425348908 0.000000000 0.317458928
0.544883490 0.000000000 0.325013787
0.670270979 0.000000000 0.335715622
0.021570586 0.048943818 0.421666294
0.026863962 0.055186924 0.426367402
0.029834207 0.061363656 0.419326454
0.123368286 0.039825778 0.390133947
0.317595065 0.059374917 0.344480485
0.468961269 0.047742538 0.347578317
0.597665668 0.009280685 0.354062021
0.728280187 0.006461434 0.377030313
0.006503593 0.142886728 0.441850334
0.011275532 0.151442021 0.438622594
0.015334353 0.160860062 0.422781557
0.157054275 0.155993849 0.401221335
0.358259529 0.167351931 0.377553612
0.504433811 0.169313267 0.391041517
0.633900702 0.154928029 0.404426783
0.772744060 0.144188672 0.430952370
0.000000000 0.247812420 0.466585904
0.006451614 0.260006368 0.449924916
0.012981785 0.273241818 0.459134638
0.166656390 0.272644937 0.444752932
0.381408721 0.280477405 0.428654492
0.528818011 0.295728713 0.442255795
0.664159358 0.309311509 0.462201089
0.800503671 0.321909517 0.490750402
0.000000000 0.371214837 0.484875530
0.006451614 0.386181474 0.497409105
0.012903227 0.400809586 0.508627176
0.152257591 0.401861906 0.496181428
0.382390559 0.411711156 0.494904459
0.537702382 0.435236096 0.501974702
0.683670044 0.453198254 0.520846605
0.815078020 0.475462556 0.547505379
0.000000000 0.502515376 0.529761136
0.006451614 0.518791914 0.542691469
0.012903227 0.535305023 0.555561662
0.113506883 0.545605063 0.556843579
0.367645502 0.556671977 0.552853346
0.528645754 0.572098374 0.563388169
0.667207956 0.587419450 0.575851381
0.814057469 0.613037884 0.595005631
0.000000000 0.644984066 0.581509590
0.006451614 0.663791239 0.595179915
0.012903227 0.681556463 0.609800339
0.093314841 0.693416774 0.614747465
0.341453254 0.698238015 0.604909301
0.514466941 0.704718769 0.621595085
0.672952890 0.724627733 0.718657732
0.832110524 0.747658908 0.746025860
0.000000000 0.795281589 0.634387136
0.006451614 0.811376870 0.647537827
0.012903227 0.826147556 0.661654830
0.055446334 0.836078346 0.671556115
0.299624562 0.828774452 0.655086875
0.491377801 0.835304618 0.663006485
0.616733491 0.853193104 0.774114490
0.801180840 0.936737537 0.846713305
0.085092396 0.000000000 0.470412135
0.095069863 0.000000000 0.481213063
0.104370147 0.000000000 0.489884436
0.111819170 0.000000000 0.492926389
0.185490653 0.000000000 0.457775146
0.402075768 0.000000000 0.421568573
0.530535698 0.000000000 0.426238447
0.646281004 0.000000000 0.434466153
0.054430876 0.028223323 0.485197902
0.059740532 0.030381389 0.493453950
0.061281290 0.034880295 0.496797383
0.058911365 0.039377831 0.478077054
0.280336171 0.019323196 0.457358867
0.454754591 0.012244437 0.446624070
0.582975805 0.007004336 0.457303733
0.704873264 0.007411160 0.478199840
0.017195614 0.127828613 0.508458912
0.023498030 0.136267826 0.516375542
0.025756069 0.146258220 0.498746246
0.043228902 0.153821439 0.504484892
0.284363508 0.150529876 0.488523781
0.476616830 0.143421561 0.491248250
0.610704541 0.144183531 0.506618857
0.745438337 0.155114010 0.534643829
0.003493550 0.235668644 0.547592342
0.007787122 0.247812212 0.533182383
0.013600904 0.260518819 0.540460169
0.027962241 0.272877663 0.551973403
0.303232133 0.271418035 0.537495077
0.493897200 0.283754468 0.543563008
0.634609580 0.300484419 0.558956504
0.772355139 0.323053181 0.593482733
0.000000000 0.359245926 0.572310150
0.006451614 0.373341382 0.580049694
0.012903227 0.387684941 0.594781458
0.020450469 0.402538002 0.606595695
0.296505839 0.410570353 0.603006124
0.492960483 0.428353131 0.611257970
0.647810102 0.446205109 0.617216945
0.781635642 0.473239332 0.649999559
0.000000000 0.494934708 0.618144274
0.006451614 0.512168527 0.637205958
0.012903227 0.528858900 0.652710736
0.020282593 0.545534015 0.668528676
0.256093740 0.559057891 0.670928836
0.480358630 0.574603081 0.682148039
0.635049939 0.585313678 0.686465859
0.778321981 0.609888017 0.705840826
0.000000000 0.641758740 0.676277816
0.006451614 0.658803463 0.691160142
0.012903227 0.674957275 0.705816329
0.019354852 0.690537155 0.721414924
0.189104438 0.704427481 0.729389310
0.458088785 0.715628982 0.736907959
0.608958066 0.728112459 0.749188066
0.757534683 0.744195223 0.768720150
0.000000000 0.785129368 0.723615587
0.006451614 0.800192177 0.736656845
0.012903227 0.814246655 0.750407279
0.019354852 0.828308880 0.765608490
0.107646294 0.842126489 0.777206242
0.399064571 0.854920447 0.782104671
0.571070313 0.869357646 0.796762884
0.749084532 0.915348768 0.861155450
