Desert Affinity Presets/Desert Affinity Preset #33.cube
TITLE "32x32x32 Adobe/IRIDAS cube 3D LUT exported with GrossGrade v0.1.027.1 (beta) 64 bit"
DOMAIN_MIN 0 0 0
DOMAIN_MAX 1 1 1
LUT_3D_SIZE 32
0.002087435 0.001710532 0.002957198
0.020242207 0.006741145 0.005606241
0.038616300 0.011844710 0.008252935
0.056953918 0.016622797 0.010588178
0.074654728 0.020206552 0.012318380
0.092167854 0.023326511 0.013851196
0.109194204 0.026788745 0.015608536
0.126514718 0.029131055 0.017121727
0.144625261 0.031629961 0.018573204
0.163845375 0.034231335 0.019954506
0.184962392 0.036450606 0.021252623
0.208142102 0.038422983 0.022386137
0.232933894 0.039820231 0.023065111
0.259700716 0.040468365 0.023190932
0.287526220 0.040514182 0.022792490
0.314858198 0.039335333 0.021877838
0.341692328 0.037457395 0.020613443
0.367631048 0.035094965 0.018895894
0.392549068 0.032589488 0.016747680
0.416398287 0.030788705 0.014505932
0.439373910 0.029509308 0.012136046
0.460967660 0.029481286 0.009573964
0.482175469 0.030008771 0.006955310
0.504000783 0.030721862 0.004272133
0.524913251 0.032401536 0.001563704
0.548739910 0.032167241 0.000456861
0.573875904 0.030597016 0.000102408
0.599152267 0.029088482 0.000007482
0.624568343 0.026875682 0.000000000
0.649515152 0.021518748 0.000000000
0.674243271 0.016689150 0.000000000
0.698974431 0.005189593 0.000000000
0.007163867 0.023941981 0.012383850
0.020063551 0.027772246 0.011039431
0.038549900 0.031576283 0.011011912
0.058159936 0.034959454 0.012822505
0.077119537 0.036794852 0.013878386
0.095928930 0.038826682 0.014941714
0.114165157 0.041187685 0.016231380
0.131984457 0.043510314 0.017625384
0.150476828 0.045814693 0.019105341
0.170604438 0.048285145 0.020473124
0.193058893 0.050710171 0.021773104
0.217487544 0.052942093 0.022854691
0.243590578 0.054720905 0.023314336
0.270877749 0.055987202 0.023117961
0.298416615 0.056379091 0.022259425
0.325121582 0.055720214 0.020906629
0.351226717 0.054703128 0.019241445
0.376215845 0.053435888 0.017019346
0.400159597 0.052440353 0.014697620
0.423011303 0.052178018 0.012348311
0.445329905 0.052361809 0.009806824
0.467352897 0.053174056 0.007177431
0.489959747 0.054062974 0.004623780
0.513316870 0.055037480 0.002075742
0.537446022 0.055549484 0.000525132
0.563022614 0.054821886 0.000140285
0.588660896 0.053691670 0.000018705
0.614395499 0.052646581 0.000000000
0.639541090 0.047573909 0.000000000
0.664435804 0.039168984 0.000000000
0.689793766 0.026526047 0.000000000
0.714912355 0.009763431 0.000000000
0.012244047 0.045089979 0.020256586
0.022370838 0.047724538 0.018980062
0.036273535 0.052229069 0.018122913
0.053563267 0.055497676 0.016680302
0.073124222 0.057740383 0.016536240
0.093177520 0.059445318 0.017356485
0.114054225 0.061252203 0.017841844
0.135014638 0.063355491 0.018434305
0.156056955 0.065874092 0.019561311
0.178249910 0.068507232 0.020859389
0.202527612 0.071213819 0.022008752
0.228830799 0.073746867 0.022864940
0.256520778 0.075834282 0.023180144
0.283907443 0.077118374 0.022674682
0.309603900 0.077480316 0.021275582
0.335556000 0.077232026 0.019488811
0.360614270 0.076726049 0.017337773
0.384721398 0.076172851 0.014949688
0.408304900 0.075888522 0.012577926
0.431403786 0.076102704 0.009950383
0.454222322 0.076582506 0.007255988
0.477292597 0.077351235 0.004724322
0.501070261 0.078233123 0.002375957
0.526153624 0.078972451 0.000638295
0.552794099 0.079138935 0.000076221
0.578850150 0.078699812 0.000005611
0.604634225 0.077994660 0.000000000
0.630151510 0.075795963 0.000000000
0.655139446 0.068772413 0.000000000
0.679949522 0.059384536 0.000000000
0.705303311 0.046601795 0.000000000
0.730995834 0.033007260 0.000000000
0.015661851 0.064464770 0.025936706
0.024193544 0.066555984 0.025507910
0.035241105 0.070340879 0.024929043
0.050311927 0.074396446 0.023123117
0.068664528 0.078124732 0.021458361
0.088539712 0.081588872 0.020648487
0.110040933 0.084087737 0.020735016
0.133388937 0.086103275 0.020448327
0.157781556 0.088358067 0.020321166
0.183255330 0.090953819 0.020783177
0.209822685 0.093529850 0.021631377
0.237416461 0.095775366 0.022117238
0.265763551 0.097637892 0.022043351
0.292620718 0.098705456 0.021081027
0.318083167 0.098942526 0.019275097
0.343555450 0.099035062 0.017147925
0.368255049 0.098913036 0.014683587
0.392441213 0.098888732 0.012274463
0.416476041 0.099143580 0.009740441
0.440090299 0.099742666 0.007040411
0.463740140 0.100619368 0.004567668
0.488073468 0.101685569 0.002587318
0.513095438 0.102853619 0.000857607
0.540428519 0.103792302 0.000093523
0.568662703 0.104210235 0.000000000
0.595290899 0.103820369 0.000000000
0.620953262 0.102595031 0.000000000
0.646281302 0.098639511 0.000000000
0.671530485 0.091960087 0.000000000
0.696920633 0.083576761 0.000000000
0.722811043 0.073956020 0.000000000
0.748782158 0.066136956 0.000000000
0.019039916 0.083050296 0.031690311
0.026857562 0.085106775 0.031391945
0.036253937 0.088121079 0.030443151
0.049237348 0.092554964 0.029101536
0.066215172 0.097102620 0.026766768
0.085038163 0.101467758 0.025570573
0.105813079 0.105930924 0.024829885
0.129350275 0.109813377 0.024366923
0.155331478 0.112574756 0.023644935
0.184207052 0.115213215 0.021769803
0.213310942 0.117695719 0.020741051
0.241701633 0.119545802 0.020635864
0.270084560 0.120898232 0.020009244
0.296555966 0.121458426 0.018618554
0.321977645 0.121623725 0.016562963
0.347601235 0.121916905 0.014243093
0.372885197 0.122277781 0.011779707
0.398386449 0.122715116 0.009407964
0.423305154 0.123436198 0.006976350
0.447756976 0.124386594 0.004298317
0.472857058 0.125692219 0.002242681
0.498788327 0.127153307 0.000841240
0.526557863 0.128475636 0.000147299
0.555822849 0.129380882 0.000000000
0.584454536 0.129520997 0.000000000
0.611371279 0.128840297 0.000000000
0.637250662 0.126340568 0.000000000
0.662915349 0.121979482 0.000000000
0.688690364 0.116637550 0.000000000
0.714886487 0.110473767 0.000000000
0.741539896 0.106854446 0.000000000
0.768307924 0.103019267 0.000000000
0.020746237 0.102220707 0.036250450
0.027429476 0.104249619 0.035509299
0.036369897 0.107109249 0.034728341
0.048613999 0.111380972 0.033997010
0.065075628 0.116349474 0.032350995
0.082903966 0.121310025 0.030788237
0.102761373 0.126533493 0.029846925
0.125959665 0.132020965 0.028701765
0.152028143 0.136967033 0.027891377
0.181712598 0.140544176 0.025768856
0.213388801 0.142999783 0.021839967
0.243401438 0.144517168 0.018954769
0.271823287 0.145408556 0.017415373
0.298253417 0.145557031 0.015463094
0.324360609 0.145547345 0.013143254
0.350291431 0.145775318 0.010678925
0.376196861 0.146384835 0.008315581
0.402588189 0.147227839 0.006056088
0.428375155 0.148413345 0.004021490
0.453906775 0.149809256 0.002135131
0.481210768 0.151498914 0.000944584
0.509696782 0.153185591 0.000306757
0.539542258 0.154581964 0.000025251
0.569861472 0.155267566 0.000000000
0.598720431 0.154687211 0.000000000
0.626176417 0.153326288 0.000000000
0.652814865 0.150810182 0.000000000
0.679294527 0.147364452 0.000000000
0.705936968 0.143467411 0.000000000
0.733154476 0.141129643 0.000000000
0.760547459 0.140416101 0.000000000
0.788052440 0.143286571 0.000000000
0.022215495 0.121962145 0.040687177
0.027024975 0.124603420 0.040624544
0.035860222 0.127579466 0.039994661
0.048185669 0.131211072 0.038997713
0.065138228 0.136511639 0.037287176
0.082715526 0.142080501 0.035599072
0.101568051 0.148260772 0.034352429
0.123858817 0.154526696 0.033342350
0.149443716 0.160792053 0.032205120
0.178490460 0.166473418 0.030983733
0.209728032 0.170091808 0.027837601
0.240675911 0.170950934 0.020760713
0.270459801 0.171236143 0.014873452
0.297896594 0.171176255 0.011962555
0.324888706 0.171163991 0.009444883
0.351798564 0.171492904 0.007004407
0.378949672 0.172113851 0.004859925
0.405472994 0.173170120 0.002993210
0.431775600 0.174727440 0.001530506
0.458853751 0.176523253 0.000533081
0.487986147 0.178519771 0.000094458
0.518703461 0.180409580 0.000023381
0.550223053 0.181811854 0.000000000
0.581893086 0.182241842 0.000000000
0.611891150 0.181667566 0.000000000
0.639908493 0.180325881 0.000000000
0.667235374 0.178203836 0.000000000
0.694641352 0.175623000 0.000000000
0.722325563 0.173985541 0.000000000
0.750491858 0.174778804 0.000000000
0.778418601 0.177278027 0.000000000
0.806511760 0.181481883 0.000000000
0.021514034 0.143949881 0.046849411
0.025062896 0.147477537 0.047261849
0.033511393 0.150376558 0.046077840
0.046238553 0.154118940 0.044581052
0.064141273 0.158658579 0.042742353
0.082611762 0.164432034 0.040552091
0.102134220 0.171282694 0.038712446
0.123236425 0.178583279 0.037851598
0.147489548 0.185249284 0.036774199
0.175206214 0.191350460 0.034797568
0.205211625 0.196273535 0.032609146
0.234942541 0.198343322 0.027120288
0.265892625 0.198431030 0.017231146
0.295821667 0.198478013 0.008957639
0.324037313 0.198604599 0.005533292
0.352068484 0.199021384 0.003430893
0.380323172 0.199864030 0.002105203
0.408191442 0.200999230 0.001232635
0.434875011 0.202622533 0.000500349
0.463439614 0.204338834 0.000134673
0.493838787 0.206029743 0.000000000
0.525638044 0.207771182 0.000000000
0.558036149 0.209168002 0.000000000
0.590480089 0.209909201 0.000000000
0.621936023 0.210015342 0.000000000
0.651089489 0.209310859 0.000000000
0.679278076 0.207987785 0.000000000
0.707594216 0.206650242 0.000000000
0.736348212 0.208096668 0.000000000
0.765369356 0.210926190 0.000000000
0.794224560 0.214872569 0.000000000
0.823125243 0.219977856 0.000000000
0.019972753 0.168112710 0.053220250
0.022856655 0.172142461 0.053997409
0.030119322 0.175026417 0.052643210
0.043350112 0.178538293 0.050767582
0.061657362 0.182928801 0.048643682
0.081391737 0.188318089 0.045990437
0.101431988 0.195508555 0.043525163
0.123213224 0.203630581 0.041282009
0.146695882 0.210961685 0.039927769
0.171827152 0.216881797 0.038299117
0.199275509 0.221737415 0.035817940
0.227599114 0.224665180 0.032164924
0.257272810 0.226477653 0.025341496
0.289207906 0.227421120 0.013809617
0.321039140 0.228180692 0.004148682
0.350632042 0.228852361 0.000823470
0.379748136 0.229907036 0.000123918
0.409375280 0.231295422 0.000041150
0.438468754 0.232908964 0.000012158
0.468209207 0.234611213 0.000000000
0.499412954 0.236012191 0.000000000
0.531021893 0.237262249 0.000000000
0.563349009 0.238581643 0.000000000
0.596020520 0.239710033 0.000000000
0.628136575 0.240342289 0.000000000
0.658797562 0.240428314 0.000000000
0.688091695 0.240017191 0.000000000
0.717642188 0.240799963 0.000000000
0.747454286 0.243960947 0.000000000
0.777459919 0.248464838 0.000000000
0.807070553 0.253219724 0.000000000
0.836659849 0.259422839 0.000000000
0.020600341 0.192968562 0.059689201
0.023750279 0.197363019 0.060732480
0.029505324 0.201057479 0.060129259
0.042132434 0.203964084 0.057555981
0.058665060 0.207839280 0.054573476
0.078799732 0.213314742 0.051356282
0.099607319 0.220542416 0.047881890
0.120764248 0.228729755 0.045086972
0.144164994 0.236734152 0.042017557
0.168454364 0.243243054 0.040056862
0.193886966 0.248189867 0.037936691
0.220466435 0.251702905 0.035105724
0.248677880 0.254263014 0.031351727
0.279320747 0.256882012 0.023843721
0.311958551 0.258929431 0.013150298
0.345288157 0.260240257 0.003640854
0.376641244 0.261529654 0.000224455
0.407913715 0.263273925 0.000000000
0.439850241 0.265281260 0.000000000
0.471585929 0.267052263 0.000000000
0.503444850 0.268535823 0.000000000
0.534954429 0.269678771 0.000000000
0.566802084 0.270676583 0.000000000
0.599213839 0.271767378 0.000000000
0.631462812 0.272532225 0.000000000
0.663029492 0.273362488 0.000000000
0.693528473 0.274428487 0.000000000
0.724108875 0.277319491 0.000000000
0.755010843 0.281675369 0.000000000
0.785938203 0.286937714 0.000000000
0.816633344 0.292783409 0.000000000
0.846815050 0.299245268 0.000000000
0.021177391 0.219525099 0.066852130
0.024255292 0.224206775 0.067851923
0.029439867 0.228459090 0.067464240
0.040036578 0.231150776 0.064498186
0.053846750 0.234463349 0.061027519
0.071989365 0.239714280 0.057941291
0.093093403 0.245390043 0.053132281
0.115401588 0.252884269 0.048100770
0.138234004 0.261260569 0.043924514
0.162823826 0.269200355 0.040272869
0.187800601 0.275418997 0.038203206
0.213696629 0.280038983 0.035965253
0.240669489 0.283527583 0.033572912
0.269626528 0.286333025 0.030576393
0.300463200 0.289440989 0.023691243
0.333938152 0.292729706 0.013266242
0.368660152 0.294755340 0.004152427
0.403585672 0.296790659 0.000579843
0.438920408 0.299513876 0.000000000
0.472445667 0.301748872 0.000000000
0.504812419 0.303426772 0.000000000
0.536787093 0.304794461 0.000000000
0.568951547 0.305836082 0.000000000
0.601460218 0.306705296 0.000000000
0.634224653 0.307516038 0.000000000
0.666552901 0.308977932 0.000000000
0.697491884 0.311200857 0.000000000
0.728674769 0.315373570 0.000000000
0.760190845 0.320623785 0.000000000
0.791874349 0.326468915 0.000000000
0.822992802 0.332863390 0.000000000
0.853437066 0.339565217 0.000000000
0.021168025 0.247439787 0.074174501
0.023722213 0.252484620 0.075327218
0.027830290 0.257246882 0.075159781
0.035781238 0.260233402 0.072514936
0.046271414 0.263534904 0.068839528
0.062067553 0.267695755 0.064761892
0.083752349 0.272122949 0.059136491
0.107607894 0.278170556 0.053100012
0.131243587 0.286393642 0.047316547
0.155805945 0.295489371 0.041866485
0.181385621 0.303458750 0.037611213
0.207254007 0.309179932 0.034832206
0.233689174 0.313617915 0.032873847
0.261638731 0.317151934 0.031022523
0.290676564 0.319948494 0.029494813
0.322664022 0.323546290 0.023740362
0.357789367 0.328300297 0.013333562
0.395297915 0.332288146 0.003771793
0.434968084 0.335357010 0.000519988
0.471433312 0.337964952 0.000000000
0.504683614 0.339916915 0.000000000
0.537167311 0.341568112 0.000000000
0.569584608 0.342987061 0.000000000
0.602641523 0.344054192 0.000000000
0.636184573 0.345090598 0.000000000
0.669835210 0.347339869 0.000000000
0.701970518 0.350675762 0.000000000
0.733228564 0.355099767 0.000000000
0.764525115 0.360421509 0.000000000
0.796076894 0.366339922 0.000000000
0.827055395 0.372625053 0.000000000
0.857986689 0.379340440 0.000000000
0.019778268 0.275974214 0.081517965
0.021509457 0.281363994 0.083098985
0.024335364 0.286617547 0.083412282
0.029994056 0.290127009 0.081325777
0.036849871 0.293881893 0.078188069
0.049974978 0.296911925 0.073033094
0.072809219 0.299412131 0.065732636
0.097906627 0.303497851 0.058019366
0.122381255 0.311525494 0.052142352
0.147184968 0.321275026 0.045901105
0.173936769 0.330932558 0.038763419
0.200072527 0.338349074 0.033654753
0.226939082 0.343922615 0.030331889
0.254231274 0.348266512 0.028932275
0.283318520 0.352243364 0.027866110
0.314138323 0.355819792 0.027101599
0.348214865 0.360123605 0.023854474
0.385457814 0.366025299 0.015009504
0.425804585 0.372004956 0.003649270
0.465666234 0.375455618 0.000162730
0.501914561 0.377432197 0.000000000
0.535798967 0.379168212 0.000000000
0.568928480 0.380818069 0.000000000
0.602446735 0.382425249 0.000000000
0.636708558 0.384460598 0.000000000
0.671356857 0.387525290 0.000000000
0.705512226 0.391806573 0.000000000
0.737451851 0.396325082 0.000000000
0.768578529 0.401005059 0.000000000
0.799570918 0.406394392 0.000000000
0.829864979 0.412188828 0.000000000
0.860618532 0.418495238 0.000000000
0.015530893 0.303956360 0.089481905
0.016202038 0.309460878 0.091416359
0.017287444 0.315089345 0.092358120
0.020025469 0.320247501 0.091734394
0.024172846 0.324955642 0.089295395
0.035742220 0.327744842 0.083427235
0.060265414 0.328318715 0.073918737
0.088885449 0.330065697 0.064069353
0.113480635 0.336863935 0.057116855
0.137594745 0.346578568 0.051010273
0.164085582 0.356724441 0.043758519
0.192081913 0.366190761 0.034926672
0.219731927 0.373463809 0.029255431
0.247832879 0.379406422 0.025937228
0.277197480 0.384365678 0.025314316
0.308651716 0.389538050 0.024658296
0.342215806 0.394590378 0.023827363
0.377830088 0.399760842 0.023103483
0.415906668 0.405633569 0.017534144
0.455594599 0.411771983 0.007124120
0.494006813 0.415888727 0.000650454
0.530552804 0.417710483 0.000000000
0.565858901 0.419336706 0.000000000
0.600682437 0.421351552 0.000000000
0.636268616 0.424697876 0.000000000
0.671756387 0.428794712 0.000000000
0.707173526 0.433579147 0.000000000
0.739855528 0.438151002 0.000000000
0.771308362 0.442568481 0.000000000
0.802299261 0.447296917 0.000000000
0.832545757 0.452655733 0.000000000
0.862702787 0.458140671 0.000000000
0.009387374 0.332187951 0.098751105
0.009623144 0.338005692 0.100759625
0.010150697 0.343842208 0.101957306
0.011024328 0.349853992 0.102033518
0.013489694 0.355279982 0.100240380
0.024027042 0.357680112 0.093817592
0.047538832 0.357426822 0.082998894
0.077534087 0.357833505 0.071324840
0.104593091 0.362290472 0.062535606
0.128428176 0.371459544 0.056525793
0.154232249 0.381754756 0.049859002
0.181816846 0.392193437 0.041751985
0.211800829 0.401885182 0.032200467
0.242054805 0.410434783 0.025800195
0.272649974 0.417362332 0.022441324
0.304646939 0.423390806 0.022134090
0.338289768 0.429336220 0.021182038
0.373122394 0.435244083 0.020441797
0.409289032 0.440996855 0.019813323
0.446538091 0.446775675 0.016981447
0.484024376 0.452326000 0.010418962
0.521339118 0.456496894 0.003060076
0.558417857 0.459378451 0.000111292
0.595817566 0.461756736 0.000000000
0.633519173 0.465558469 0.000000000
0.670543075 0.470144778 0.000000000
0.707015157 0.475036591 0.000000000
0.740512729 0.479779601 0.000000000
0.772255480 0.484343767 0.000000000
0.803369701 0.489020914 0.000000000
0.833962917 0.493922830 0.000000000
0.864195287 0.498735726 0.000000000
0.004067319 0.360095382 0.108174443
0.004669236 0.365791470 0.109924987
0.005633088 0.371561944 0.110689029
0.006740974 0.377654582 0.110587873
0.008823358 0.383776516 0.109081969
0.018657411 0.386748284 0.102659844
0.038507298 0.387170225 0.092159010
0.066588163 0.387009203 0.079459958
0.094275326 0.389440984 0.068947986
0.120079137 0.397310108 0.062345743
0.145743296 0.408104211 0.056214381
0.173052192 0.419374764 0.049035057
0.203672454 0.429854929 0.040404793
0.236783296 0.440473050 0.030781703
0.268986970 0.449893802 0.023018325
0.301699549 0.457713187 0.018778495
0.335283041 0.464010537 0.017860575
0.369629771 0.470169395 0.017514545
0.404974580 0.476304561 0.016782699
0.440920800 0.482318938 0.016111225
0.476731151 0.488176674 0.014742056
0.512657642 0.493553221 0.010694854
0.549002826 0.498610735 0.004899671
0.587405503 0.503372312 0.001108713
0.626738369 0.507777333 0.000000000
0.665964723 0.512205780 0.000000000
0.704020560 0.516835511 0.000000000
0.739386559 0.521395266 0.000000000
0.772214413 0.525940478 0.000000000
0.803240478 0.530770600 0.000000000
0.833916605 0.535471320 0.000000000
0.864084244 0.540019631 0.000000000
0.001052134 0.388081759 0.117324352
0.002419542 0.394400924 0.118945561
0.003772915 0.400784791 0.119556636
0.005084211 0.407590806 0.119296238
0.006951028 0.414564818 0.118217289
0.014574667 0.419481248 0.113205031
0.027673606 0.422541857 0.105010882
0.052898247 0.422079533 0.092207037
0.084533960 0.420449704 0.077649392
0.114261746 0.425713867 0.068826422
0.141181514 0.436243236 0.063187428
0.168074593 0.448156536 0.056364022
0.198897079 0.459651828 0.048054963
0.232063457 0.470481306 0.038786344
0.265835881 0.480988145 0.028804619
0.299186230 0.490629882 0.019529952
0.332708776 0.498336643 0.014543775
0.366879404 0.504755974 0.013544464
0.401610672 0.511058331 0.013379912
0.436942548 0.517222047 0.013500037
0.472292572 0.523445189 0.013597317
0.507550299 0.530249536 0.013719376
0.542320073 0.536838174 0.011533749
0.579246521 0.543677747 0.007004401
0.617849827 0.549846530 0.002477892
0.657363474 0.554895461 0.000635958
0.696825266 0.559477627 0.000000000
0.735183656 0.563718677 0.000000000
0.770255268 0.567985356 0.000000000
0.802092135 0.572418809 0.000000000
0.832848251 0.576922655 0.000000000
0.862729967 0.581376135 0.000000000
0.000000000 0.419159800 0.127346531
0.001612904 0.426165849 0.128966317
0.003225807 0.433273405 0.129440099
0.004852741 0.440699875 0.129205897
0.006671393 0.448269546 0.128263935
0.010836552 0.454963923 0.125310704
0.018022504 0.460528404 0.119755663
0.038330637 0.461085439 0.108185366
0.076396979 0.455141097 0.089584790
0.110800326 0.456486970 0.076760881
0.139296323 0.466071427 0.070574328
0.166192889 0.477553159 0.064199351
0.195047319 0.489232570 0.056043230
0.228360221 0.500668466 0.045970306
0.262445778 0.511379957 0.035913762
0.296424955 0.521732211 0.025706198
0.330867857 0.531261981 0.015268127
0.364683568 0.538810670 0.010277729
0.398969024 0.545670569 0.009100723
0.434102148 0.552745521 0.010353485
0.469568551 0.559768796 0.011146984
0.504697859 0.567233205 0.012748582
0.538973451 0.574882388 0.014901489
0.573611796 0.582374454 0.016005065
0.610055089 0.589571059 0.013238169
0.648180842 0.595989466 0.007487450
0.687031448 0.601507545 0.003402363
0.726472437 0.606204510 0.000938031
0.764062822 0.610503733 0.000000000
0.798496127 0.614352465 0.000000000
0.829980075 0.618052721 0.000000000
0.859910071 0.621692359 0.000000000
0.000000000 0.452858329 0.138162494
0.001612904 0.459882140 0.139414668
0.003225807 0.467038065 0.139768198
0.004838713 0.474187821 0.139460891
0.006529237 0.481572956 0.138486311
0.008790257 0.488768935 0.136529252
0.013661504 0.494963348 0.132412985
0.030674817 0.496166825 0.121820800
0.070595711 0.489314318 0.101603404
0.108057514 0.488034964 0.086259566
0.138335884 0.495965481 0.078834295
0.165528744 0.507032692 0.072360188
0.192879409 0.518906772 0.064622104
0.224004954 0.530360341 0.054470174
0.259324312 0.541973829 0.042518366
0.294582099 0.552898705 0.031315714
0.328781605 0.563060641 0.021044048
0.363201290 0.572376370 0.011256449
0.397497386 0.580659807 0.006195434
0.431837171 0.588769138 0.005956955
0.467370659 0.597144842 0.008584010
0.502578974 0.605184197 0.011446730
0.536773264 0.613036215 0.014697632
0.570624650 0.620560646 0.018879013
0.604807138 0.627741575 0.023124982
0.640248895 0.634591103 0.024742484
0.677453041 0.641188920 0.020752754
0.716174722 0.647307456 0.013749719
0.754659235 0.652597487 0.008793030
0.790927112 0.656448543 0.001565575
0.823970973 0.659351408 0.000000000
0.855003953 0.661748767 0.000000000
0.000000000 0.485909879 0.148929015
0.001612904 0.492624342 0.149747416
0.003225807 0.499390692 0.149980083
0.004838713 0.506252527 0.149496019
0.006451614 0.513319075 0.148461804
0.008316091 0.520545125 0.146679327
0.013252798 0.526383519 0.142427012
0.031384211 0.526721299 0.130946532
0.068042077 0.521311820 0.111981712
0.105701610 0.519644141 0.096036106
0.138448477 0.526089728 0.087569371
0.166731134 0.536705077 0.081323929
0.192834184 0.548524499 0.073653154
0.222095594 0.560235500 0.063876256
0.256949544 0.571883202 0.051802430
0.292917132 0.584202528 0.038261205
0.328078896 0.595799208 0.025167976
0.361957341 0.606319368 0.016581161
0.396334022 0.616380394 0.008815020
0.430616081 0.625898600 0.004628457
0.465615541 0.635152042 0.005864828
0.500508547 0.643699586 0.009597766
0.534637451 0.651409984 0.014440436
0.568209767 0.658826470 0.019890491
0.601792276 0.665832937 0.025903050
0.635782063 0.672531128 0.032906111
0.670323908 0.679147363 0.039113216
0.706081808 0.685725629 0.041423716
0.743824005 0.692157626 0.035876367
0.780908108 0.697053790 0.024679828
0.814986050 0.700176418 0.014071488
0.847142458 0.702239037 0.003829304
0.000000000 0.517596185 0.159474865
0.001612904 0.524175644 0.160125256
0.003225807 0.530922592 0.160230950
0.004875187 0.537903547 0.159847826
0.006801391 0.545055687 0.158674240
0.009242902 0.552253544 0.156606600
0.015464622 0.557891250 0.151760831
0.034239922 0.558089256 0.139567688
0.066874936 0.554238379 0.121831551
0.103889018 0.552056849 0.105547845
0.137707487 0.556971490 0.096164219
0.167971745 0.567250907 0.090581879
0.194126546 0.578667462 0.083783560
0.221823350 0.590470970 0.074694067
0.254224181 0.602533758 0.063299201
0.290521502 0.615544975 0.050166219
0.326399028 0.629016995 0.035375096
0.361498952 0.641800463 0.021055311
0.395272344 0.652924895 0.014004603
0.429399520 0.663280070 0.008612064
0.464226693 0.673104107 0.006472731
0.498791128 0.681915522 0.009557600
