Desert Affinity Presets/Desert Affinity Preset #16.cube
TITLE "32x32x32 Adobe/IRIDAS cube 3D LUT exported with GrossGrade v0.1.027.1 (beta) 64 bit"
LUT_3D_SIZE 5
DOMAIN_MIN 0.000000 0.000000 0.000000
DOMAIN_MAX 0.903226 0.903226 0.903226
0.000000000 0.086295150 0.099732906
0.143893600 0.065269716 0.133453295
0.364870608 0.041595820 0.162444204
0.677949250 0.000000000 0.164106220
0.986564398 0.000000000 0.166208252
0.001010048 0.208305672 0.180612370
0.206051245 0.197812855 0.124849170
0.474468440 0.170793965 0.067627445
0.806349099 0.123822115 0.057099536
0.995161295 0.091847345 0.073430561
0.000000000 0.384977520 0.153809175
0.209659889 0.372944534 0.121798702
0.423512846 0.378360420 0.091958866
0.740902662 0.362204790 0.030235531
0.995161295 0.344657004 0.018135017
0.000000000 0.623670876 0.126998544
0.194015011 0.623777866 0.106728487
0.417207360 0.639949799 0.103926651
0.691211402 0.644721270 0.068629995
0.970528841 0.647387922 0.022425864
0.000000000 0.889693201 0.156267479
0.218916014 0.887846947 0.138570651
0.440749347 0.897801220 0.132983625
0.696382999 0.894719481 0.110169180
0.926742554 0.898172736 0.069069542
0.000000000 0.106762528 0.011290320
0.108394854 0.097532570 0.071075857
0.339343339 0.062038526 0.184095532
0.662653089 0.005242461 0.231622711
0.972593069 0.000000000 0.265882909
0.007773635 0.231718302 0.077583656
0.218501061 0.205777600 0.164701238
0.487639248 0.172034994 0.182160720
0.803111255 0.129576296 0.190577686
0.995161295 0.101179406 0.212880462
0.000000000 0.396622837 0.128833950
0.229015261 0.382310450 0.186683819
0.439928293 0.389329314 0.170450985
0.778559864 0.366699904 0.131281659
0.995161295 0.347852319 0.154584423
0.000000000 0.636633039 0.154054001
0.216903865 0.636577308 0.186695442
0.440062910 0.652821362 0.187020063
0.709951937 0.657684445 0.161433592
0.992964387 0.655648232 0.118861727
0.000000000 0.901429057 0.206389979
0.241100982 0.898930073 0.223099589
0.461654425 0.907515407 0.217097029
0.714719653 0.903800249 0.197900981
0.941301763 0.906852305 0.161692575
0.000000000 0.123575039 0.022580640
0.101348385 0.113429204 0.084927291
0.300815284 0.084868923 0.219867989
0.614021838 0.023175940 0.346958637
0.926131845 0.000000000 0.429477692
0.000000000 0.272813648 0.093003973
0.142015129 0.237513170 0.234002948
0.429804146 0.191226780 0.332430452
0.749227941 0.144066826 0.394883692
0.995161295 0.113415509 0.435190350
0.000000000 0.428085178 0.061385226
0.237459481 0.402204186 0.186290085
0.450308681 0.394188643 0.336175650
0.788594663 0.366977423 0.359648645
0.995161295 0.352660924 0.395866513
0.000000000 0.657948911 0.105332159
0.251713902 0.646635234 0.261088222
0.457338572 0.658840001 0.355080247
0.721834958 0.663758397 0.339022309
0.995161295 0.653145850 0.314209998
0.014109376 0.914908528 0.223871991
0.271839827 0.903466403 0.340768695
0.475781351 0.910327315 0.385592341
0.727140784 0.905866921 0.366866857
0.949261725 0.908898234 0.339360178
0.000000000 0.135620594 0.088617437
0.071329802 0.122857429 0.229586735
0.278247595 0.090028547 0.383030117
0.572395802 0.034281846 0.510354638
0.862152338 0.000000000 0.643500507
0.000000000 0.305344909 0.237570971
0.052639671 0.263019085 0.405917436
0.365439802 0.205972388 0.551420987
0.682310820 0.162622660 0.603762150
0.968229115 0.131418765 0.700013697
0.000000000 0.471187383 0.179572687
0.118597239 0.446864635 0.323797524
0.357166022 0.427956283 0.524617851
0.727445364 0.384565055 0.632158399
0.995161295 0.364909232 0.719051242
0.000000000 0.693706214 0.148352742
0.232471362 0.677159250 0.293584079
0.461894393 0.675034881 0.457735777
0.725864887 0.661965370 0.613787353
0.995161295 0.644891739 0.647188246
0.030904688 0.935745776 0.230737969
0.300304085 0.915348947 0.387468427
0.500778258 0.909145594 0.556932628
0.732778728 0.899982035 0.632711887
0.949438334 0.903132379 0.614488661
0.000000000 0.151545435 0.199800879
0.025189728 0.136318356 0.380641907
0.239380151 0.097569108 0.571340859
0.541774392 0.039791711 0.699091554
0.818307579 0.000000000 0.816030145
0.000000000 0.337418944 0.387724400
0.011290320 0.290343016 0.572492003
0.273770660 0.231595889 0.749044836
0.629565477 0.177347571 0.818457842
0.911419094 0.151977524 0.892540455
0.000000000 0.515254736 0.320329875
0.015516154 0.488490522 0.485172629
0.264037222 0.463270962 0.705342412
0.663332403 0.407381743 0.864696980
0.974402905 0.389389813 0.938788772
0.000000000 0.744396985 0.255745888
0.114221804 0.728482366 0.412287802
0.339359611 0.725675464 0.593703508
0.629138052 0.698656857 0.799323797
0.968333721 0.661481380 0.915924847
0.000000000 0.974872530 0.275308728
0.255234987 0.949986577 0.418718696
0.478225321 0.937221944 0.575535536
0.733772337 0.913043499 0.722578168
0.950354874 0.898069859 0.881141603
