Desert Affinity Presets/Desert Affinity Preset #18.cube
TITLE "32x32x32 Adobe/IRIDAS cube 3D LUT exported with GrossGrade v0.1.027.1 (beta) 64 bit"
LUT_3D_SIZE 8
DOMAIN_MIN 0.000000 0.000000 0.000000
DOMAIN_MAX 0.903226 0.903226 0.903226
0.037066437 0.037675291 0.038110200
0.137240231 0.063244984 0.039751943
0.262128145 0.064792275 0.009561813
0.363355368 0.061503541 0.000000000
0.492442131 0.054811534 0.000000000
0.630940437 0.050505277 0.000000000
0.735222936 0.055046234 0.000000000
0.832048357 0.261449426 0.081030659
0.046749849 0.133444011 0.049494732
0.134896323 0.138221338 0.056739986
0.241696119 0.149852142 0.036128916
0.346993208 0.155033886 0.006088349
0.488888443 0.145686597 0.000000000
0.632603765 0.101550482 0.000000000
0.740443289 0.139205828 0.000000000
0.833380103 0.288165390 0.089093201
0.036447305 0.249761969 0.044274256
0.125314385 0.242697984 0.052315395
0.235928193 0.246952310 0.049412414
0.343041390 0.252373338 0.029901668
0.486762375 0.256304294 0.002146355
0.643503904 0.251395613 0.000000000
0.754098177 0.277807355 0.000000000
0.840705454 0.363470256 0.116282478
0.009411672 0.353928059 0.032189734
0.086428724 0.350084752 0.033868432
0.222843811 0.351166517 0.046932660
0.353250444 0.365026325 0.036668055
0.492347211 0.364101142 0.020232309
0.651972353 0.375069737 0.000000000
0.765569866 0.407045811 0.000000000
0.857683003 0.472245544 0.155451894
0.000000000 0.475224435 0.007262548
0.039573751 0.473657101 0.008574659
0.199457914 0.470133752 0.023151148
0.351294160 0.482016802 0.034394495
0.504589200 0.498111963 0.028967815
0.670912445 0.508269012 0.012487181
0.775656760 0.533731341 0.015148873
0.876523197 0.597140253 0.189633220
0.000000000 0.616618395 0.000000000
0.006941675 0.616672277 0.000000000
0.153795466 0.611208916 0.000000000
0.330991894 0.631708920 0.000766421
0.508244514 0.660722673 0.029917572
0.693737030 0.686201870 0.022585314
0.802160203 0.703786314 0.040398676
0.885529339 0.739421666 0.199749410
0.000000000 0.781150818 0.000000000
0.006451614 0.781152666 0.000000000
0.120809890 0.796493709 0.000000000
0.319703609 0.813678145 0.004545217
0.525058091 0.842825770 0.053440452
0.718703866 0.858631670 0.087881230
0.834106028 0.875704467 0.073159769
0.909112453 0.888316989 0.221023470
0.016693888 0.950323820 0.043110859
0.023145502 0.950323820 0.043110859
0.144378141 0.950989127 0.061420329
0.348331660 0.969716728 0.093522951
0.551075339 0.979942560 0.118977375
0.745215356 0.979655623 0.142614648
0.864087880 0.986699045 0.174903750
0.935959935 0.990304053 0.299205691
0.000000000 0.063052751 0.077225178
0.139148295 0.038130246 0.103074521
0.277064860 0.045667294 0.057752755
0.375031769 0.051000427 0.023411553
0.507415116 0.049460124 0.006451614
0.648648202 0.045617256 0.006451614
0.751846433 0.051291775 0.006451614
0.837205350 0.255971730 0.099147320
0.021053471 0.140760258 0.125193462
0.115967244 0.117468059 0.112547517
0.241281867 0.138049543 0.090706006
0.350192577 0.145280614 0.059760675
0.494808733 0.132014036 0.011547687
0.645449579 0.083368734 0.006451614
0.753873229 0.127891049 0.006451614
0.837975502 0.283512622 0.107191131
0.020374022 0.250565231 0.129100248
0.096299253 0.216804937 0.106167652
0.227165118 0.227450624 0.108146571
0.345917076 0.245288298 0.083176993
0.490590394 0.250497490 0.044680547
0.651095748 0.245978922 0.007510293
0.765140235 0.273533612 0.009152556
0.844649732 0.360418379 0.135224238
0.005803572 0.355458736 0.111106947
0.055175733 0.335128844 0.097478084
0.212475091 0.328763038 0.102766775
0.350348145 0.352518439 0.097407430
0.493363947 0.360541314 0.049774311
0.656039059 0.373851418 0.014859340
0.776345849 0.407244086 0.038747434
0.861394525 0.471224159 0.175411835
0.000000000 0.477938354 0.088766851
0.010416983 0.473615259 0.086500295
0.186503470 0.446920961 0.084932372
0.348735392 0.467550009 0.096406773
0.503473163 0.492499888 0.075829342
0.670812428 0.506767809 0.024318710
0.783404708 0.535405219 0.055000339
0.880855620 0.598049998 0.211108088
0.000000000 0.620696425 0.037923031
0.006451614 0.620338082 0.037689272
0.145708352 0.587643743 0.047375415
0.328408778 0.615019560 0.066577576
0.507921159 0.653188407 0.082602762
0.697801530 0.685534894 0.068103857
0.807036221 0.705297887 0.074389525
0.888212562 0.739714086 0.221279770
0.000000000 0.786572695 0.010420722
0.006451614 0.786572695 0.010420722
0.105935261 0.776981294 0.019141279
0.309352517 0.798722267 0.051790658
0.522025704 0.836978137 0.095065601
0.719083488 0.856356025 0.120202735
0.837095737 0.875420868 0.105587587
0.910944700 0.888536036 0.240464658
0.013186759 0.945839286 0.070007518
0.019638373 0.945839286 0.070007518
0.127076820 0.939744473 0.077597834
0.337953329 0.962834179 0.114440456
0.546340227 0.976644158 0.142154783
0.744012892 0.978345037 0.162714705
0.864833653 0.986310065 0.192660227
0.936570644 0.990114748 0.311763912
0.000000000 0.089928798 0.135640517
0.006451614 0.089801691 0.136280671
0.255228579 0.033103421 0.165638342
0.377224416 0.038019903 0.112300195
0.520791531 0.038435139 0.067218632
0.675076783 0.034383751 0.019689722
0.787697911 0.039554641 0.017216522
0.857127488 0.230556384 0.143778726
0.000000000 0.168625042 0.107600883
0.006451614 0.168625042 0.107597202
0.214520037 0.114794143 0.176887915
0.349266231 0.123051152 0.131416082
0.507239699 0.083276995 0.078062609
0.672330797 0.046759106 0.020250859
0.786158562 0.085571587 0.025433442
0.856932461 0.261193365 0.152800366
0.000634554 0.246357873 0.214344040
0.007086168 0.246357873 0.214344040
0.196294948 0.197122619 0.184301570
0.345936120 0.230120867 0.167322651
0.492997497 0.229164541 0.128916904
0.665415049 0.226055533 0.082585365
0.788511038 0.257192791 0.087264434
0.860038698 0.345783800 0.183884740
0.001537052 0.352307707 0.224871501
0.007988666 0.352307707 0.224871501
0.170399308 0.303128213 0.179663062
0.337840170 0.326768935 0.187223762
0.498727560 0.349436879 0.158932820
0.672037542 0.366641343 0.124358155
0.796669006 0.401477486 0.134631887
0.874859571 0.464384794 0.229659393
0.000000000 0.471558064 0.209916830
0.006451614 0.471558064 0.209916830
0.142507553 0.417829096 0.169119298
0.335939497 0.438747704 0.187706470
0.496757656 0.474739730 0.190019563
0.685306907 0.501322031 0.150676757
0.808460772 0.539933860 0.169053227
0.898233473 0.600737810 0.275564581
0.000000000 0.616758585 0.170584589
0.006451614 0.616758585 0.170584589
0.110356592 0.550499082 0.147695869
0.312688321 0.579499602 0.167575061
0.501304567 0.631232083 0.193564191
0.702687562 0.676270127 0.197597682
0.824539721 0.706150413 0.198179752
0.900500894 0.741124213 0.292280406
0.000000000 0.790163934 0.145915449
0.006451614 0.790163934 0.145915449
0.048632298 0.741171837 0.116908848
0.274703115 0.759104848 0.144805297
0.504567921 0.813455462 0.195382491
0.718710780 0.846820116 0.222517639
0.849144161 0.873676002 0.225139439
0.918963015 0.888520181 0.307986677
0.006937533 0.942709625 0.189392179
0.013389145 0.942709625 0.189392179
0.060381133 0.922007143 0.166318938
0.289938211 0.932432592 0.183429837
0.521245599 0.959166110 0.225301340
0.738075376 0.970662236 0.248883754
0.867855370 0.981469810 0.269418329
0.941004276 0.988552213 0.363428414
0.000000000 0.113168381 0.202518970
0.006451614 0.113168381 0.202518970
0.016917221 0.095042564 0.262499005
0.353955895 0.026543705 0.253185362
0.507373273 0.023385432 0.201186031
0.692717135 0.016636811 0.140921071
0.827206612 0.019742275 0.131129086
0.893737435 0.179127932 0.213608265
0.000000000 0.185141698 0.129121646
0.006451614 0.185141698 0.129121646
0.012903227 0.174748108 0.152457848
0.327638805 0.102919944 0.264821947
0.500175297 0.054949380 0.203397363
0.691674411 0.023643481 0.139240876
0.826671183 0.032645557 0.131652504
0.892705441 0.217404678 0.222902402
0.000000000 0.261817932 0.179464400
0.006451614 0.261817932 0.179464400
0.012903227 0.258277267 0.178772524
0.323098600 0.201569274 0.271646202
0.491230398 0.205217332 0.228865445
0.683963418 0.186250791 0.177320972
0.823088586 0.217628047 0.182776064
0.890385687 0.315256149 0.253456861
0.000000000 0.348336011 0.300620645
0.006451614 0.348336011 0.300620645
0.013180060 0.346370310 0.300332576
0.306574881 0.303259671 0.287711471
0.490140468 0.335202515 0.268666923
0.681772768 0.344888985 0.228872418
0.818352640 0.378771573 0.237697542
0.897763669 0.447021067 0.304990232
0.000000000 0.465258867 0.328243971
0.006451614 0.465258867 0.328243971
0.012903227 0.463212013 0.326607883
0.291027188 0.419921756 0.286802113
0.476604640 0.451775134 0.301785946
0.699270368 0.494875282 0.278278738
0.833828032 0.536861658 0.295508176
0.922560513 0.597963452 0.365175277
0.000000000 0.607053638 0.299499601
0.006451614 0.607053638 0.299499601
0.012903227 0.604532957 0.298579782
0.261558086 0.557977498 0.269334882
0.479640484 0.600756109 0.302944392
0.693890631 0.656274617 0.318961710
0.838437855 0.698657334 0.327118218
0.920213938 0.741954803 0.387491286
0.000000000 0.787936926 0.279426038
0.006451614 0.787936926 0.279426038
0.012903227 0.787024140 0.278746545
0.201653242 0.730491757 0.241515666
0.469684511 0.783301175 0.295080572
0.702072442 0.826231837 0.329578668
0.853197575 0.863883972 0.346655846
0.929318726 0.886233628 0.400795132
0.000000000 0.948363423 0.324221611
0.006451614 0.948374867 0.324227124
0.012903227 0.948342979 0.324178010
0.204722032 0.910963953 0.272519916
0.478029966 0.940647364 0.315453023
0.716384530 0.957381427 0.348415762
0.868411720 0.973587811 0.369465411
0.947139263 0.985189021 0.443298727
0.000000000 0.133045033 0.257568002
0.006451614 0.133045033 0.257568002
0.012903227 0.133045033 0.257568002
0.181659698 0.054743707 0.430123866
0.469759911 0.016107913 0.373972535
0.665411651 0.002750984 0.303875148
0.846049011 0.000347906 0.281309336
0.933409333 0.103158519 0.330787659
0.000000000 0.198150396 0.170541361
0.006451614 0.198150396 0.170541361
0.012903227 0.198143497 0.170541361
0.063038506 0.137381777 0.364740252
0.465642750 0.035460599 0.378398448
0.665370226 0.013048725 0.303601980
0.845874608 0.006930919 0.279891551
0.934405208 0.140805572 0.335591972
0.000000000 0.282312602 0.166522369
0.006451614 0.282312602 0.166522369
0.012903227 0.282312602 0.166522369
0.053280786 0.255637556 0.283203542
0.460690945 0.183043852 0.397079945
0.668923259 0.170274377 0.321772873
0.849777520 0.162354782 0.300102979
0.934002757 0.261570960 0.354659438
0.000000000 0.368797123 0.274118364
0.006451614 0.368797123 0.274118364
0.012903227 0.368797123 0.274118364
0.085423276 0.353045225 0.275942624
0.455552518 0.307162821 0.408063054
0.669110179 0.321673393 0.346149921
0.842581391 0.332324266 0.332456678
0.936056733 0.406200320 0.393072277
0.000000000 0.462703496 0.396802694
0.006451614 0.462703496 0.396802694
0.012903227 0.462703496 0.396802694
0.104567081 0.447813749 0.401016146
0.446146846 0.441237181 0.431495339
0.681281090 0.475574881 0.397496969
0.847812414 0.508722603 0.398159027
0.950335205 0.576627672 0.460401505
0.000000000 0.600647151 0.426758766
0.006451614 0.600647151 0.426758766
0.012903227 0.600647151 0.426758766
0.077294707 0.588427305 0.416897088
0.423486382 0.589455247 0.425425440
0.658612370 0.622030437 0.439444691
0.856226325 0.688367009 0.454757094
0.954152882 0.746013582 0.507846832
0.000000000 0.782454491 0.415758550
0.006451614 0.782454491 0.415758550
0.012903227 0.782454491 0.415758550
0.049935918 0.761098504 0.398860574
0.406252831 0.769409120 0.410914779
0.660914719 0.793178201 0.442600667
0.848670721 0.844627261 0.468272150
0.939149320 0.879083097 0.513470352
0.000000000 0.948417723 0.467664838
0.006451614 0.948417723 0.467664838
0.012903227 0.948417723 0.467664838
0.071737088 0.935255527 0.442044377
0.403354287 0.932114303 0.426000446
0.664767265 0.939131320 0.452243418
0.861910522 0.960324168 0.480986148
0.953017354 0.978675365 0.544497848
0.000000000 0.160051003 0.316797376
0.006451614 0.160051003 0.316797376
0.012903227 0.160051003 0.316797376
0.019354852 0.159648433 0.318678349
0.305728823 0.040467419 0.557179809
0.599695444 0.001064762 0.494112372
0.825602233 0.000000000 0.467815369
0.943872333 0.000000000 0.517735898
0.000000000 0.206493020 0.239222109
0.006451614 0.206493020 0.239222109
0.012903227 0.206493020 0.239222109
0.019354852 0.204659447 0.241790771
0.296696723 0.051309500 0.562312484
0.601269186 0.007464941 0.495879769
0.825501621 0.006451614 0.466485620
0.947301567 0.017883867 0.521287978
0.000000000 0.306010157 0.196843952
0.006451614 0.306010157 0.196843952
0.012903227 0.306010157 0.196843952
0.019354852 0.305864602 0.197020486
0.184933528 0.222571597 0.522527993
0.604976296 0.145228475 0.523796976
0.838484764 0.129276142 0.483379304
0.963942051 0.171606958 0.537174642
0.000000000 0.399489492 0.232845917
0.006451614 0.399489492 0.232845917
0.012903227 0.399489492 0.232845917
0.019354852 0.399489492 0.232829452
0.159917027 0.366060138 0.443010390
0.616297185 0.289566517 0.536199868
0.845843434 0.294431269 0.494451672
0.973155141 0.324415714 0.543453097
0.000000000 0.494184971 0.365325332
0.006451614 0.494184971 0.365325332
0.012903227 0.494184971 0.365325332
0.019354852 0.494184971 0.365319967
0.204362527 0.487514853 0.406295896
0.616455436 0.429823816 0.552777052
0.852772713 0.461661607 0.522479415
0.987676442 0.502273560 0.567455709
0.000000000 0.607196093 0.515137970
0.006451614 0.607196093 0.515137970
0.012903227 0.607196093 0.515137970
0.019354852 0.607196093 0.515137970
0.243239522 0.604150653 0.554451346
0.600254893 0.592860401 0.579238951
0.863158345 0.663563073 0.588316917
0.988749146 0.719647586 0.631749570
0.000000000 0.774600208 0.574110150
0.006451614 0.774600208 0.574110150
0.012903227 0.774600208 0.574110150
0.019354852 0.774600208 0.574110150
0.200763553 0.778497219 0.570184946
0.570483029 0.765703142 0.567478895
0.830863535 0.811855614 0.602580428
0.951192856 0.865149081 0.645848513
0.000000000 0.944833934 0.633777678
0.006451614 0.944833934 0.633777678
0.012903227 0.944833934 0.633777678
0.019354852 0.944833934 0.633777678
0.212071210 0.935077190 0.593346000
0.570365369 0.922982752 0.566375494
0.842960119 0.940120697 0.611932218
0.958262146 0.967858791 0.673460245
0.000000000 0.194464684 0.376768023
0.006451614 0.194464684 0.376768023
0.012903227 0.194464684 0.376768023
0.019354852 0.194464684 0.376768023
0.025806461 0.171623096 0.469479769
0.378944099 0.036027882 0.745489061
0.754771411 0.000000000 0.709084988
0.917459428 0.000000000 0.742282212
0.000000000 0.208648115 0.363285363
0.006451614 0.208648115 0.363285363
0.012903227 0.208648115 0.363285363
0.019354852 0.208646283 0.363285363
0.025806461 0.186200187 0.451391816
0.375027120 0.043525569 0.751426876
0.756514490 0.006451614 0.712167203
0.918528318 0.006451614 0.743090212
0.000000000 0.329475671 0.259131134
0.006451614 0.329475671 0.259131134
0.012903227 0.329475671 0.259131134
0.019354852 0.329475671 0.259131134
0.025806461 0.315767229 0.320326775
0.309607863 0.165776178 0.760208666
0.763536453 0.053075120 0.732279181
0.933675230 0.073483735 0.756207645
0.000000000 0.436500251 0.247049347
0.006451614 0.436500251 0.247049347
0.012903227 0.436500251 0.247049347
0.019354852 0.436500251 0.247049347
0.025806461 0.434808522 0.281702518
0.272321314 0.353341669 0.719479918
0.789435983 0.252053678 0.758024812
0.959379017 0.266061813 0.770217419
0.000000000 0.540152550 0.316632956
0.006451614 0.540152550 0.316632956
0.012903227 0.540152550 0.316632956
0.019354852 0.540152550 0.316632956
0.025806461 0.542308986 0.322533369
0.251703322 0.517442763 0.627111495
0.807836175 0.416906834 0.774456620
0.988959014 0.440258056 0.781553805
0.000000000 0.641824186 0.492808819
0.006451614 0.641824186 0.492808819
0.012903227 0.641824186 0.492808819
0.019354852 0.641824186 0.492808819
0.025806461 0.644254506 0.494946539
0.322395861 0.665055871 0.566546082
0.819446564 0.600251436 0.783334196
0.993758440 0.643332481 0.789300680
0.000000000 0.773734331 0.650902510
0.006451614 0.773734331 0.650902510
0.012903227 0.773734331 0.650902510
0.019354852 0.773734331 0.650902510
0.025806461 0.776600838 0.654875994
0.398937017 0.806031823 0.748818040
0.817765355 0.809530139 0.799645007
0.993125737 0.871555746 0.826795638
0.000000000 0.939235628 0.751761317
0.006451614 0.939235628 0.751761317
0.012903227 0.939235628 0.751761317
0.019354852 0.939235628 0.751761317
0.025806461 0.940669239 0.753629208
0.402583361 0.957858145 0.791224003
0.795132220 0.929219782 0.779331088
0.954779804 0.950418472 0.820225179
0.000000000 0.230981797 0.434568495
0.006451614 0.230981797 0.434568495
0.012903227 0.230981797 0.434568495
0.019354852 0.230981797 0.434568495
0.025806461 0.230981797 0.434568495
0.032258086 0.153894782 0.737585425
0.535874546 0.010935185 0.929631293
0.843293488 0.000000000 0.915797591
0.000000000 0.238998860 0.434353501
0.006451614 0.238998860 0.434353501
0.012903227 0.238998860 0.434353501
0.019354852 0.238998860 0.434353501
0.025806461 0.238998860 0.434353501
0.032258086 0.163351953 0.734422088
0.534825861 0.017714130 0.932118952
0.843819022 0.006451614 0.917045474
0.000000000 0.352073699 0.333040059
0.006451614 0.352073699 0.333040059
0.012903227 0.352073699 0.333040059
0.019354852 0.352073699 0.333040059
0.025806461 0.352073699 0.333040059
0.032258086 0.242399007 0.658888698
0.528085530 0.029400688 0.945855319
0.847377896 0.012903227 0.923968375
0.000000000 0.468719572 0.296555698
0.006451614 0.468719572 0.296555698
0.012903227 0.468719572 0.296555698
0.019354852 0.468719572 0.296555698
0.025806461 0.468719572 0.296555698
0.032258086 0.435721755 0.531873047
0.516281962 0.254635066 0.958305657
0.876395702 0.152885303 0.943088472
0.000000000 0.573835194 0.316467613
0.006451614 0.573835194 0.316467613
0.012903227 0.573835194 0.316467613
0.019354852 0.573835194 0.316467613
0.025806461 0.573835194 0.316467613
0.032258086 0.572119415 0.457128465
0.504098773 0.448999375 0.933635533
0.917202234 0.369040787 0.958559155
0.000000000 0.672734797 0.449093014
0.006451614 0.672734797 0.449093014
0.012903227 0.672734797 0.449093014
0.019354852 0.672734797 0.449093014
0.025806461 0.672734797 0.449093014
0.038365133 0.693925858 0.485125810
0.481794596 0.659193099 0.844864488
0.965068936 0.599146843 0.978737533
0.000000000 0.786230028 0.655654609
0.006451614 0.786230028 0.655654609
0.012903227 0.786230028 0.655654609
0.019354852 0.786230028 0.655654609
0.025806461 0.786230028 0.655654609
0.070237741 0.818732738 0.704548478
0.561589599 0.840895116 0.759081542
0.960221350 0.807487905 0.943487227
0.000000000 0.940687060 0.795768797
0.006451614 0.940687060 0.795768797
0.012903227 0.940687060 0.795768797
0.019354852 0.940687060 0.795768797
0.025806461 0.940687060 0.795768797
0.069583096 0.964884341 0.834600091
0.619799793 0.964023709 0.913287342
0.941440582 0.938637674 0.929438353
