Desert Affinity Presets/Desert Affinity Preset #33.cube
TITLE "32x32x32 Adobe/IRIDAS cube 3D LUT exported with GrossGrade v0.1.027.1 (beta) 64 bit"
LUT_3D_SIZE 5
DOMAIN_MIN 0.000000 0.000000 0.000000
DOMAIN_MAX 0.903226 0.903226 0.903226
0.002087435 0.001710532 0.002957198
0.126514718 0.029131055 0.017121727
0.287526220 0.040514182 0.022792490
0.460967660 0.029481286 0.009573964
0.624568343 0.026875682 0.000000000
0.021514034 0.143949881 0.046849411
0.123236425 0.178583279 0.037851598
0.324037313 0.198604599 0.005533292
0.525638044 0.207771182 0.000000000
0.736348212 0.208096668 0.000000000
0.009387374 0.332187951 0.098751105
0.077534087 0.357833505 0.071324840
0.272649974 0.417362332 0.022441324
0.521339118 0.456496894 0.003060076
0.772255480 0.484343767 0.000000000
0.000373156 0.549225926 0.169836760
0.031219613 0.594665587 0.152479202
0.251563758 0.635152876 0.076947957
0.497241646 0.719302118 0.012453998
0.728229344 0.764920175 0.074785240
0.009578662 0.796658933 0.256820083
0.039629675 0.843717456 0.245073363
0.251062274 0.863725841 0.181045070
0.486855119 0.927361012 0.166840166
0.694015682 0.945604503 0.261042982
0.007291056 0.002090709 0.130748495
0.089186199 0.011557124 0.108585201
0.273750484 0.020399231 0.099485233
0.444868922 0.018574608 0.067028217
0.610512137 0.019589784 0.019761186
0.000274491 0.133142039 0.208420530
0.051937729 0.141847998 0.235902920
0.303608119 0.166586593 0.111763954
0.500313163 0.194532424 0.062543765
0.714176297 0.200631097 0.016381254
0.000000000 0.330740511 0.232749343
0.019517073 0.359268457 0.244174197
0.264540493 0.374850720 0.163175300
0.556442201 0.443781316 0.066475011
0.803059936 0.475369364 0.011431073
0.000000000 0.539727509 0.305987477
0.011290320 0.583386123 0.317902714
0.222689778 0.584692717 0.238802284
0.505149841 0.692510366 0.208937705
0.761806309 0.759698570 0.162960127
0.000039280 0.792557538 0.403539032
0.015800003 0.836728871 0.409299254
0.211030141 0.840440452 0.346337914
0.487859637 0.901103675 0.313754201
0.717383981 0.944971859 0.337976664
0.021490211 0.001169505 0.241812140
0.034958646 0.007154047 0.265736789
0.247384325 0.000000000 0.239358515
0.400042713 0.011042262 0.213791981
0.604855835 0.000000000 0.203955010
0.000407761 0.136013970 0.295776695
0.011443230 0.149967924 0.317655712
0.199343830 0.145542130 0.285470694
0.453501344 0.162705719 0.257697374
0.690633953 0.144903675 0.247215956
0.000000000 0.317423671 0.348529607
0.011290320 0.314006627 0.438152373
0.097143754 0.314713985 0.517203212
0.529392064 0.378091067 0.322141469
0.783243358 0.431511909 0.309479207
0.000000000 0.536941588 0.439059943
0.011290320 0.568073034 0.466617018
0.113667920 0.592866242 0.472783387
0.515161157 0.662420273 0.429117292
0.804989100 0.730888844 0.384275287
0.000000000 0.786647260 0.541501284
0.011290320 0.819601476 0.560852945
0.080869824 0.846828163 0.561529160
0.468065798 0.870406330 0.510750532
0.741594136 0.939656317 0.497152478
0.058779184 0.000000000 0.376374125
0.076637685 0.000000000 0.396425456
0.104640588 0.000000000 0.415639609
0.360499829 0.000000000 0.376021296
0.558080614 0.000000000 0.378277719
0.007581912 0.110652916 0.406747878
0.019406710 0.125097379 0.430065870
0.031849712 0.141587645 0.459178746
0.373680681 0.141604468 0.438502401
0.634270072 0.138322324 0.443577170
0.000000000 0.299736619 0.471135080
0.011290320 0.324746817 0.514546633
0.022580640 0.351873785 0.547951698
0.387227535 0.361818522 0.537056267
0.700595438 0.404216498 0.529217422
0.000000000 0.528269470 0.573893189
0.011290320 0.562671542 0.618765950
0.022580640 0.594136059 0.646414995
0.387080073 0.610867977 0.747004449
0.756892383 0.654837072 0.624390781
0.000000000 0.780996025 0.687201142
0.011290320 0.809314132 0.710811794
0.022580640 0.836461067 0.727262080
0.346048594 0.857961774 0.718527257
0.756903768 0.930611253 0.718756437
0.089068964 0.000000000 0.482610792
0.107406862 0.000000000 0.504036903
0.126013771 0.000000000 0.529904664
0.182789043 0.000000000 0.550957322
0.500697374 0.000000000 0.533269942
0.026228566 0.078028843 0.513471663
0.039358940 0.094262026 0.545094490
0.053496584 0.111999311 0.581939280
0.123413786 0.120061375 0.613608837
0.557848275 0.087388560 0.609898269
0.002632205 0.280427188 0.598295987
0.016694084 0.305053443 0.642626166
0.029069267 0.335076272 0.684650302
0.051953144 0.366147101 0.713641644
0.606344819 0.391783565 0.718136311
0.000000000 0.523368716 0.713316619
0.011290320 0.557518840 0.763970315
0.022580640 0.589333296 0.795367122
0.057851169 0.620911479 0.812091589
0.616803706 0.644528866 0.819369137
0.000000000 0.769018650 0.820385277
0.011290320 0.796563625 0.849745929
0.022580640 0.824022651 0.867293954
0.047782935 0.855322421 0.883100867
0.644897342 0.917108595 0.922688723
