Desert Affinity Presets/Desert Affinity Preset #21.cube
TITLE "32x32x32 Adobe/IRIDAS cube 3D LUT exported with GrossGrade v0.1.027.1 (beta) 64 bit"
LUT_3D_SIZE 5
DOMAIN_MIN 0.000000 0.000000 0.000000
DOMAIN_MAX 0.903226 0.903226 0.903226
0.002087435 0.001710532 0.002957198
0.191167250 0.022541353 0.028010186
0.448992729 0.004995067 0.019321883
0.693963945 0.000000000 0.000000000
0.934906363 0.017505616 0.055776637
0.031416290 0.146358564 0.027944248
0.173651561 0.167056948 0.045004200
0.384544283 0.162751973 0.029535010
0.650185645 0.134807646 0.013389691
0.922404051 0.119905084 0.057394620
0.014038287 0.341996163 0.035578024
0.152438477 0.358976692 0.039433531
0.391237944 0.383224189 0.052968647
0.683227599 0.391235799 0.009962996
0.935509264 0.416814208 0.080849245
0.003653004 0.563761115 0.026339855
0.160908982 0.589767754 0.025671594
0.420757651 0.624951661 0.051036932
0.713533342 0.669867873 0.078732833
0.962475538 0.681653619 0.093414679
0.024022296 0.817691147 0.062229298
0.187978968 0.844153225 0.070516795
0.461267948 0.865818322 0.101289272
0.732128799 0.899614275 0.165419221
0.976048529 0.930394053 0.283649415
0.003669374 0.024449769 0.112487569
0.108472407 0.001106379 0.177204192
0.419933438 0.000000000 0.146886602
0.688813567 0.000000000 0.154303446
0.942735791 0.020476410 0.198451161
0.013112371 0.169424996 0.089662209
0.107864529 0.142453775 0.147907540
0.401166648 0.127705917 0.137145683
0.706513047 0.036047287 0.152373135
0.966863692 0.132874548 0.229754925
0.008019608 0.355648428 0.064102799
0.132669315 0.317330390 0.129813850
0.392271101 0.361402214 0.181418508
0.692233324 0.375485331 0.194702089
0.965147674 0.404060602 0.262376904
0.005483712 0.577768624 0.048536342
0.151740849 0.549582183 0.128302917
0.414790660 0.592296064 0.206651628
0.719200492 0.662542939 0.274199188
0.972572267 0.681829691 0.309811145
0.027936235 0.829800665 0.078996792
0.189706445 0.815351665 0.159506738
0.461074263 0.835290194 0.236894131
0.732086301 0.887827218 0.317111313
0.979442716 0.933724463 0.440645635
0.008322618 0.033847887 0.243881434
0.079152964 0.000000000 0.392988890
0.148453325 0.000000000 0.425515950
0.598178625 0.000000000 0.384449154
0.909585297 0.000000000 0.458458781
0.000045826 0.203205273 0.202341914
0.011290320 0.173486441 0.323734581
0.188673466 0.107296959 0.383304000
0.638075292 0.017533448 0.384088129
0.950283647 0.024684705 0.478415698
0.000786995 0.382794261 0.149919882
0.011290320 0.384070784 0.275780559
0.238205224 0.332271725 0.353598893
0.675227642 0.320512652 0.397667825
0.981895924 0.355256617 0.492358416
0.006255754 0.609463573 0.122926623
0.042739749 0.600931108 0.263376236
0.375185072 0.560521245 0.347886413
0.686497808 0.636079848 0.472755879
0.969554543 0.661060810 0.520688474
0.034964968 0.856075704 0.150886476
0.110523194 0.831073940 0.275660157
0.435986459 0.812717080 0.377476573
0.694385290 0.853767693 0.489548832
0.978158593 0.933744609 0.607799947
0.032231756 0.027811902 0.393804342
0.117348462 0.000216974 0.531153202
0.149153948 0.000000000 0.638932407
0.260532796 0.000000000 0.648498654
0.786526978 0.000000000 0.677778602
0.000000000 0.207637370 0.332682729
0.014340100 0.173835754 0.454501778
0.060317203 0.110912494 0.603976011
0.424186587 0.011290320 0.642479777
0.856294751 0.011290320 0.704382956
0.000000000 0.408139944 0.265090764
0.011290320 0.399951011 0.411911637
0.022580640 0.378538758 0.560281694
0.446393490 0.311442733 0.668765962
0.909483135 0.277854741 0.724055648
0.001472989 0.639844775 0.250522435
0.011290320 0.639889657 0.403530121
0.023940478 0.630026519 0.538338721
0.479416966 0.602536738 0.646610975
0.933434188 0.592266679 0.709997654
0.046830267 0.877855420 0.253310442
0.048290391 0.883474350 0.412380517
0.243825719 0.834451795 0.500961244
0.624344885 0.812772453 0.612692058
0.961149454 0.926715255 0.789180696
0.078770265 0.013730155 0.527822196
0.141964629 0.000000000 0.674063027
0.169082254 0.000000000 0.819295049
0.183238536 0.000000000 0.855157852
0.523232102 0.000000000 0.866318643
0.000000000 0.208293855 0.461221308
0.035260294 0.172626868 0.598905027
0.100218825 0.098902352 0.758942962
0.183262348 0.016956413 0.856109679
0.651849151 0.011290320 0.876954615
0.000000000 0.427506447 0.410333663
0.011290320 0.411454558 0.560564339
0.023588829 0.398698360 0.715861976
0.094139077 0.352669299 0.873343766
0.707111537 0.098970778 0.914499283
0.000000000 0.666288316 0.391612947
0.011290320 0.670332968 0.543947756
0.022580640 0.663397014 0.694479823
0.033870984 0.641869903 0.830874383
0.708421469 0.560164571 0.960363805
0.054894704 0.900865436 0.389790475
0.026803933 0.911766469 0.551031172
0.022580640 0.905658424 0.685834646
0.195678741 0.881683826 0.786237597
0.729753911 0.880294561 0.930583477
