Desert Affinity Presets/Desert Affinity Preset #30.cube
TITLE "32x32x32 Adobe/IRIDAS cube 3D LUT exported with GrossGrade v0.1.027.1 (beta) 64 bit"
DOMAIN_MIN 0 0 0
DOMAIN_MAX 1 1 1
LUT_3D_SIZE 32
0.002087435 0.001710532 0.002957198
0.022273503 0.005247574 0.007842373
0.042543352 0.008974471 0.012905707
0.062524147 0.012921629 0.017242409
0.082198225 0.016630700 0.020343577
0.101393551 0.019709071 0.023870330
0.121700063 0.021615991 0.026084069
0.143315896 0.023162823 0.028067661
0.165810645 0.024827518 0.030476812
0.191574082 0.026123283 0.033055715
0.219383344 0.027005222 0.035298403
0.248792782 0.026565233 0.036774699
0.279890239 0.024788292 0.037382565
0.312039077 0.021715123 0.037503634
0.343573630 0.017605748 0.037336260
0.374567121 0.013264834 0.036725588
0.404236764 0.009299442 0.035820257
0.431541651 0.006623771 0.034501124
0.456367761 0.005280778 0.032801799
0.480622798 0.004796798 0.030891551
0.505144894 0.004826726 0.029056646
0.531130731 0.004383893 0.027262457
0.560557306 0.002094447 0.025648240
0.591500878 0.000433010 0.024136867
0.622618437 0.000043956 0.022300120
0.653403759 0.000002806 0.021103038
0.683191359 0.000000000 0.020224826
0.712494075 0.000000000 0.019434992
0.741011798 0.000000000 0.018853348
0.769221246 0.000000000 0.019370934
0.797465742 0.000000000 0.021360159
0.825800359 0.000000000 0.026310345
0.014622832 0.021861155 0.008085069
0.031459358 0.025624977 0.011150318
0.054952923 0.028308121 0.014656942
0.077833958 0.029623060 0.017440170
0.098520838 0.031456597 0.020732166
0.118934140 0.032648042 0.023254011
0.139866859 0.033653449 0.025774980
0.161892533 0.035164271 0.028283214
0.186676800 0.036523215 0.030690026
0.214024201 0.037451398 0.033005189
0.243272886 0.037213851 0.034681123
0.274855137 0.035535116 0.035371356
0.307476401 0.032565258 0.035179187
0.339185536 0.028404895 0.034376260
0.370041519 0.023978909 0.033225451
0.399635494 0.019594563 0.032056883
0.427454948 0.016356327 0.030695166
0.453036100 0.014392323 0.028949119
0.477816492 0.013459457 0.026995899
0.502850890 0.013023165 0.025027685
0.529110372 0.011788186 0.023269020
0.558666646 0.008431668 0.021706274
0.589895546 0.004661758 0.020204701
0.621120334 0.002852082 0.018473158
0.651892245 0.001838762 0.017272312
0.681936026 0.001612904 0.016902907
0.711430192 0.001612904 0.016677478
0.740098774 0.001612904 0.016470363
0.768382788 0.001612904 0.017335931
0.796754122 0.001612904 0.019391021
0.825272918 0.001612904 0.024551699
0.853909791 0.001612904 0.031737067
0.026887417 0.041391194 0.013012759
0.039405093 0.043762449 0.015926519
0.059050206 0.046843987 0.017599605
0.083214298 0.047428533 0.018815910
0.107315160 0.047499616 0.020664843
0.130737543 0.047958340 0.022649853
0.153950617 0.048659790 0.025372295
0.179315165 0.049788129 0.027993284
0.206881702 0.050911348 0.030361349
0.236358702 0.051193271 0.031875461
0.267979175 0.049899880 0.032476816
0.301101238 0.047009110 0.032396384
0.333345026 0.042584524 0.031655673
0.364710689 0.037717558 0.030318327
0.394557238 0.032911405 0.028518943
0.423059225 0.028922170 0.026449276
0.449791282 0.026029507 0.024074687
0.475613296 0.024197880 0.021891858
0.501455128 0.022867039 0.019906394
0.528315604 0.020724421 0.018025627
0.558143377 0.016548628 0.016340349
0.589638233 0.011616701 0.014774283
0.621041775 0.007920664 0.013321883
0.651989400 0.004638005 0.012786030
0.682273865 0.003369834 0.012695288
0.711737216 0.003225807 0.012852406
0.740541220 0.003225807 0.013029148
0.769017339 0.003225807 0.014381027
0.797649801 0.003225807 0.016653614
0.826170146 0.003225807 0.021828232
0.855006874 0.003225807 0.028741496
0.884187460 0.003438104 0.041072518
0.036977638 0.059542160 0.017020250
0.048983220 0.061751641 0.019605236
0.065803960 0.064794913 0.021238167
0.087286308 0.066900142 0.021918057
0.112524197 0.067623504 0.022144878
0.138197541 0.068358615 0.022983721
0.163413122 0.069054417 0.025445728
0.191659465 0.070153773 0.027630452
0.222195610 0.070788808 0.029567741
0.254900515 0.070429228 0.030537125
0.288654715 0.068201482 0.030205166
0.321123034 0.064384833 0.028780812
0.353304237 0.059520207 0.027127804
0.383951426 0.054505974 0.025182985
0.413663387 0.049758743 0.022959922
0.442171782 0.045717172 0.020603582
0.470082164 0.042557038 0.018065836
0.497782677 0.039988909 0.015518266
0.526242316 0.037054595 0.013129230
0.556801319 0.032137584 0.010957632
0.588802099 0.025973972 0.009158711
0.620731473 0.018585691 0.007798886
0.652133346 0.011126283 0.007827875
0.682786822 0.006039549 0.008342721
0.712685585 0.004838713 0.009100287
0.741657197 0.004838713 0.009826032
0.770273149 0.004838713 0.011388745
0.799139142 0.004838713 0.013669793
0.828026712 0.004838713 0.019134777
0.857068598 0.004893423 0.026485251
0.886613667 0.006401476 0.039894536
0.915908933 0.011215574 0.056276035
0.046412215 0.076612554 0.020080339
0.058663335 0.079092324 0.022401128
0.074945830 0.082314201 0.024248626
0.093136184 0.085875556 0.025776364
0.117563978 0.088382952 0.025124019
0.144337967 0.089673094 0.024710177
0.172193408 0.090831816 0.025587430
0.201559320 0.091857292 0.027275078
0.233776927 0.092326775 0.028734021
0.268390208 0.091636047 0.029098757
0.301872969 0.089167036 0.027939040
0.335128963 0.085370064 0.025797371
0.367475808 0.081056796 0.023375154
0.398557931 0.076504081 0.020518031
0.428717583 0.072487272 0.017709525
0.458343327 0.068971314 0.014870662
0.488376200 0.065791525 0.012298755
0.519656062 0.062299382 0.009830208
0.551836848 0.057567105 0.007689468
0.584731042 0.051570389 0.005883069
0.617599666 0.042326581 0.004252024
0.650110006 0.029398434 0.003797032
0.681916952 0.014279501 0.004388102
0.712388992 0.007469143 0.005370564
0.742045462 0.006451614 0.006479742
0.771398664 0.006451614 0.008221139
0.800693750 0.006451614 0.010523706
0.829913855 0.006451614 0.016241692
0.859240830 0.006928581 0.024452996
0.889276564 0.010824276 0.038854547
0.919449687 0.028118499 0.056666024
0.946689427 0.050877385 0.077273801
0.056081068 0.094149113 0.022769105
0.069072001 0.096962810 0.024788281
0.084085815 0.100291282 0.026870117
0.102455780 0.104777195 0.028366938
0.124285899 0.108931281 0.028691463
0.150508031 0.111553498 0.027817484
0.180317238 0.113437496 0.026352908
0.210954070 0.114601374 0.026383808
0.242924958 0.114710718 0.026824271
0.277612537 0.113691956 0.026586741
0.309669048 0.110730954 0.024630241
0.343390971 0.107312255 0.022229040
0.376664460 0.103508532 0.019500975
0.409131795 0.099819444 0.016547987
0.441105366 0.096207209 0.013238628
0.473159164 0.093058757 0.010119639
0.506737590 0.089841090 0.007387856
0.541615844 0.085562371 0.005198953
0.576525450 0.080214754 0.003656753
0.610289276 0.072436415 0.002697671
0.643767297 0.058249436 0.002456848
0.677226186 0.037245601 0.002662131
0.709566534 0.018036418 0.002888925
0.740275681 0.011727341 0.003856888
0.770527363 0.011364944 0.005633361
0.800627112 0.011658133 0.008161752
0.830703080 0.012488158 0.013388743
0.860753000 0.013533279 0.022652660
0.891254783 0.020196777 0.037572365
0.922095895 0.046166219 0.056640301
0.948999643 0.080308147 0.078991942
0.968509257 0.127121389 0.108396642
0.066029124 0.112612858 0.025483146
0.078710474 0.115558133 0.027736152
0.093758970 0.119396411 0.029693566
0.112008303 0.124286458 0.031281613
0.133067593 0.129563004 0.032298651
0.157822087 0.133764908 0.031909596
0.187854052 0.136680931 0.028706934
0.219655469 0.137843087 0.025817987
0.251302093 0.137697399 0.024701321
0.284291923 0.136117518 0.023399442
0.316058457 0.133324817 0.021181064
0.349122167 0.130546257 0.018690087
0.383137167 0.127431855 0.015875084
0.416971743 0.124497056 0.012928646
0.450919330 0.121626697 0.009477627
0.485648662 0.118838176 0.006454497
0.523112416 0.115759388 0.003624485
0.561279178 0.111240767 0.001949020
0.597923815 0.104908198 0.001478602
0.632929265 0.094701111 0.001451010
0.667293906 0.078341074 0.001640860
0.701517105 0.056832671 0.001889630
0.734677136 0.040810287 0.002291782
0.766691923 0.036115915 0.003334096
0.798124373 0.036330093 0.005550589
0.829219103 0.039002959 0.010292212
0.860350013 0.045072634 0.019489277
0.891766787 0.054228555 0.034941614
0.923085392 0.076873124 0.055396929
0.950061858 0.108122937 0.079046585
0.968525529 0.149795637 0.111131698
0.976567984 0.205021560 0.163361177
0.075597480 0.131925166 0.028285118
0.088698775 0.135390326 0.030576909
0.104361728 0.140004620 0.032352898
0.122521728 0.145193905 0.034027919
0.143097505 0.150820598 0.035275523
0.167420626 0.156652763 0.035223119
0.196018875 0.160733640 0.032384675
0.227393895 0.161949292 0.026157031
0.258982301 0.161134645 0.021624373
0.290863723 0.159170181 0.019412106
0.322832763 0.156561419 0.016886996
0.355490148 0.154375777 0.014394119
0.389161944 0.152055651 0.011799328
0.423768878 0.149932474 0.009190524
0.459332079 0.148140669 0.006089287
0.497709394 0.145910740 0.003479995
0.538077176 0.142847583 0.001672663
0.578493834 0.137949422 0.000693006
0.616201818 0.130462155 0.000821600
0.652552009 0.119473249 0.001115263
0.688166976 0.104658090 0.001391155
0.723640084 0.088544123 0.001646473
0.758148968 0.076383777 0.002165528
0.791283548 0.072048619 0.003585677
0.823711038 0.074730270 0.007168547
0.856044829 0.081617229 0.015441591
0.888380408 0.093477935 0.030123301
0.920515597 0.112715065 0.050970979
0.948389888 0.136834800 0.075502962
0.967516124 0.170843095 0.109216012
0.975869179 0.220638543 0.162757948
0.982223570 0.269633889 0.223320365
0.085978545 0.153106615 0.030690517
0.099696174 0.157342494 0.032733057
0.115194552 0.162178904 0.034730271
0.132981032 0.167673945 0.036622714
0.153644830 0.173647925 0.038030703
0.177706257 0.180046052 0.038170043
0.203835100 0.184826314 0.036083553
0.233478427 0.186136216 0.028597044
0.266075671 0.185649008 0.019554274
0.297162205 0.183778599 0.015302693
0.329572529 0.181537807 0.012445614
0.362651914 0.179725066 0.009779729
0.396122545 0.178215593 0.007357436
0.430527091 0.176648229 0.005176499
0.467486888 0.175473124 0.003090940
0.508610249 0.173915744 0.001254145
0.551163852 0.170751199 0.000438623
0.592732668 0.165248290 0.000444234
0.631557524 0.157255784 0.000747249
0.669174850 0.146933869 0.000922606
0.706253350 0.135888755 0.001053536
0.742866457 0.126307487 0.001358420
0.778865039 0.121416137 0.001875605
0.813231647 0.121115260 0.004131851
0.846758127 0.124893449 0.009967701
0.880240440 0.132316500 0.022111623
0.913760424 0.145061135 0.043448914
0.943963468 0.163040116 0.068186678
0.965070546 0.189617425 0.100622222
0.974555194 0.232016131 0.153095916
0.980953038 0.278644502 0.216109872
0.985351384 0.309516698 0.257213175
0.096373521 0.176221341 0.033115547
0.110485077 0.180942863 0.035127733
0.125997454 0.186115757 0.037089825
0.143449411 0.191475287 0.038878016
0.163593680 0.197217330 0.039918903
0.186627463 0.203183085 0.039889891
0.211115822 0.207754061 0.037916545
0.238261014 0.209864289 0.031420950
0.270787507 0.210260898 0.020057904
0.303968757 0.209801346 0.010493742
0.336384684 0.208297119 0.007574872
0.369951367 0.206843644 0.005118052
0.404128045 0.205797836 0.003037161
0.438529670 0.204673707 0.001521619
0.476207823 0.203255236 0.000786995
0.518304944 0.201816261 0.000314705
0.562292039 0.198853880 0.000279166
0.604889572 0.193766326 0.000425062
0.644549310 0.186589807 0.000505024
0.682827413 0.177880779 0.000571426
0.721150696 0.170496821 0.000597145
0.758976996 0.166003376 0.000824874
0.796083987 0.164657027 0.001665646
0.831768036 0.166091338 0.004722913
0.866870522 0.171116665 0.013082923
0.901617229 0.179521590 0.031299781
0.934761345 0.192190230 0.056912925
0.961036026 0.210509211 0.085674115
0.972694576 0.242790088 0.133144483
0.979269981 0.285316527 0.198810667
0.984172106 0.320013642 0.250551999
0.986235142 0.324777544 0.257494837
0.106409371 0.201230183 0.035003774
0.120916747 0.206332728 0.036856003
0.136604548 0.211605102 0.038518824
0.153490618 0.216637895 0.039829593
0.172531888 0.221576050 0.040773727
0.193839699 0.226653069 0.040777933
0.217528015 0.230801165 0.038338359
0.243877620 0.233965307 0.033650037
0.275010467 0.235918611 0.022846723
0.309760660 0.236694664 0.009352770
0.343310744 0.236627921 0.003341110
0.377354413 0.235960826 0.001783953
0.412604690 0.235050619 0.000846853
0.448413730 0.234108984 0.000025251
0.486360401 0.232309446 0.000000000
0.527581334 0.230170801 0.000030395
0.571648300 0.227708459 0.000138881
0.614967227 0.223386943 0.000288518
0.655523717 0.217482969 0.000266073
0.694689095 0.211450279 0.000210427
0.733826339 0.207201391 0.000262800
0.772479773 0.205628648 0.000385315
0.810682893 0.206469253 0.001454285
0.847969055 0.209216118 0.005916269
0.884461999 0.215123832 0.016380537
0.920209646 0.224136516 0.040705368
0.951094091 0.236471102 0.068553753
0.969901145 0.257967412 0.107955113
0.977388203 0.292019963 0.169155687
0.982808650 0.330038011 0.236322775
0.985615253 0.342443764 0.256598353
0.987302959 0.343157291 0.257800132
0.115205854 0.227447510 0.036120452
0.129796892 0.232547238 0.037691638
0.145424619 0.237391666 0.038898077
0.162055492 0.242074013 0.039699610
0.180588916 0.246590614 0.040333692
0.201152280 0.250782818 0.040572632
0.224232987 0.254716039 0.038718048
0.250835866 0.258483320 0.034241609
0.280666828 0.261990607 0.026460474
0.314676374 0.264001161 0.012844430
0.350430578 0.265158683 0.001386948
0.385909081 0.265424490 0.000102875
0.422163755 0.265283883 0.000035539
0.459808469 0.264364451 0.000000000
0.498620063 0.262675226 0.000000000
0.538870335 0.260156631 0.000012626
0.581395805 0.257425308 0.000049100
0.624392748 0.253961891 0.000092588
0.665800035 0.249600768 0.000089314
0.705969155 0.246240407 0.000028057
0.745967031 0.244935125 0.000021043
0.785304785 0.245229229 0.000189852
0.824107349 0.247349381 0.001634315
0.862688959 0.251420617 0.005433223
0.900192738 0.257898480 0.021697767
0.935583830 0.266573429 0.049360007
0.963793218 0.279172808 0.081789121
0.974945307 0.303388923 0.133284435
0.980956018 0.336970538 0.205189109
0.985098481 0.362165838 0.253607929
0.986934364 0.364352733 0.257676989
0.988571703 0.364551336 0.258094609
0.121537261 0.253099710 0.035677150
0.136406675 0.257790148 0.036752202
0.152069524 0.262434036 0.037532676
0.169241428 0.267103106 0.038260728
0.188192010 0.271678060 0.038665261
0.209314004 0.275909811 0.038663343
0.232729778 0.279791474 0.038312167
0.258828759 0.283875257 0.034926634
0.287884831 0.287951320 0.028357139
0.320619166 0.291798532 0.017671667
0.357194334 0.293756127 0.005270958
0.394896537 0.295248002 0.000313302
0.433780134 0.296023905 0.000000000
0.472261161 0.295676619 0.000000000
0.511274874 0.294271827 0.000000000
0.551407814 0.291889429 0.000001403
0.592942178 0.288709551 0.000007014
0.635072112 0.285675019 0.000000000
0.676163793 0.282914251 0.000000000
0.717038333 0.282097429 0.000000000
0.757741868 0.283055514 0.000000000
0.797890306 0.285070479 0.000109422
0.837212563 0.288163126 0.002274479
0.876215756 0.292795748 0.006742561
0.914360702 0.299514621 0.027644895
0.948722124 0.307847589 0.057200972
0.971113861 0.321844041 0.097474650
0.979039490 0.346522093 0.160176069
0.984056830 0.377730608 0.235357150
0.986654937 0.387479484 0.256107986
0.988370776 0.388545007 0.258052945
0.989998877 0.388725698 0.258442253
0.127209470 0.279145807 0.034563292
0.142471850 0.283712119 0.035299346
0.159143105 0.288508147 0.035888538
0.176808834 0.293262064 0.036222395
0.196450472 0.297684610 0.036306623
0.218048036 0.301905662 0.036106423
0.241887435 0.305960298 0.035679068
0.267741084 0.309800327 0.034882214
0.296256781 0.314216673 0.029774930
0.328752697 0.319313437 0.020504015
0.365330309 0.323608220 0.009487940
0.405909389 0.325912684 0.001659565
0.446488529 0.327579081 0.000069675
0.485513300 0.327768147 0.000000000
0.524535775 0.326768398 0.000000000
0.564670086 0.324756533 0.000000000
0.606056511 0.321825653 0.000000000
0.647602439 0.319578826 0.000000000
0.688286602 0.318375349 0.000000000
0.728856981 0.319302768 0.000000000
0.769626260 0.321627378 0.000000000
0.810003757 0.324722737 0.000024316
0.849670827 0.328716844 0.001738124
0.888925791 0.333877683 0.010181382
0.927390754 0.340606600 0.033431668
0.960365951 0.348708004 0.065856494
0.975846589 0.363932341 0.114816241
0.982189059 0.388346672 0.188450098
0.986246943 0.411447585 0.250713825
0.988161266 0.414329588 0.258014262
0.989797115 0.414721400 0.258438200
0.991425216 0.414946049 0.258821964
0.132793993 0.305958182 0.032987464
0.149005175 0.310713947 0.033365272
0.166263148 0.315427572 0.033598166
0.184771642 0.320050955 0.033546261
0.204980612 0.324494302 0.033331636
0.227306783 0.328718275 0.033029541
0.251444787 0.332997799 0.032489900
0.277630776 0.337154955 0.031972736
0.306409836 0.341506213 0.030579224
0.339110285 0.347190708 0.023254041
0.376586437 0.353566587 0.011278901
0.417719036 0.357888639 0.003052129
0.460463077 0.359898448 0.000311900
0.499084145 0.360397518 0.000018705
0.538106382 0.359884381 0.000000000
0.578332007 0.358558744 0.000000000
0.619998038 0.356403351 0.000000000
0.661696315 0.355562121 0.000000000
0.702067077 0.355955929 0.000000000
0.741544306 0.357557178 0.000000000
0.781556666 0.360509604 0.000000000
0.821759522 0.364185423 0.000072013
0.861405373 0.368724048 0.000712645
0.900932312 0.374449909 0.013849346
0.939186692 0.380901933 0.038473938
0.969417036 0.389163733 0.075767145
0.979850113 0.404705226 0.133167058
0.984772384 0.427723914 0.214746758
0.987641990 0.440061212 0.253866404
0.989412546 0.441759437 0.258436799
0.991040647 0.442095608 0.258817792
0.992661834 0.442290902 0.259185910
0.138235375 0.333389521 0.031230623
0.155436471 0.338056952 0.031206330
0.173415720 0.342667758 0.030786393
0.193056136 0.347128808 0.030240251
0.214134723 0.351639748 0.029798791
0.236905426 0.356129259 0.029247008
0.261958778 0.360741794 0.028673686
0.289224416 0.365557253 0.028461864
0.318953872 0.370506555 0.028473092
0.352272481 0.376359165 0.025831550
0.389568150 0.383324325 0.015883457
0.430491626 0.389526129 0.004568597
0.472691685 0.392391831 0.000187981
0.512827516 0.393006206 0.000044891
0.551956892 0.392864138 0.000000000
0.592590988 0.392958790 0.000000000
0.634493411 0.392571419 0.000000000
0.676636398 0.392909110 0.000000000
0.716661274 0.394482195 0.000000000
0.755352020 0.396359801 0.000000000
0.793716490 0.399110436 0.000000000
0.832844019 0.402810901 0.000025251
0.872325361 0.407702535 0.001659563
0.911610603 0.413439900 0.014577452
0.949724436 0.419645399 0.043470874
0.974408269 0.428622127 0.087492928
0.982936323 0.443938136 0.153869897
0.986725509 0.463838041 0.236923441
0.988874316 0.469189137 0.256332994
0.990564823 0.470203429 0.258554906
0.992193401 0.470491141 0.258900493
0.993814111 0.470708847 0.259245634
0.144041300 0.360672772 0.029090807
0.161852747 0.365328163 0.028598882
0.181180343 0.369786829 0.027808638
0.201930434 0.374303222 0.027019760
0.223977327 0.379018366 0.026431955
0.247839555 0.383983672 0.025912900
0.274152160 0.389409035 0.025413463
0.303146005 0.395107388 0.025246542
0.334217101 0.401010513 0.025386829
0.367717773 0.406896979 0.025926944
0.404363364 0.413431048 0.021380769
0.444165051 0.420322657 0.009516884
0.485003173 0.424558699 0.002224915
0.526058912 0.425972015 0.000200139
0.566357791 0.426534653 0.000010288
0.607517421 0.427493066 0.000000000
0.649674535 0.429489493 0.000000000
0.691604912 0.431243956 0.000000000
0.731347263 0.433315337 0.000000000
0.769363940 0.435206085 0.000000000
0.806687534 0.437635988 0.000000000
0.844043136 0.440918028 0.000000000
0.882498980 0.445536554 0.002966546
0.921262085 0.451107711 0.013687091
0.958211601 0.457082033 0.048432771
0.977609396 0.466544211 0.100385904
0.984837532 0.481701672 0.178043932
0.988165438 0.495947033 0.246969670
0.990036905 0.498599559 0.257752955
0.991679370 0.499153167 0.258083701
0.993315756 0.499533683 0.258415073
0.994943798 0.499825388 0.258729339
0.150100231 0.387958437 0.026734987
0.168794125 0.392543435 0.025926443
0.189792439 0.397201806 0.025058594
0.212148726 0.402268052 0.024323013
0.235612318 0.407544643 0.023734760
0.261069953 0.413138151 0.023367206
0.288952798 0.419301420 0.023103472
0.319038600 0.425497979 0.022849556
0.351158708 0.431886315 0.022715798
0.385011584 0.438358784 0.022787372
0.420601755 0.444806278 0.022254296
0.458855867 0.451327235 0.015040360
0.498168260 0.456566572 0.005127861
0.539008319 0.459143043 0.000936634
0.580943942 0.460906625 0.000084638
0.622962058 0.463249564 0.000000000
0.665639162 0.466253549 0.000000000
0.706502676 0.469245732 0.000000000
0.745389581 0.471769780 0.000000000
0.782923460 0.473839462 0.000000000
0.819814742 0.476205647 0.000000000
0.856247067 0.479016095 0.000000000
0.892615378 0.482500672 0.001513202
0.930041850 0.487433106 0.015278852
0.964361906 0.493586868 0.052612282
0.980689108 0.503113866 0.113191910
0.986394703 0.517597079 0.203186467
0.989125848 0.526178241 0.249724209
0.990892172 0.527976155 0.256976962
0.992525339 0.528556824 0.257263184
0.994160235 0.528986692 0.257551551
0.995780587 0.529337406 0.257836014
0.156086460 0.415558606 0.024379125
0.177409902 0.420384288 0.023508871
0.200654179 0.425796270 0.022634456
0.224991411 0.431653947 0.021885784
0.250205547 0.437671065 0.021218982
0.276870549 0.443877965 0.020730821
0.305766463 0.450187087 0.020302478
0.336061537 0.456451356 0.020455370
0.368843794 0.462942123 0.020195346
0.402926832 0.469630569 0.020103740
0.438087732 0.476277351 0.019357875
0.474427223 0.482633889 0.016328655
0.512767971 0.488423109 0.008664908
0.552903771 0.493128419 0.001822296
0.595236540 0.496371239 0.000138882
0.638698220 0.499651551 0.000000000
0.681462169 0.503274441 0.000000000
0.721833467 0.506617010 0.000000000
0.759581268 0.509521067 0.000000000
0.796027064 0.512133121 0.000000000
0.832433164 0.514465272 0.000000000
0.868273854 0.516950965 0.000000000
0.903338492 0.519366324 0.000637826
0.938686848 0.522967935 0.016288897
0.968087375 0.529336751 0.058664180
0.982688725 0.539022505 0.126792163
0.987603009 0.552216887 0.224861339
0.989755332 0.556773722 0.251925975
0.991442919 0.558031559 0.255661190
0.993062198 0.558633327 0.255902648
0.994689882 0.559071243 0.256123990
0.996303201 0.559454203 0.256359518
0.166593865 0.444766760 0.022093855
0.190063834 0.450369686 0.021182032
0.215147242 0.456296176 0.020252410
0.240700617 0.462404847 0.019315787
0.266992450 0.468596160 0.018451640
0.294539541 0.474966943 0.017519243
0.323656946 0.481211334 0.016945926
0.354545534 0.487385452 0.017410735
0.387232661 0.493918777 0.017912002
0.421465099 0.500609636 0.017760962
0.456586599 0.507513523 0.017615080
0.491761714 0.514303446 0.016147217
0.528823316 0.521044970 0.011841428
0.568585694 0.527480960 0.004306273
0.610654712 0.532703757 0.000558801
0.654060662 0.536767125 0.000000000
0.696752608 0.540421665 0.000000000
0.737091064 0.543768644 0.000000000
0.773890734 0.546847522 0.000000000
0.809527516 0.549843073 0.000000000
0.844712555 0.552402914 0.000000000
0.879442751 0.554482043 0.000000000
0.913860917 0.556136668 0.001061953
0.947697639 0.558873713 0.017126428
0.971544445 0.564560354 0.063993119
0.983811975 0.574345767 0.147286296
0.988176942 0.584800661 0.234508067
0.990140498 0.587628663 0.252646267
0.991779387 0.588424921 0.253478646
0.993393719 0.589086115 0.253645986
0.995011628 0.589569926 0.253806531
0.996633708 0.589969754 0.253980368
0.182002604 0.475523174 0.019578097
0.206344694 0.481330633 0.018615318
0.231998757 0.487353027 0.017530879
0.258231431 0.493530303 0.016403468
0.285238802 0.499779046 0.015187712
0.313405097 0.505978405 0.014017267
0.342909217 0.512187779 0.013636123
0.374078184 0.518496275 0.014465219
0.406984925 0.525004566 0.015166175
0.441174120 0.531850994 0.015847003
0.475966424 0.539200544 0.016966948
0.510887504 0.547059178 0.017274152
0.546648622 0.554780722 0.014273007
0.585581899 0.562278807 0.009264391
0.626539469 0.568596125 0.002649039
0.669254243 0.573433280 0.000189384
0.712120712 0.577291071 0.000000000
0.751662910 0.580609381 0.000000000
0.788069308 0.583802044 0.000000000
0.822847605 0.586903453 0.000000000
0.856747568 0.589314520 0.000000000
0.890370607 0.591198146 0.000000000
