Desert Affinity Presets/Desert Affinity Preset #26.cube
TITLE "32x32x32 Adobe/IRIDAS cube 3D LUT exported with GrossGrade v0.1.027.1 (beta) 64 bit"
LUT_3D_SIZE 8
DOMAIN_MIN 0.000000 0.000000 0.000000
DOMAIN_MAX 0.903226 0.903226 0.903226
0.002087435 0.001710532 0.002957198
0.095374212 0.016280472 0.025654322
0.203571841 0.021342859 0.040028334
0.346319109 0.008042063 0.049325936
0.468862355 0.000885662 0.049541924
0.596500218 0.000000000 0.051422715
0.732553422 0.000000000 0.058902718
0.861481667 0.000000000 0.086172596
0.064832471 0.073479541 0.018386180
0.145106375 0.079542182 0.028849086
0.265203655 0.080515742 0.043377355
0.407244176 0.059568468 0.044141445
0.544668436 0.036811545 0.045022927
0.690237463 0.006950563 0.053104695
0.823526442 0.006451614 0.078531280
0.952140987 0.056854837 0.140353397
0.128462553 0.147850886 0.029159119
0.220633492 0.160114288 0.025650594
0.332266629 0.157813862 0.029615497
0.460930794 0.153083757 0.035476066
0.622574687 0.131360695 0.043325931
0.778817773 0.073212042 0.064086214
0.925011992 0.116773233 0.119300671
0.979809761 0.289378673 0.285547733
0.195758849 0.236482695 0.035034645
0.294214696 0.244094625 0.008954360
0.413677365 0.250364840 0.003896168
0.555558145 0.250091046 0.013212950
0.709519863 0.239976138 0.033186208
0.862042546 0.249143019 0.080535494
0.971740365 0.307477593 0.196028858
0.984031856 0.360964715 0.298650026
0.263927430 0.328316152 0.030242557
0.380050451 0.343489707 0.003586611
0.518633306 0.354129493 0.000000000
0.664209187 0.360643476 0.000000000
0.809174716 0.377065301 0.023532217
0.949955881 0.404350758 0.111035094
0.982274771 0.458269507 0.285793424
0.989098191 0.461132169 0.306459457
0.362541795 0.437917262 0.021018345
0.492610037 0.456429571 0.000874440
0.635572076 0.469266742 0.000000000
0.774556816 0.490880400 0.000000000
0.903742671 0.512116969 0.029606998
0.977818727 0.549995959 0.228807002
0.985488594 0.563629210 0.286623001
0.992262781 0.567822516 0.305128276
0.483399183 0.556965888 0.014280523
0.613408148 0.580191553 0.001600178
0.753310978 0.598399997 0.000000000
0.872220218 0.617062747 0.000000000
0.966032267 0.639408350 0.106089473
0.979131043 0.662865520 0.268080980
0.985791445 0.671708941 0.283398032
0.992419958 0.677757859 0.302660555
0.608460307 0.685149372 0.035561226
0.735682786 0.706782401 0.021075904
0.851464331 0.717541456 0.000205750
0.952071607 0.733425379 0.055120576
0.972363174 0.756533742 0.271623462
0.978829861 0.771819592 0.282823354
0.985301256 0.784124970 0.298066616
0.991812229 0.793644607 0.318360776
0.081235453 0.013992412 0.029682267
0.117703632 0.019859599 0.034717087
0.205029726 0.022828497 0.052950349
0.334394395 0.009900806 0.065844819
0.450962812 0.000649985 0.069993049
0.568213761 0.000195464 0.076450326
0.702726781 0.000000000 0.088971190
0.829879344 0.000000000 0.115057386
0.024229920 0.078359619 0.049741998
0.091794655 0.079661928 0.061811674
0.205763385 0.084820151 0.078191705
0.342125505 0.073567502 0.085566014
0.476776779 0.056079600 0.089473866
0.624697804 0.015177337 0.101593472
0.764058471 0.006451614 0.124335632
0.901657581 0.007832012 0.173255369
0.091878429 0.158555865 0.035971198
0.175120339 0.165603608 0.055120986
0.281232893 0.168090060 0.074252076
0.409327030 0.163647160 0.083642699
0.575324416 0.148059815 0.096408173
0.731934845 0.092285499 0.119928457
0.877020836 0.093537822 0.171377793
0.974599957 0.213526532 0.273339629
0.160110489 0.251116186 0.042397652
0.248915941 0.256821454 0.040729240
0.360712439 0.263132185 0.044063330
0.500870407 0.268212914 0.067780294
0.655702233 0.259188890 0.091199920
0.817608416 0.261167973 0.131329715
0.963654518 0.292698830 0.215066433
0.984889805 0.366692513 0.341461927
0.226417989 0.346042544 0.035666335
0.331277519 0.356305629 0.028683450
0.467217028 0.373444587 0.009750644
0.612037838 0.382188380 0.030206488
0.760721385 0.395038128 0.076796815
0.906680584 0.416748166 0.146314174
0.982493579 0.463427633 0.300388008
0.989937544 0.473109871 0.348793358
0.321584165 0.454398811 0.026148992
0.445156008 0.472149849 0.022207920
0.580277681 0.487834990 0.006496503
0.728281796 0.509685814 0.006640999
0.860207975 0.531143844 0.065928996
0.970521033 0.555816531 0.180589899
0.986112893 0.580812097 0.322211742
0.992950022 0.583829284 0.347728074
0.445060074 0.572431743 0.017815124
0.567491055 0.596177936 0.019519594
0.703714550 0.617352605 0.006451614
0.830475628 0.635356307 0.007843234
0.944564104 0.655499279 0.085415967
0.979327977 0.681534767 0.294401795
0.985991061 0.690618992 0.320218712
0.992696226 0.696458876 0.347431719
0.572926879 0.701347828 0.036295302
0.691519737 0.722300053 0.060323644
0.810423791 0.737315118 0.016561454
0.919957459 0.749651849 0.027661679
0.972181499 0.772115767 0.267472506
0.978846490 0.790226340 0.308826268
0.985359192 0.804016113 0.334749758
0.991887331 0.814491868 0.365521222
0.169292897 0.019636067 0.048469592
0.202255338 0.021548150 0.046574775
0.270325094 0.019850230 0.057083938
0.373590410 0.006681759 0.068335243
0.471512318 0.001251338 0.075867608
0.585797906 0.000025719 0.087173596
0.711166918 0.000000000 0.103671536
0.832375586 0.000000000 0.135109231
0.129129320 0.045070101 0.098151743
0.186689004 0.069360375 0.081163839
0.236481637 0.084757537 0.085980751
0.339480579 0.076935746 0.098645627
0.459420264 0.063422590 0.109183840
0.598634422 0.028388850 0.127501145
0.736478567 0.006451614 0.156705722
0.871513844 0.007190445 0.206997946
0.035781018 0.155984715 0.088365555
0.122745916 0.151720434 0.094120041
0.204090104 0.166323766 0.120967560
0.345899761 0.165098041 0.128347576
0.492862165 0.158583850 0.146144658
0.655399323 0.122162424 0.177308515
0.808082700 0.093117930 0.222922042
0.954325199 0.151537344 0.295718729
0.088874504 0.272264779 0.049640443
0.192771673 0.269272864 0.069110096
0.296637863 0.264710814 0.096264057
0.442546427 0.279944122 0.126667202
0.601535857 0.273065627 0.155952096
0.767769992 0.267698318 0.202584222
0.924657643 0.286423415 0.274982929
0.985327244 0.366506964 0.388262451
0.155547112 0.370785803 0.040801171
0.282659471 0.373355180 0.043801386
0.405708641 0.381390691 0.069530018
0.548628867 0.394071698 0.090449214
0.709037840 0.411549270 0.144804180
0.854945004 0.427918524 0.217238426
0.979031444 0.455474079 0.311429501
0.990650356 0.481729954 0.399226904
0.254829884 0.476766735 0.030808240
0.399242848 0.488627285 0.029380115
0.526595175 0.503186226 0.035758369
0.671615064 0.523481727 0.043260798
0.811454535 0.547751725 0.128563717
0.941764414 0.567782879 0.224741712
0.986754954 0.596217930 0.365853995
0.993666828 0.598240256 0.399542272
0.384051383 0.591918468 0.017554127
0.526823521 0.611891150 0.029962303
0.653858781 0.633947551 0.027609741
0.785534501 0.652211905 0.025925364
0.902854621 0.670998752 0.120817058
0.978855968 0.696433663 0.299676269
0.986260474 0.709070146 0.367741585
0.992985427 0.714263082 0.401608258
0.522419274 0.722014189 0.035133637
0.652972698 0.737685382 0.067426242
0.770383954 0.755254447 0.064768732
0.880409420 0.766798615 0.046103895
0.968660772 0.785052955 0.183188692
0.978898168 0.807140052 0.344172239
0.985400558 0.824320078 0.384929150
0.991909981 0.836243808 0.425162882
0.290709108 0.013342941 0.065523863
0.322732300 0.013716067 0.056076176
0.371931911 0.007611373 0.057469714
0.438773692 0.001425289 0.064606905
0.517512321 0.001340185 0.074079365
0.627573967 0.000000000 0.090234570
0.740772963 0.000000000 0.111396007
0.855755329 0.000000000 0.149705261
0.282279670 0.019437740 0.117464885
0.318844348 0.037266951 0.094825588
0.344113410 0.063912623 0.087649554
0.404087454 0.069243431 0.096575879
0.502227902 0.060143173 0.112582855
0.627240062 0.018826576 0.136623308
0.753188074 0.006451614 0.173209071
0.881190538 0.008114457 0.229865015
0.095256090 0.119368255 0.211548299
0.252450019 0.123487361 0.160993546
0.324550509 0.144764781 0.131178617
0.374777526 0.163925767 0.133639023
0.488808006 0.160719141 0.161895216
0.635006666 0.132268324 0.200245738
0.781932533 0.100131713 0.250764966
0.924336433 0.141627833 0.322961777
0.010924887 0.283962101 0.157721356
0.134339452 0.240253299 0.126623631
0.246142268 0.249198064 0.140444353
0.347763538 0.274037272 0.184929043
0.522317708 0.274292290 0.212444708
0.684811771 0.266781151 0.255615234
0.846700311 0.279348046 0.321115464
0.977124453 0.314930707 0.396831214
0.060857762 0.393263340 0.052522276
0.180887356 0.387416929 0.080250025
0.327240676 0.388939142 0.117921770
0.474144638 0.395684332 0.158313587
0.648349166 0.424276799 0.228146017
0.803522587 0.437893927 0.293139309
0.953952909 0.452703029 0.366912752
0.991193473 0.486343324 0.457038105
0.151989847 0.505054355 0.038039826
0.314384758 0.511038184 0.043618932
0.468332350 0.515545785 0.088707767
0.603982508 0.529809177 0.129559442
0.754055858 0.556835771 0.206196368
0.893369317 0.583979368 0.304270536
0.986414611 0.606381774 0.406834722
0.994184613 0.610078692 0.457955331
0.289744437 0.617138863 0.027599370
0.460671335 0.634000182 0.028631406
0.603415132 0.648648322 0.071229719
0.734097004 0.665750861 0.112310156
0.852133393 0.681991756 0.182548791
0.967279434 0.708600819 0.308017403
0.986536562 0.726763666 0.424499780
0.993253648 0.731827199 0.464331955
0.442225963 0.746911764 0.032298941
0.596601784 0.759029210 0.064742468
0.728315175 0.771734953 0.098757274
0.838371694 0.783385813 0.115561396
0.942919254 0.797373831 0.188858867
0.978952944 0.821749866 0.386856675
0.985423923 0.843937933 0.443733662
0.991845965 0.857602417 0.490831882
0.407595783 0.001084400 0.072932713
0.434364825 0.002769689 0.060311291
0.466324240 0.003414060 0.055486009
0.515357673 0.003085328 0.058881812
0.593153000 0.000007014 0.069258198
0.687673569 0.000000000 0.086618416
0.787384748 0.000000000 0.114981577
0.894695699 0.000000000 0.161990911
0.400709242 0.006502117 0.125440612
0.434216350 0.013454619 0.101841122
0.460929692 0.029886145 0.090378955
0.503403425 0.046099272 0.093445137
0.581681967 0.038141429 0.110434547
0.684256911 0.007239080 0.136707231
0.794057548 0.006451614 0.182079256
0.913644850 0.009766070 0.248712748
0.306687891 0.079038963 0.208407283
0.399093449 0.087774046 0.174992964
0.447428286 0.120397754 0.147579089
0.489191562 0.147801533 0.141239867
0.569132924 0.150799528 0.165517703
0.681680202 0.122718625 0.208358571
0.809062362 0.108834945 0.266618967
0.940422952 0.156545833 0.343980789
0.031899318 0.217077941 0.312768638
0.235403001 0.199170306 0.268477172
0.409835756 0.215295985 0.245210007
0.490917146 0.245524600 0.208940014
0.553306699 0.269614160 0.219738021
0.677903295 0.268060714 0.271349370
0.823532045 0.280665755 0.340978533
0.962076604 0.311419547 0.419188470
0.000065934 0.398675263 0.208295912
0.077566043 0.380530119 0.214138448
0.274401367 0.355776876 0.185694471
0.431110144 0.376300961 0.207875296
0.541449606 0.414604872 0.292962879
0.722591460 0.426112473 0.344609171
0.874419987 0.440549374 0.410594136
0.990093470 0.476175278 0.493055403
0.041826807 0.531875432 0.084473900
0.183991462 0.517167389 0.107609659
0.350910902 0.524095118 0.144785300
0.519093990 0.540314794 0.203453630
0.675240934 0.553420722 0.273365557
0.835984290 0.596500337 0.380435377
0.973310888 0.609244704 0.451148689
0.994439185 0.615764439 0.518766880
0.179578975 0.652398109 0.046007939
0.347999781 0.657260478 0.047052085
0.518900275 0.667195439 0.114699230
0.671051443 0.679355979 0.189901650
0.796342254 0.690292358 0.263235271
0.918704331 0.715347230 0.365174115
0.986740649 0.744185925 0.487601429
0.993336618 0.749442041 0.532415748
0.324105352 0.774063706 0.051009506
0.508196175 0.786303818 0.060228050
0.662090123 0.792431951 0.121355265
0.791396499 0.800135076 0.195217043
0.899975777 0.810164928 0.253201157
0.978194058 0.831608951 0.400179356
0.985348225 0.860800624 0.504765034
0.991677165 0.877386451 0.557155430
0.506732702 0.001848016 0.078079231
0.537436724 0.001221881 0.062354736
0.573022425 0.000289922 0.054299567
0.621490538 0.000015431 0.054769531
0.684604764 0.000000000 0.062324308
0.760678887 0.000000000 0.083214641
0.848402977 0.000000000 0.120455891
0.944520652 0.028058728 0.180080548
0.508419275 0.006451614 0.140275255
0.545616388 0.006572260 0.114124365
0.579547584 0.007599610 0.099280439
0.621656537 0.009922725 0.097795255
0.681123137 0.007594936 0.110525623
0.759529114 0.006468447 0.139249474
0.854989886 0.006908007 0.189863473
0.959311783 0.066044912 0.269690603
0.478648126 0.016998136 0.232320011
0.544405937 0.023398867 0.200652242
0.587151408 0.055076979 0.172937304
0.626558363 0.091143765 0.160222411
0.681495368 0.102445558 0.173754662
0.764590502 0.105499469 0.215524927
0.867750108 0.126610443 0.280293196
0.969240308 0.188213617 0.362650603
0.311107844 0.148394987 0.340713888
0.474705696 0.155710518 0.318869889
0.578197420 0.157725275 0.282056600
0.631313562 0.203143612 0.248186976
0.675954700 0.246569470 0.242169127
0.755161464 0.270784378 0.285018474
0.869787991 0.291378856 0.357525557
0.976531327 0.324291438 0.436981767
0.000254383 0.335620552 0.398056835
0.202931479 0.314103693 0.381258905
0.421972781 0.323780358 0.385750324
0.600489736 0.337679088 0.371032089
0.687309027 0.383674085 0.332954824
0.748421669 0.421830297 0.353277296
0.864129305 0.438442677 0.423750758
0.987249494 0.466472268 0.503974736
0.000061725 0.529578269 0.278536946
0.067187317 0.517130971 0.294443905
0.238055602 0.493464470 0.286361784
0.476293385 0.504660666 0.283596575
0.645207524 0.527532935 0.312257200
0.738280356 0.581958950 0.437589645
0.893858910 0.592641056 0.496379077
0.994170606 0.612650692 0.566244781
0.052313536 0.674360991 0.134569243
0.208759472 0.653675020 0.154460236
0.381357074 0.667668641 0.196689948
0.553656340 0.689022481 0.257939428
0.715328157 0.703843415 0.335318804
0.846484780 0.709224164 0.414904982
0.979779899 0.759417593 0.546344101
0.993677318 0.764459550 0.600247979
0.204776466 0.809040606 0.079868786
0.377073973 0.805099487 0.104719214
0.552901566 0.812513828 0.167028576
0.710047185 0.819438040 0.241485521
0.842523992 0.825417638 0.320143253
0.954784930 0.836866021 0.407229662
0.985335350 0.870326519 0.558821440
0.991867125 0.897311568 0.627235830
0.629083931 0.000000000 0.086605154
0.658614755 0.000000000 0.066162452
0.689882755 0.000000000 0.057076652
0.728468299 0.000000000 0.055913240
0.779378533 0.000000000 0.064770311
0.843751371 0.000000000 0.093524970
0.921045482 0.008967010 0.141740039
0.970984340 0.165525258 0.244555101
0.631985009 0.006451614 0.161076069
0.666540146 0.006451614 0.130886957
0.698355973 0.006451614 0.113145567
0.734576762 0.006451614 0.108707465
0.782744527 0.006451614 0.120849088
0.847948015 0.006451614 0.151679590
0.930221319 0.036701139 0.211260408
0.974544227 0.198479697 0.323316723
0.617817640 0.012903227 0.268423706
0.670995235 0.012903227 0.233449653
0.713999450 0.012906500 0.203505546
0.752962589 0.017780451 0.189106032
0.798269451 0.047626927 0.197988838
0.863228559 0.101138994 0.236953154
0.947352469 0.162668645 0.304026365
0.980383694 0.276682287 0.406044304
0.535807133 0.042405479 0.388709545
0.650863111 0.033844341 0.362293571
0.724312782 0.076031744 0.332955569
0.772471607 0.165414259 0.303721964
0.813317478 0.225890338 0.291413784
0.868946016 0.269991785 0.317664593
0.947604179 0.306315631 0.379690796
0.986358404 0.374982208 0.470973521
0.253656924 0.247159064 0.494320750
0.503605068 0.253982663 0.477351934
0.656986237 0.273334801 0.461499333
0.766349316 0.306843400 0.430858642
0.821246147 0.365039587 0.395957887
0.864153326 0.415767372 0.391878784
0.936580181 0.447873890 0.442462832
0.991552949 0.490262419 0.528430045
0.000000000 0.468872845 0.498630941
0.133129835 0.453827232 0.489586562
0.421331584 0.456809640 0.505112112
0.609707415 0.477292150 0.525484979
0.786087990 0.501767993 0.522526205
0.861627579 0.549471498 0.482977897
0.916237891 0.586240470 0.503389597
0.993622184 0.608220756 0.576260448
0.000000000 0.669735849 0.364258945
0.074855745 0.659886003 0.384221494
0.254636437 0.640762627 0.381193578
0.453320920 0.666632533 0.430543602
0.683352649 0.666297019 0.408825904
0.835517824 0.680106699 0.437902093
0.903438628 0.737294734 0.576810360
0.994314373 0.754378915 0.645070195
0.058632422 0.817104340 0.216961950
0.234130651 0.796446681 0.226392061
0.411875755 0.806716442 0.266038507
0.577691019 0.822728276 0.320556343
0.734143436 0.839277983 0.388957381
0.877799094 0.850802422 0.467946202
0.983072758 0.866188526 0.586364388
0.992037952 0.916528821 0.698513329
0.742274404 0.000000000 0.102886938
0.770024776 0.000000000 0.081480987
0.799254954 0.000000000 0.074123010
0.834432542 0.000000000 0.079131186
0.879409790 0.000000000 0.100286163
0.932228982 0.035465766 0.137568310
0.964399159 0.172788560 0.229231089
0.978765130 0.261352867 0.322893023
0.746634424 0.006451614 0.191041276
0.779425383 0.006451614 0.158868968
0.810292661 0.006451614 0.140067488
0.844528854 0.006451614 0.136692315
0.888204277 0.006773334 0.151990816
0.940748930 0.058083761 0.191524118
0.967247367 0.199682131 0.292514801
0.979467571 0.264870584 0.365528822
0.741325736 0.012903227 0.312288254
0.789248943 0.012903227 0.276856154
0.831908405 0.012981789 0.249650702
0.871968865 0.025480654 0.238065928
0.915615916 0.079528019 0.249217048
0.955467165 0.158331037 0.287114471
0.972898841 0.268940151 0.374572366
0.981711864 0.296527773 0.421370119
0.705522895 0.019388516 0.447307825
0.794656932 0.019440422 0.422470897
0.854110062 0.064916432 0.396027952
0.900754690 0.162734166 0.371806711
0.938853681 0.230416596 0.359641612
0.963706851 0.284156173 0.373384267
0.978786707 0.361897409 0.438685745
0.986611307 0.378295630 0.479974359
0.565513134 0.157362759 0.552338362
0.715305626 0.192083150 0.547335863
0.835555315 0.226484492 0.531139493
0.907480776 0.295265943 0.501066327
0.947639108 0.361962795 0.470246494
0.972156227 0.418900847 0.459233701
0.984359682 0.474533617 0.497780710
0.991647124 0.490024537 0.535788298
0.109180540 0.381255180 0.635390937
0.482675642 0.387896031 0.625782311
0.684361756 0.409299672 0.619477093
0.842584491 0.435873657 0.615642250
0.944114327 0.481184602 0.586399257
0.975290835 0.542690456 0.553889871
0.987529337 0.590888560 0.553310812
0.994554520 0.608908117 0.584280431
0.000000000 0.608410895 0.589880109
0.018644683 0.616036713 0.626873851
0.398607671 0.604660928 0.606432915
0.616970062 0.601693213 0.615713596
0.792447686 0.629088640 0.661117673
0.953785598 0.657090902 0.658105254
0.987220347 0.709391296 0.625837982
0.994419336 0.743077755 0.646534801
0.000052373 0.815632701 0.459566683
0.038245268 0.817522764 0.492838949
0.267417163 0.786137998 0.478813678
0.478097945 0.795681596 0.512847781
0.621354699 0.804775119 0.548638403
0.865653336 0.812006295 0.527957439
0.983028769 0.831874728 0.588850677
0.992760658 0.906389475 0.741415679
