Desert Affinity Presets/Desert Affinity Preset #15.cube
TITLE "32x32x32 Adobe/IRIDAS cube 3D LUT exported with GrossGrade v0.1.027.1 (beta) 64 bit"
LUT_3D_SIZE 8
DOMAIN_MIN 0.000000 0.000000 0.000000
DOMAIN_MAX 0.903226 0.903226 0.903226
0.082975470 0.082975470 0.082975470
0.192269340 0.075820968 0.075820968
0.283164829 0.073279031 0.073279031
0.385937214 0.067123324 0.067123324
0.507095635 0.055795394 0.055795394
0.633181870 0.043076709 0.043076709
0.749307692 0.033086088 0.033086088
0.861340344 0.024661532 0.024661532
0.097927526 0.160995409 0.070633739
0.194846570 0.154916972 0.078187115
0.285275221 0.151699707 0.075403430
0.388195276 0.145465165 0.069606416
0.510050118 0.134608582 0.059192117
0.637413800 0.122952044 0.047970802
0.755554795 0.114758782 0.040221930
0.870380700 0.108904578 0.034801781
0.107590929 0.239367932 0.052999504
0.193611145 0.236050561 0.076514937
0.285479635 0.234261975 0.075157896
0.390477568 0.230118543 0.071457192
0.515251756 0.222188100 0.063958526
0.646408916 0.214307949 0.056522995
0.769268155 0.210837543 0.053496599
0.889262021 0.210166022 0.053247787
0.104752183 0.330114961 0.022842066
0.185327232 0.331171215 0.062981240
0.278253525 0.334296912 0.067498356
0.388254583 0.335156471 0.068795085
0.518288910 0.332481027 0.066558488
0.654452085 0.329618216 0.064132459
0.781859517 0.330688000 0.065638214
0.905968368 0.334118515 0.069514737
0.095042653 0.443392575 0.000000000
0.177250877 0.449785650 0.040393081
0.266972899 0.459680021 0.055780899
0.381377697 0.464935720 0.061482981
0.515250325 0.466104090 0.063086413
0.654895544 0.466721982 0.064137653
0.785053790 0.470543981 0.068397112
0.911214769 0.476026893 0.074324161
0.093860656 0.575727403 0.000000000
0.178209648 0.585644305 0.022116799
0.262088925 0.600525558 0.048786771
0.377841711 0.608581781 0.057506394
0.513435721 0.611469507 0.060823612
0.653871298 0.612888098 0.062679633
0.784145534 0.616833746 0.067065813
0.909381449 0.621377230 0.072055757
0.109527670 0.715487480 0.000000000
0.194380000 0.726577818 0.016446510
0.273008078 0.743061960 0.051514823
0.383479834 0.751977384 0.062702030
0.517838895 0.753628612 0.064793669
0.656322658 0.753093064 0.064687990
0.784482300 0.754915357 0.066954538
0.907920897 0.757691383 0.070156306
0.128732234 0.855797946 0.000000000
0.211461723 0.865166783 0.010128552
0.284238964 0.879961312 0.049832825
0.385662109 0.888345480 0.063786432
0.517979801 0.888541162 0.064495377
0.655588925 0.887124062 0.063517556
0.783217371 0.888439119 0.065265514
0.906301200 0.890842676 0.068103470
0.065712981 0.092123441 0.123436451
0.195199355 0.078975551 0.118966058
0.286063790 0.076181047 0.116619438
0.388892502 0.069868252 0.110740155
0.510155916 0.058418714 0.099725895
0.636357009 0.045604166 0.087342985
0.752730370 0.035641603 0.077825151
0.865098774 0.027334478 0.069956101
0.055063061 0.191048563 0.006451614
0.197295830 0.157803863 0.120629504
0.287666053 0.154736072 0.117563672
0.390578002 0.148727849 0.111555450
0.512493849 0.138154909 0.100973412
0.639949262 0.126798287 0.089616477
0.758256733 0.118992656 0.081815295
0.873356402 0.113632232 0.076458283
0.125372738 0.252581060 0.006451614
0.208149076 0.237362579 0.104184799
0.288701981 0.237920463 0.118376382
0.394088835 0.234164774 0.115065567
0.519306898 0.226669922 0.108006187
0.650930643 0.219267428 0.101042680
0.774369657 0.216379613 0.098590583
0.894896090 0.216232330 0.098883241
0.137578174 0.338294834 0.006451614
0.209850520 0.332659543 0.078581735
0.283055097 0.339539349 0.112290837
0.393555999 0.340905547 0.114090167
0.523927748 0.338562667 0.112195037
0.660626054 0.336229473 0.110305026
0.788473189 0.337740481 0.112251118
0.912918329 0.341507941 0.116459623
0.132101253 0.451305956 0.006451614
0.206973568 0.452768445 0.048405133
0.276406437 0.465694994 0.100398347
0.388085037 0.472089112 0.108180434
0.522202790 0.473498195 0.110028669
0.662046492 0.474318713 0.111285888
0.792431414 0.478369325 0.115776107
0.918634236 0.483887464 0.121735863
0.132500261 0.583939552 0.006451614
0.210658118 0.589969695 0.024782119
0.279485792 0.605991185 0.088970713
0.385244906 0.616427422 0.104899652
0.520798564 0.619276285 0.108189560
0.661197305 0.620647550 0.109995797
0.791327775 0.624446154 0.114233464
0.916290045 0.628728211 0.118956342
0.148631230 0.723798215 0.006451614
0.228066504 0.731468976 0.014886916
0.295556426 0.747547448 0.085813425
0.391663998 0.759161711 0.109212615
0.524602950 0.760838807 0.111553945
0.662943304 0.760147691 0.111301273
0.790964782 0.761842847 0.113440707
0.914312661 0.764521480 0.116543829
0.167023972 0.863239825 0.006451614
0.245059028 0.869562209 0.008346392
0.309497088 0.883248568 0.077907898
0.397769332 0.893886507 0.107115686
0.524283588 0.895291328 0.110795237
0.661983967 0.893967450 0.109904923
0.789571226 0.895218849 0.111600980
0.912614167 0.897590995 0.114408605
0.046783041 0.099618345 0.189237893
0.195886075 0.080119789 0.186659545
0.286685795 0.077249058 0.184226468
0.389464021 0.070886232 0.178307757
0.510712028 0.059418943 0.167284727
0.636880755 0.046561357 0.154859066
0.753438830 0.036785405 0.145518571
0.866001964 0.028672751 0.137855679
0.000000000 0.223811090 0.047808349
0.177969500 0.164900184 0.186033919
0.288434476 0.155739054 0.185548872
0.391615570 0.149767265 0.180013031
0.513825953 0.139271170 0.169954330
0.641677916 0.128090069 0.159216940
0.760595679 0.120680869 0.152239859
0.876301527 0.115705930 0.147707149
0.020350169 0.297963142 0.012903227
0.163755521 0.265888184 0.037460014
0.290022701 0.239686742 0.186692461
0.395739347 0.236475646 0.183481723
0.521277606 0.229519680 0.176526099
0.653352797 0.222788855 0.169795170
0.777193248 0.220518216 0.167524651
0.898007810 0.220868722 0.167883888
0.097842820 0.370393604 0.012903227
0.227338120 0.345584124 0.014109673
0.297866225 0.341124237 0.167237073
0.397163421 0.344946623 0.184691370
0.527915418 0.342981547 0.183172718
0.664954007 0.341003567 0.181615323
0.793220937 0.342931032 0.183990896
0.917947829 0.346981406 0.188478649
0.134589940 0.473430991 0.012903227
0.240240142 0.461384982 0.013122072
0.301300168 0.467544377 0.143354073
0.392962605 0.477396548 0.180046350
0.527292013 0.479020089 0.182104975
0.667360067 0.480063617 0.183585927
0.797902107 0.484273523 0.188233197
0.923994482 0.489686221 0.194086388
0.155627847 0.600499690 0.012903227
0.247428745 0.597586036 0.012903227
0.308776170 0.608534694 0.123535812
0.393715382 0.621477067 0.175556928
0.526179016 0.625088751 0.180556893
0.666516244 0.626408815 0.182307124
0.796448231 0.629999518 0.186336547
0.921070099 0.633947492 0.190726787
0.180578932 0.736958146 0.012903227
0.265377492 0.738343656 0.012903227
0.326315463 0.750168741 0.113781601
0.406719774 0.762274981 0.174043730
0.529281795 0.765953243 0.183224618
0.667546570 0.765197396 0.182901889
0.795494676 0.766806304 0.184955373
0.918716490 0.769357085 0.187940106
0.202203080 0.873802364 0.012903227
0.281451911 0.875160515 0.012903227
0.340405554 0.885359704 0.100564569
0.417472988 0.895523846 0.165571630
0.529919684 0.899915278 0.181751937
0.666424453 0.898848057 0.181344375
0.793921888 0.900008798 0.182943508
0.916822851 0.902241886 0.185610160
0.025244670 0.104490437 0.287916660
0.189992398 0.079797126 0.287345588
0.284724832 0.075721882 0.284750938
0.387467116 0.069322519 0.278791189
0.508663058 0.057814069 0.267717779
0.634948015 0.045062225 0.255406797
0.751629770 0.035417154 0.246194974
0.864322007 0.027431704 0.238650382
0.000000000 0.228274718 0.188597202
0.156099379 0.169440314 0.284380108
0.286557823 0.154301047 0.286155283
0.389883488 0.148482800 0.280772150
0.512220085 0.138100684 0.270834059
0.640436590 0.127289265 0.260460377
0.759760678 0.120279655 0.253888965
0.875950515 0.115797281 0.249841839
0.000000000 0.338102907 0.019354852
0.054841373 0.296706766 0.140349030
0.269070119 0.245144382 0.285957128
0.395189434 0.236137778 0.285633534
0.521313310 0.229557678 0.279486716
0.654276133 0.223496079 0.273858577
0.778773367 0.221660867 0.272464722
0.900130332 0.222341329 0.273580283
0.000000000 0.417734593 0.019354852
0.121548027 0.390202075 0.019354852
0.253108531 0.369290292 0.135642320
0.398272246 0.346488774 0.288280576
0.529318333 0.345047057 0.286833704
0.666684747 0.343600899 0.285387725
0.795118630 0.345921993 0.287714094
0.919847906 0.350190878 0.291978061
0.053556897 0.515226185 0.019354852
0.200418010 0.493422538 0.019354852
0.318485141 0.480174601 0.103961453
0.407007575 0.478210568 0.269708306
0.529931366 0.482093424 0.287223577
0.670186520 0.483325809 0.288891494
0.800766289 0.487571359 0.293581128
0.926775813 0.492910296 0.299353659
0.116219044 0.633814573 0.019354852
0.249072939 0.618866384 0.019354852
0.340728313 0.615837276 0.103758506
0.416881382 0.621599197 0.252279013
0.528998196 0.628343761 0.285858333
0.669259310 0.629581511 0.287526816
0.798852980 0.632847071 0.291227549
0.923237205 0.636557698 0.295380145
0.170933604 0.762418389 0.019354852
0.286403745 0.752809644 0.019354852
0.360481471 0.755182624 0.106754936
0.432892323 0.761706233 0.240990877
0.534521043 0.767773509 0.286126584
0.669559598 0.767641485 0.287393779
0.797347724 0.769092858 0.289283395
0.920592010 0.771667957 0.292293668
0.210833713 0.892571151 0.019354852
0.310171276 0.885096371 0.019354852
0.374183536 0.888705075 0.101142682
0.444762170 0.894680858 0.225552589
0.541906476 0.899971247 0.279010385
0.668290198 0.901149392 0.285687387
0.795700431 0.902226090 0.287202418
0.918648303 0.904504538 0.289918661
0.002027115 0.106629133 0.420869231
0.175090462 0.078738458 0.422642142
0.280080438 0.071521774 0.419596165
0.382762194 0.065050907 0.413559109
0.503930092 0.053514376 0.402463108
0.630395114 0.040951885 0.390334129
0.747228324 0.031456910 0.381279975
0.860078812 0.023629529 0.373899311
0.000000000 0.226242915 0.345786065
0.131610528 0.171370015 0.417109579
0.278083324 0.151400283 0.421253353
0.385519981 0.144553110 0.415889174
0.508129001 0.134448826 0.406227112
0.636674464 0.123973534 0.396191329
0.756398797 0.117358342 0.390014857
0.873025715 0.113313310 0.386403441
0.000000000 0.356513739 0.133578673
0.019388653 0.299254984 0.316237748
0.245633200 0.248121858 0.419738024
0.391980201 0.233384907 0.421916753
0.518688083 0.227373093 0.416344315
0.652206481 0.221863672 0.411283970
0.777163506 0.220484570 0.410333514
0.898865700 0.221521989 0.411805928
0.000000000 0.459559113 0.025806461
0.007312025 0.429694295 0.090357862
0.143704951 0.399607748 0.275034785
0.376837105 0.351470351 0.424070925
0.528478026 0.344423831 0.425696790
0.666403532 0.343322068 0.425030321
0.795253575 0.345837712 0.427993566
0.920291901 0.350210875 0.432792693
0.000000000 0.562637627 0.025806461
0.075875193 0.540452063 0.025806461
0.212139800 0.524247825 0.117540330
0.361316472 0.505458474 0.274192661
0.529974639 0.482584000 0.426759988
0.670250595 0.484047920 0.428222090
0.800707400 0.488391668 0.432563990
0.926518559 0.493741125 0.437916636
0.013382218 0.678538561 0.025806461
0.166915670 0.659544706 0.025806461
0.299290270 0.646253943 0.069905862
0.432098299 0.632264793 0.247906387
0.540849745 0.626974225 0.410326928
0.669242442 0.630000949 0.426998496
0.798503280 0.632929206 0.430361867
0.922667921 0.636422932 0.434289366
0.100604102 0.800718188 0.025806461
0.244631827 0.783764958 0.025806461
0.359152615 0.773497164 0.070042863
0.461611390 0.765777767 0.254980713
0.554267466 0.764483094 0.396450460
0.668840110 0.767355680 0.426153004
0.796562135 0.768755078 0.427984387
0.919785678 0.771303952 0.430973202
0.168319881 0.923135757 0.025806461
0.296984375 0.907021821 0.025806461
0.391583651 0.899550378 0.075270303
0.475552022 0.896319509 0.252154827
0.565014422 0.896337867 0.379889220
0.670516789 0.899956822 0.422587097
0.794816554 0.901784241 0.425802529
0.917799890 0.904089868 0.428552359
0.000000000 0.107459649 0.569063067
0.155631453 0.077420250 0.573167622
0.272572428 0.066575781 0.569965541
0.376841038 0.059569016 0.563691020
0.498105407 0.048123214 0.552688181
0.624669790 0.035665520 0.540673494
0.741688907 0.026348684 0.531794906
0.854795277 0.018780820 0.524664521
0.000000000 0.223935500 0.507343531
0.105961911 0.172129124 0.565246761
0.261991948 0.149153218 0.571935475
0.379975677 0.139442325 0.566392422
0.502951860 0.129708499 0.557100892
0.631887197 0.119614080 0.547452688
0.752023935 0.113419160 0.541686058
0.869198263 0.109920673 0.538620532
0.000000000 0.360264122 0.328587979
0.008245385 0.296911150 0.489688963
0.221065104 0.249971405 0.568956375
0.383815676 0.230792955 0.573893547
0.515150011 0.224271715 0.568860114
0.649163544 0.219254196 0.564286411
0.774461746 0.218229428 0.563695192
0.896658659 0.219750166 0.565656662
0.000000000 0.488242567 0.089558199
0.006451614 0.449118644 0.274499893
0.106761478 0.403244406 0.468580127
0.354539096 0.355582207 0.575551689
0.526422858 0.342815161 0.579706728
0.664709151 0.342074990 0.579402328
0.793737650 0.344762176 0.582528353
0.919161499 0.349516541 0.587719321
0.000000000 0.606372476 0.032258086
0.006451614 0.583313286 0.071059823
0.080675632 0.564422011 0.244043216
0.252508551 0.536363244 0.430747360
0.509031117 0.488045305 0.579598844
0.669386506 0.483401954 0.583632171
0.799809515 0.487493843 0.588161647
0.925887883 0.492900282 0.594008446
0.000000000 0.726250529 0.032258086
0.036158759 0.707168102 0.032258086
0.174479097 0.693019807 0.119310141
0.325261116 0.675837576 0.277572870
0.494351178 0.653394938 0.430572450
0.667872012 0.629070699 0.581674576
0.796742678 0.631824851 0.584429026
0.920626342 0.635249913 0.587863266
0.001436509 0.846527636 0.032258086
0.140663415 0.827368498 0.032258086
0.275381207 0.812553823 0.069565333
0.418389201 0.794412911 0.235917181
0.567505598 0.773162782 0.406658411
0.678634882 0.763935685 0.565143168
0.794565260 0.767191529 0.582041442
0.917816103 0.769758880 0.585054398
0.077706046 0.963520646 0.032258086
0.224433884 0.943102717 0.032258086
0.347753704 0.928448021 0.051267587
0.472487897 0.912897348 0.230280131
0.592091441 0.898761690 0.408801645
0.688681960 0.895075858 0.547882378
0.792736471 0.900135517 0.579769969
0.915750921 0.902473986 0.582552850
0.000000000 0.108605072 0.713231027
0.134547859 0.076984867 0.719251513
0.260791034 0.063236542 0.716141045
0.371246994 0.054414026 0.709801972
0.492625087 0.043087468 0.698912144
0.619303942 0.030742429 0.687008560
0.736400723 0.021502828 0.678205431
0.849863648 0.014282339 0.671430469
0.000000000 0.222818702 0.659580708
0.080684155 0.173269123 0.709400177
0.243027791 0.148326874 0.718604028
0.373210102 0.135250807 0.713160276
0.498163015 0.125354588 0.704007626
0.627490878 0.115658805 0.694747090
0.748081625 0.109924324 0.689453423
0.865964472 0.107125558 0.687095702
0.000000000 0.359070480 0.512129426
0.006451614 0.295810938 0.648098469
0.196917072 0.252237499 0.714250147
0.369735181 0.230553567 0.722227931
0.512098551 0.221658140 0.717508316
0.646577418 0.217110783 0.713403642
0.772326708 0.216526151 0.713258207
0.894949853 0.218476593 0.715640485
0.000000000 0.504352987 0.275331587
0.006451614 0.455247998 0.467550218
0.088834532 0.403481305 0.640260577
0.332754254 0.360216677 0.723200977
0.520908713 0.342872232 0.729982674
0.663393199 0.341189176 0.729771376
0.792697310 0.344161361 0.733187795
0.918388486 0.349180043 0.738642275
0.000000000 0.642369688 0.052695569
0.006451614 0.614480376 0.230394557
0.014609086 0.585972071 0.425959527
0.217551753 0.541982293 0.621922195
0.488412142 0.493849546 0.728425443
0.668603241 0.483070344 0.734561265
0.799152195 0.487276018 0.739208698
0.925116062 0.492563754 0.744934082
0.000000000 0.772063076 0.038709681
0.006451614 0.752415180 0.060398631
0.039286088 0.737107038 0.228930697
0.194774389 0.717000186 0.400692999
0.385994464 0.684770644 0.583230138
0.646789193 0.634400010 0.730033755
0.795532167 0.630839407 0.735152304
0.919397116 0.634024739 0.738770902
0.000000000 0.894773781 0.038709681
0.010431486 0.875246704 0.038709681
0.144498050 0.860058486 0.124411367
0.293263227 0.840864778 0.280657262
0.460088491 0.816157162 0.431386769
0.631460488 0.789678812 0.580345988
0.792921185 0.765980482 0.732096493
0.915993333 0.768606186 0.734720588
0.000000000 0.993494689 0.038709681
0.109048672 0.988271415 0.038709681
0.243370503 0.971630991 0.064307891
0.388549924 0.951787174 0.225291997
0.548801899 0.927323163 0.385321677
0.701998115 0.903836250 0.553827703
0.802724719 0.896888316 0.714591444
0.914005756 0.901173651 0.732508779
0.000000000 0.109638482 0.858688891
0.112206541 0.076817937 0.866264045
0.245781988 0.060672160 0.863744259
0.364781380 0.049443744 0.857380688
0.487097681 0.037991397 0.846480310
0.613916814 0.025788944 0.834711611
0.731198907 0.016734993 0.826116860
0.844958782 0.009824173 0.819629729
0.000000000 0.222249776 0.810277164
0.055296823 0.174305454 0.854859650
0.222128958 0.148065791 0.866273701
0.362002045 0.132470950 0.861300766
0.493429571 0.121064208 0.852377653
0.623125255 0.111733645 0.843487799
0.744224370 0.106502734 0.838697493
0.862761557 0.104358532 0.836997867
0.000000000 0.356747836 0.686755896
0.006451614 0.295580536 0.802646518
0.172946289 0.254677355 0.861115575
0.352463275 0.231426969 0.872009695
0.507362068 0.219491825 0.867709637
0.643943191 0.214913338 0.863868892
0.770214200 0.214850307 0.864248157
0.893294275 0.217260256 0.867097616
0.000000000 0.511606097 0.469952971
0.006451614 0.456134319 0.654562473
0.072064504 0.404566467 0.802262306
0.310928017 0.364800721 0.872213125
0.508909106 0.344715387 0.881802261
0.662111223 0.340344697 0.881600082
0.791721940 0.343624860 0.885313869
0.917567194 0.348795503 0.890923262
0.000000000 0.668017030 0.227109879
0.006451614 0.632499933 0.419464350
0.012903227 0.593931675 0.622245908
0.201225474 0.543835282 0.796616256
0.467696220 0.499542683 0.878536880
0.663857937 0.483896494 0.887009203
0.798369229 0.486928493 0.891527653
0.924198806 0.492096514 0.897127032
0.000000000 0.811889648 0.049362361
0.006451614 0.789298236 0.205047131
0.012903227 0.769002855 0.390399754
0.108202495 0.738908112 0.584383607
0.350846559 0.690191984 0.775614262
0.625672281 0.639695108 0.879751325
0.794040501 0.629796267 0.886774957
0.917720854 0.632794619 0.890199304
0.000000000 0.940835893 0.045161311
0.006451614 0.920701444 0.063138254
0.018035769 0.904693365 0.227576911
0.156732261 0.884040296 0.390768290
0.328485698 0.856201887 0.554801285
0.522237003 0.820177138 0.733538926
0.771298110 0.770781398 0.881319225
0.914322615 0.767148554 0.886365116
0.000000000 0.995161295 0.045161311
0.006451614 0.995161295 0.045161311
0.109212823 0.994363129 0.125612736
0.257052571 0.992530882 0.280928969
0.423135400 0.973235309 0.430921257
0.594327450 0.946580291 0.579703808
0.755491793 0.922586560 0.731154084
0.912161708 0.899766624 0.883769214
