Desert Affinity Presets/Desert Affinity Preset #25.cube
TITLE "32x32x32 Adobe/IRIDAS cube 3D LUT exported with GrossGrade v0.1.027.1 (beta) 64 bit"
LUT_3D_SIZE 8
DOMAIN_MIN 0.000000 0.000000 0.000000
DOMAIN_MAX 0.903226 0.903226 0.903226
0.002087435 0.001710532 0.002957198
0.099703014 0.014844412 0.030631104
0.218982026 0.016252877 0.053075250
0.368185431 0.002181427 0.067419343
0.490054071 0.000042085 0.076062277
0.633284509 0.000000000 0.096119732
0.772212803 0.000000000 0.129246235
0.910655081 0.000052373 0.190953448
0.118489146 0.061140649 0.017810091
0.174825832 0.069155969 0.042381398
0.309903771 0.057678822 0.061836503
0.457328200 0.027365701 0.069148615
0.603093803 0.007397602 0.086726278
0.746833503 0.006451614 0.117850557
0.887515903 0.006734053 0.179899946
0.974049985 0.183550477 0.300596595
0.267969131 0.119808771 0.020038676
0.328090429 0.123301536 0.039051015
0.410943985 0.126194462 0.059794854
0.552869976 0.110463433 0.078475215
0.712129474 0.027829044 0.108365610
0.865407944 0.029208019 0.168943569
0.967776000 0.195908815 0.292292058
0.979777813 0.263347834 0.368638009
0.428422689 0.170739427 0.001567916
0.503581882 0.181652993 0.012083172
0.592941642 0.185911074 0.056605760
0.701359987 0.178364113 0.091443621
0.840161443 0.180140629 0.149868637
0.959928036 0.237280175 0.259776562
0.975765288 0.315065771 0.364705473
0.982045889 0.302344531 0.405772209
0.630513251 0.227933064 0.000000000
0.706279218 0.239564776 0.000225858
0.791341543 0.264419466 0.054885823
0.881631494 0.300138235 0.131405056
0.959300995 0.351112694 0.242021948
0.973821461 0.401269257 0.349890679
0.980295777 0.394568980 0.391925514
0.986561954 0.383117914 0.439407825
0.829148114 0.325086057 0.000000000
0.903240442 0.358932912 0.039346509
0.949905217 0.407752097 0.160131752
0.962766230 0.459775031 0.290386766
0.970518470 0.479366750 0.334872365
0.977629662 0.488365084 0.370338529
0.984463036 0.489799112 0.412975520
0.991074026 0.483933002 0.463067710
0.943162978 0.479628146 0.232338816
0.950940669 0.502360523 0.256435335
0.958326280 0.520838857 0.270190001
0.965702951 0.539990544 0.302065581
0.973141193 0.558483124 0.345894873
0.980404317 0.573185563 0.388671607
0.987262428 0.581194460 0.431556046
0.993770361 0.582243323 0.479352504
0.946096063 0.563726127 0.254297107
0.952838123 0.581260264 0.253981978
0.959674299 0.600289106 0.265678167
0.966739118 0.619513333 0.297820896
0.973883390 0.638710737 0.348189265
0.980822146 0.657058597 0.402146161
0.987684727 0.671894789 0.452568918
0.994205832 0.680308938 0.500263870
0.032151792 0.002211350 0.039060280
0.098838322 0.018602673 0.038656238
0.188463688 0.021599602 0.057216398
0.325019956 0.007010485 0.076261856
0.446808696 0.000000000 0.087454699
0.571827531 0.000000000 0.106965959
0.711862683 0.000000000 0.138711259
0.846864820 0.000000000 0.192097992
0.047669139 0.084689699 0.025718749
0.091794655 0.079661936 0.061811678
0.209746599 0.080961414 0.085724048
0.355337918 0.059404835 0.099233963
0.498504728 0.031731367 0.114600196
0.651162505 0.006456759 0.147251189
0.794556797 0.006451614 0.198445201
0.940147460 0.011904003 0.277622491
0.190318704 0.147043496 0.029072013
0.247539937 0.147209749 0.053979538
0.317462623 0.151242331 0.090772882
0.452020645 0.142591462 0.111038275
0.626166880 0.092452116 0.144532219
0.784030318 0.024499152 0.198315784
0.933711469 0.074628264 0.285060406
0.980005503 0.261849582 0.400118619
0.349043876 0.202976629 0.009102060
0.411125720 0.210262120 0.023300691
0.485556871 0.219197422 0.081038594
0.595526397 0.223717198 0.122560672
0.746838808 0.210606366 0.179650202
0.907251894 0.222669184 0.265235513
0.976164520 0.318382233 0.387301683
0.983004510 0.313952327 0.437170744
0.535483062 0.270196766 0.006451614
0.614750445 0.279021144 0.006693838
0.694853783 0.292898029 0.059971549
0.785585999 0.322180867 0.143081203
0.897697210 0.354849160 0.230951115
0.973253191 0.404757082 0.351849943
0.981832981 0.418511927 0.422871500
0.988010526 0.405297220 0.470899522
0.743062854 0.355297446 0.006451614
0.818895936 0.381224304 0.007289581
0.897118926 0.412864298 0.086476386
0.955380499 0.453902036 0.212152869
0.971414745 0.501916945 0.348423064
0.978791893 0.516752362 0.397319227
0.985579252 0.517602742 0.443075299
0.992047787 0.510479987 0.495105803
0.929580808 0.477186769 0.071742833
0.950610995 0.518088222 0.206896752
0.958962739 0.545944512 0.275987506
0.966342986 0.565206647 0.311956257
0.973792434 0.585174799 0.364815831
0.980979800 0.602244437 0.414594501
0.987827599 0.611533880 0.460067719
0.994435370 0.612049878 0.508930624
0.946480930 0.592483819 0.259237170
0.953089476 0.608954132 0.258205235
0.959833980 0.626911640 0.269298881
0.966756463 0.645876408 0.305982798
0.973830223 0.665888071 0.365477473
0.980759084 0.686589539 0.429350764
0.987386286 0.703679383 0.485059142
0.994010329 0.714371204 0.534866810
0.051921658 0.002602274 0.075454272
0.134912357 0.015679603 0.062634118
0.216491491 0.021582762 0.069712400
0.331860214 0.009030122 0.080962762
0.442527175 0.001373854 0.090815425
0.557138383 0.000000000 0.108536370
0.690998316 0.000000000 0.138590276
0.819780529 0.000000000 0.188826457
0.007325196 0.098678872 0.076365173
0.115495488 0.073271520 0.092298187
0.206594124 0.086455867 0.093262918
0.320937425 0.077179357 0.106168635
0.448311716 0.056777276 0.122426979
0.594393909 0.014535278 0.155048326
0.736878037 0.006451614 0.203513637
0.879192710 0.006451614 0.275238484
0.084959149 0.173409358 0.043479681
0.145233870 0.175651684 0.066332467
0.204090104 0.166323766 0.120967560
0.351025969 0.159779221 0.137597978
0.509000242 0.141825169 0.169921979
0.676765501 0.069594584 0.218947798
0.832727253 0.048188515 0.291048259
0.967681170 0.132453844 0.383063167
0.243874639 0.245520502 0.038334489
0.326727450 0.247392341 0.025930502
0.388167500 0.244105592 0.093222693
0.487216145 0.260149807 0.156889394
0.647266626 0.242040157 0.207869098
0.820401073 0.233815193 0.283203423
0.962822378 0.263127476 0.378518552
0.984036267 0.327759564 0.468383938
0.437154680 0.315469712 0.012903227
0.522103965 0.322209477 0.012945313
0.600336611 0.326842010 0.061246227
0.686033428 0.345776469 0.160479650
0.795067608 0.376759142 0.249039009
0.938078582 0.399844736 0.345147073
0.983095586 0.441955596 0.453080237
0.989240944 0.427003503 0.500940859
0.652822614 0.394388586 0.012903227
0.733908117 0.412007391 0.012903227
0.807852626 0.434222698 0.045839678
0.884681523 0.463849604 0.175054848
0.956647277 0.504497170 0.313197881
0.979849696 0.544557273 0.422927082
0.986545324 0.545639634 0.473758578
0.992782772 0.536740720 0.526507199
0.850721657 0.502307653 0.012985527
0.921743155 0.525264084 0.042864259
0.956335187 0.558422327 0.180280656
0.966590583 0.589601636 0.314791441
0.974109948 0.610718012 0.380273581
0.981236160 0.631132483 0.441085845
0.987943649 0.642261088 0.490051687
0.994730949 0.642109871 0.539634585
0.946640611 0.622419357 0.257192582
0.953181207 0.637903094 0.262830704
0.959751785 0.654896319 0.275100887
0.966668725 0.672971427 0.313947767
0.973682046 0.692839742 0.380013049
0.980610549 0.715386808 0.455204308
0.987102509 0.736490846 0.518677115
0.993897140 0.750583410 0.572614729
0.068112865 0.002667277 0.112969458
0.180769905 0.010093002 0.093594879
0.272309095 0.011116646 0.092123732
0.366535068 0.004796329 0.091862291
0.458623171 0.002074809 0.097029448
0.566158056 0.000000000 0.112874545
0.691110075 0.000000000 0.139938921
0.814060688 0.000000000 0.187915236
0.001234501 0.086197250 0.139284581
0.145228863 0.067425862 0.128678545
0.255381137 0.077252306 0.119867623
0.347906947 0.076124370 0.116238713
0.455131710 0.065851837 0.127491787
0.588878334 0.023564456 0.156835556
0.723978519 0.006451614 0.202284768
0.858896255 0.006517081 0.271304488
0.023148349 0.204322070 0.061733872
0.080302559 0.165304750 0.112275086
0.237682432 0.153401196 0.153794155
0.345077723 0.165020287 0.144655034
0.467288345 0.160253495 0.170468599
0.621852100 0.122186035 0.218625814
0.775117099 0.066841222 0.285177827
0.924114704 0.104596898 0.374999285
0.108195528 0.287625730 0.052823037
0.184401914 0.292592585 0.061058618
0.254352629 0.278712362 0.114361979
0.347763509 0.274037242 0.184929043
0.528867483 0.266713887 0.226597443
0.698881567 0.248729289 0.289231986
0.866379142 0.253651619 0.376111746
0.982486904 0.312255681 0.475739241
0.290713668 0.359559447 0.046245534
0.401567221 0.372199982 0.023320220
0.500906348 0.372841716 0.058343198
0.575834155 0.368549943 0.163621798
0.694133878 0.406126142 0.275632560
0.845735848 0.414795369 0.360424757
0.979168117 0.436708361 0.459528506
0.990265787 0.446806043 0.530176818
0.534442663 0.444828928 0.019354852
0.635867774 0.455630362 0.019354852
0.725291133 0.470790833 0.024171755
0.794757068 0.484988540 0.154082268
0.873683572 0.517756164 0.311154515
0.965064049 0.555240333 0.413456053
0.987270176 0.573817849 0.504534841
0.993498564 0.562048912 0.556134522
0.760104597 0.544041216 0.019354852
0.840020120 0.560162902 0.019354852
0.911269069 0.576995373 0.063036613
0.959660232 0.600237131 0.196706474
0.974025428 0.633136094 0.383382291
0.981243908 0.658978760 0.467499584
0.987761080 0.674171090 0.521491587
0.994746447 0.674023688 0.573620975
0.931572258 0.643961608 0.062560573
0.952766418 0.669022202 0.247816548
0.959681153 0.685774386 0.283770800
0.966487706 0.701710522 0.321275145
0.973480999 0.719554365 0.389880747
0.980369389 0.743324935 0.478111535
0.986877561 0.770662010 0.554361522
0.993682981 0.787878811 0.611148238
0.111258261 0.001354216 0.150583893
0.233930483 0.003074103 0.128764763
0.329444677 0.000204348 0.117642812
0.410305560 0.000797286 0.109695233
0.489778221 0.000705166 0.110233411
0.593967974 0.000000000 0.123786472
0.707461774 0.000000000 0.147397295
0.823062360 0.000000000 0.192562521
0.001994848 0.075275198 0.210919216
0.180861428 0.053222004 0.168822944
0.306165993 0.060001984 0.149536312
0.396050215 0.060226902 0.138236806
0.493561924 0.057955671 0.143309399
0.611671865 0.019715061 0.166834250
0.734297276 0.006451614 0.208278671
0.860902548 0.006597509 0.273774028
0.005411703 0.210139543 0.153571367
0.105167307 0.151918486 0.172876805
0.271257162 0.146933928 0.193962365
0.394397497 0.155378386 0.178783357
0.502633691 0.158030286 0.187344238
0.631085932 0.133780971 0.223953038
0.770741642 0.094735362 0.284253329
0.910234392 0.123423070 0.369565189
0.015127369 0.328168839 0.061824005
0.044550553 0.320481181 0.108252674
0.226889402 0.253012180 0.138079554
0.394871145 0.256903082 0.231929809
0.519822836 0.272042006 0.231419951
0.657370090 0.265743285 0.280573696
0.809851587 0.268018961 0.361178577
0.956414342 0.292372078 0.455694973
0.120893069 0.407397419 0.051349007
0.221305683 0.417069137 0.049034316
0.319457412 0.414410651 0.104675338
0.421846807 0.412260503 0.184246659
0.541449666 0.414604872 0.292962879
0.728322506 0.418556601 0.362661809
0.886991739 0.424812734 0.447336137
0.990984678 0.465084434 0.547193170
0.365541965 0.494493604 0.041755877
0.482790709 0.507966876 0.037517413
0.601391971 0.518130481 0.042179540
0.702755809 0.522540867 0.131339356
0.772048771 0.531457782 0.296247154
0.875624180 0.578608632 0.431271940
0.986648977 0.594543815 0.525969326
0.994174898 0.583746493 0.582716405
0.630024254 0.594761252 0.027511856
0.741523743 0.606651127 0.025806461
0.826274693 0.619195998 0.029423919
0.897269666 0.630727649 0.153097019
0.953959525 0.647106707 0.319074392
0.981001437 0.681772590 0.483072430
0.987586856 0.708045065 0.555909574
0.994742155 0.708398461 0.611876488
0.848747194 0.686787009 0.025806461
0.923516452 0.698994756 0.053570628
0.958281934 0.717079103 0.211342633
0.966287971 0.733071566 0.327486247
0.973208189 0.746843457 0.394653857
0.980098724 0.769250631 0.492663264
0.986667275 0.802946746 0.587684929
0.993472755 0.825484335 0.650138021
0.140343368 0.000315173 0.203592047
0.278933227 0.000015431 0.163790867
0.374327362 0.000000000 0.146575376
0.452254176 0.000000000 0.134739354
0.534892142 0.000000000 0.133509710
0.634431839 0.000000000 0.142536074
0.736932516 0.000000000 0.164765418
0.844934702 0.000000000 0.207113877
0.004014474 0.060706664 0.275476009
0.226814106 0.032133531 0.212960541
0.352642864 0.042688027 0.185877010
0.451588541 0.038777374 0.171637639
0.547765493 0.031052848 0.174307793
0.653013110 0.007882985 0.189937755
0.762225151 0.006451614 0.227087542
0.880220532 0.008423078 0.287948638
0.000000000 0.193312481 0.252554208
0.024227085 0.160443485 0.315876096
0.307665527 0.138403624 0.238581553
0.450717300 0.138709933 0.226914108
0.563189805 0.133676082 0.226969257
0.672281325 0.116690852 0.249435306
0.793826759 0.109417006 0.300113827
0.921013057 0.147644326 0.377101958
0.009633345 0.339260399 0.103031643
0.006779411 0.330704272 0.234199315
0.267590106 0.233267382 0.204635113
0.441347390 0.248887181 0.294774115
0.580853820 0.254872948 0.282331675
0.691594779 0.268992007 0.304363757
0.819228292 0.283706725 0.367007732
0.952270865 0.307362825 0.451883525
0.000000000 0.455205739 0.065569133
0.057965502 0.459752351 0.073736005
0.139007255 0.422313660 0.156275988
0.431710243 0.372134358 0.176847085
0.585396111 0.392126232 0.353707761
0.716444075 0.420673132 0.363207102
0.844224930 0.434442192 0.432364792
0.982120335 0.453730673 0.523285508
0.169964492 0.541263282 0.048092447
0.290067494 0.553491652 0.041634250
0.405744165 0.560662568 0.082894213
0.513371110 0.566256464 0.181892261
0.617937148 0.571774304 0.299184233
0.738280416 0.581958890 0.437589645
0.899935007 0.585248947 0.514629900
0.994365692 0.598211467 0.596844733
0.457499176 0.639112353 0.041040357
0.574140131 0.656427264 0.057549000
0.692093909 0.671910763 0.065340921
0.796675384 0.677262247 0.132596016
0.872832179 0.680398166 0.290853381
0.932276130 0.689583004 0.445789158
0.986780882 0.742819011 0.590042889
0.994636238 0.740569174 0.648423195
0.718297899 0.740952790 0.089052700
0.820612073 0.748368084 0.047267571
0.906657279 0.754706144 0.050603054
0.962169945 0.767326355 0.210938811
0.972869754 0.779746354 0.395930111
0.979784310 0.794595599 0.497454047
0.986466289 0.828949094 0.611831307
0.993193030 0.863181770 0.689468920
0.159462139 0.000013093 0.264088750
0.314243674 0.000000000 0.201388180
0.412262768 0.000000000 0.183174491
0.499228835 0.000000000 0.171192214
0.589042783 0.000000000 0.168286040
0.681284606 0.000000000 0.172940537
0.775711536 0.000000000 0.193302363
0.877595901 0.000000000 0.233809277
0.019825039 0.037938006 0.339720875
0.269147426 0.016916376 0.258249491
0.394250423 0.033185609 0.227184936
0.507912636 0.012745719 0.217907295
0.605827987 0.006802325 0.216632977
0.701591015 0.006451614 0.228091523
0.802080572 0.006451614 0.260315508
0.912837625 0.012158853 0.317077518
0.000000000 0.167612284 0.339624345
0.015346108 0.140939280 0.376213968
0.351030886 0.127088532 0.292380512
0.509668708 0.108008124 0.282462180
0.623221457 0.080389455 0.280128747
0.728663027 0.080914609 0.296226919
0.834799886 0.110491596 0.337400943
0.948670924 0.168842316 0.401672810
0.000275426 0.336916506 0.223567262
0.006451614 0.302531779 0.344466299
0.168788046 0.250031710 0.384809226
0.487999141 0.238464981 0.361426383
0.636950672 0.237798169 0.351290762
0.748745441 0.258279592 0.360597283
0.860470355 0.288981497 0.402541459
0.968272388 0.322995842 0.469155759
0.000000000 0.479359269 0.072630003
0.006451614 0.482054889 0.190409839
0.026315819 0.454685599 0.330066174
0.485460520 0.353632420 0.277311116
0.633784711 0.385170966 0.430216938
0.771885514 0.413153619 0.428860247
0.875738144 0.440943509 0.458659261
0.985713959 0.468754679 0.528736711
0.008511503 0.593683958 0.064233474
0.112511091 0.603099644 0.061761718
0.201900050 0.579986513 0.135771930
0.316760927 0.564534605 0.248041928
0.667348862 0.509871781 0.241643324
0.773175955 0.554833770 0.500551224
0.885819554 0.584539831 0.512889802
0.988861263 0.601435781 0.580981553
0.242798343 0.684992433 0.057476487
0.378109187 0.701475680 0.047764562
0.503624082 0.718360186 0.067422666
0.609896362 0.722945213 0.188362733
0.708966553 0.728152573 0.313501179
0.797824562 0.727445364 0.436275661
0.903438628 0.737294734 0.576810420
0.994605184 0.748041391 0.660435200
0.548545957 0.787557185 0.084624819
0.661170721 0.798643529 0.114307627
0.767291725 0.809559226 0.137598976
0.865013123 0.815907359 0.178509623
0.950756848 0.821214616 0.300375313
0.979161024 0.830829024 0.494041741
0.986183286 0.843381107 0.611146986
0.992821991 0.900318027 0.729262590
0.197630361 0.000000000 0.313910335
0.346972525 0.000323589 0.242338836
0.452207148 0.000000000 0.227833390
0.552367508 0.000000000 0.219325110
0.643411815 0.000000000 0.212714374
0.731010377 0.000000000 0.215914741
0.821088791 0.000000000 0.234321237
0.918627918 0.000576101 0.274403065
0.049672384 0.016451091 0.394963354
0.302422106 0.010492284 0.306822747
0.443372220 0.010532028 0.278572649
0.558941483 0.006455823 0.271836221
0.659919262 0.006451614 0.269346356
0.753794491 0.006451614 0.280311793
0.850789368 0.006520823 0.308816791
0.953591526 0.036816195 0.361558139
0.002524185 0.144962147 0.407495558
0.054715134 0.117808327 0.420823276
0.400394648 0.104446791 0.354974598
0.560778141 0.054620109 0.342918843
0.682039917 0.030874154 0.343699992
0.784842432 0.046834774 0.358398736
0.886529684 0.112553760 0.392365247
0.971311569 0.191433132 0.442095190
0.000000000 0.311651796 0.344028860
0.006451614 0.276218593 0.439534932
0.227969766 0.233148262 0.445799768
0.537307143 0.222542524 0.429937333
0.691222906 0.219488636 0.424397707
0.809887767 0.244053915 0.432153374
0.913120031 0.288223535 0.461186826
0.984144330 0.347542584 0.512293756
0.000000000 0.487003982 0.171472251
0.006451614 0.469456434 0.327421218
0.019513432 0.431246221 0.453369886
0.387828380 0.378325760 0.499317199
0.674996078 0.381962597 0.506723106
0.825054705 0.402831197 0.507399321
0.929592669 0.436735898 0.519707203
0.991492391 0.487392932 0.568466604
0.009400472 0.624397993 0.072468638
0.012906577 0.636131227 0.140642613
0.046189014 0.619091392 0.292482615
0.213194713 0.558393300 0.401448578
0.708202243 0.503591180 0.388224006
0.813438535 0.545747101 0.576773286
0.940287530 0.576203644 0.575899720
0.994103491 0.609253943 0.605716825
0.020093430 0.745141268 0.085206889
0.177532583 0.756047070 0.078360096
0.282084137 0.749976456 0.126072109
0.401345789 0.736855984 0.239333868
0.518657267 0.731009364 0.382222712
0.866456032 0.656199276 0.355371416
0.938911855 0.710667491 0.636905491
0.994224548 0.744927526 0.657494664
0.333772689 0.833598733 0.098054670
0.466504276 0.843948960 0.103672117
0.584931374 0.855127275 0.128566071
0.691347599 0.861143947 0.205518916
0.787665784 0.867116988 0.318203866
0.870392263 0.873673201 0.446053833
0.959356666 0.883503497 0.585581839
0.992760599 0.906389534 0.741415679
