Desert Affinity Presets/Desert Affinity Preset #31.cube
TITLE "32x32x32 Adobe/IRIDAS cube 3D LUT exported with GrossGrade v0.1.027.1 (beta) 64 bit"
LUT_3D_SIZE 5
DOMAIN_MIN 0.000000 0.000000 0.000000
DOMAIN_MAX 0.903226 0.903226 0.903226
0.002087435 0.001710532 0.002957198
0.143315896 0.023162823 0.028067661
0.343573630 0.017605748 0.037336260
0.531130731 0.004383893 0.027262457
0.741011798 0.000000000 0.018853348
0.075597480 0.131925166 0.028285118
0.227393895 0.161949292 0.026157031
0.459332079 0.148140669 0.006089287
0.723640084 0.088544123 0.001646473
0.948389888 0.136834800 0.075502962
0.132793993 0.305958182 0.032987464
0.277630776 0.337154955 0.031972736
0.538106382 0.359884381 0.000000000
0.821759522 0.364185423 0.000072013
0.987641990 0.440061212 0.253866404
0.198281154 0.506315112 0.016962737
0.394447356 0.549751222 0.011756307
0.643748045 0.603733659 0.008162682
0.901079416 0.626503110 0.000392796
0.991874933 0.650346458 0.253427982
0.347292185 0.736365139 0.015918996
0.549627364 0.785401225 0.042588055
0.761848092 0.825890839 0.103889994
0.970252454 0.856841564 0.134272948
0.990902245 0.877765894 0.326066792
0.003841458 0.018769586 0.103328198
0.015996875 0.028668998 0.146146610
0.176454976 0.008768724 0.154520378
0.374404430 0.007821812 0.160670608
0.579428017 0.000000000 0.186884806
0.000159457 0.148070797 0.130298018
0.101783298 0.142630637 0.117080085
0.303274333 0.152004540 0.146506906
0.539814115 0.141953483 0.167384699
0.782410443 0.090475708 0.213115662
0.056292903 0.303965181 0.109465629
0.182010323 0.309943587 0.129318744
0.428633660 0.371879429 0.141409576
0.741308928 0.379343569 0.134563074
0.982672751 0.416452885 0.240486801
0.136148214 0.498873532 0.097598143
0.306842595 0.531761587 0.133310184
0.536086857 0.601771295 0.175744101
0.827381372 0.655248821 0.141400695
0.992454886 0.674709797 0.319278896
0.273345023 0.738439083 0.108000182
0.474119693 0.780053139 0.157407045
0.674338102 0.829908967 0.214015514
0.894103050 0.879889429 0.268040389
0.990513146 0.906921089 0.406545341
0.006780887 0.031829625 0.207450330
0.021679770 0.033962876 0.266837329
0.045645773 0.027157718 0.328968465
0.080257431 0.015568324 0.373195648
0.397358924 0.002960942 0.334399939
0.000000000 0.173254162 0.244877577
0.011290320 0.180838570 0.298157215
0.022580640 0.184878722 0.351266205
0.297622204 0.168298438 0.331050634
0.573649883 0.150214016 0.381527424
0.000000000 0.350266486 0.246598139
0.018461233 0.345650762 0.280073792
0.245515943 0.319586068 0.178848937
0.535950184 0.366862178 0.361961335
0.808788478 0.387992173 0.433622777
0.002381089 0.552761257 0.266583413
0.180784374 0.521822274 0.271835387
0.402392775 0.563646734 0.328025281
0.700116038 0.659234524 0.401931524
0.989473462 0.681356966 0.444953442
0.168146208 0.734545588 0.242530838
0.380478263 0.762498319 0.299987406
0.573075652 0.805271447 0.366444200
0.792848170 0.874106765 0.437656224
0.990336299 0.931375563 0.545579910
0.022184128 0.027470998 0.337137729
0.040336240 0.029587409 0.384995013
0.060632359 0.028424922 0.433434218
0.092737608 0.020253843 0.482935786
0.143587753 0.004782308 0.532680571
0.000000000 0.173437640 0.355820984
0.011692946 0.180266172 0.405287534
0.023654753 0.191465273 0.459174871
0.041543122 0.196826354 0.520108104
0.209009528 0.180929214 0.562223613
0.000000000 0.356808007 0.368504673
0.011290320 0.376347065 0.441305608
0.022580640 0.394739956 0.507741749
0.075291418 0.401060611 0.564247787
0.542612612 0.404055417 0.596343875
0.000000000 0.572056472 0.399205983
0.011290320 0.600971699 0.476132691
0.055662125 0.615694761 0.543620765
0.489421487 0.600215435 0.430408418
0.772522509 0.649642766 0.598451376
0.000078560 0.811306298 0.453809679
0.130222648 0.804916441 0.494753093
0.431696236 0.804459453 0.529331565
0.632460117 0.824027836 0.570634425
0.907812178 0.935043156 0.642065465
0.038987439 0.027068356 0.440523297
0.062311847 0.023938626 0.486009210
0.102165461 0.015144650 0.541796684
0.133531198 0.011683814 0.601848543
0.168709695 0.002985258 0.655668974
0.002413829 0.174091756 0.459080905
0.018557992 0.183980763 0.512019157
0.038439341 0.195851594 0.575238645
0.060495559 0.205087662 0.642789960
0.084582210 0.205898106 0.702191710
0.000000000 0.364257306 0.493315428
0.011290320 0.385208905 0.562713027
0.022580640 0.407663763 0.631913066
0.033870984 0.429289669 0.698376417
0.045696247 0.442846984 0.762135565
0.000000000 0.589530170 0.531680048
0.011290320 0.620965123 0.616889119
0.022580640 0.644487381 0.691299558
0.033870984 0.662761629 0.752134800
0.423477650 0.677476168 0.809083819
0.000000000 0.832440197 0.586115897
0.011290320 0.856125236 0.660629213
0.022580640 0.870704412 0.725255787
0.362779021 0.874219656 0.758126378
0.721047282 0.912789404 0.813232243
