Desert Affinity Presets/Desert Affinity Preset #13.cube
TITLE "32x32x32 Adobe/IRIDAS cube 3D LUT exported with GrossGrade v0.1.027.1 (beta) 64 bit"
LUT_3D_SIZE 5
DOMAIN_MIN 0.000000 0.000000 0.000000
DOMAIN_MAX 0.903226 0.903226 0.903226
0.274657339 0.131784007 0.060970426
0.330923885 0.144564360 0.068994313
0.446653098 0.140434608 0.060701620
0.648381293 0.112404495 0.028648933
0.924504995 0.064726867 0.000000000
0.229869932 0.239323199 0.018268771
0.319090992 0.250599205 0.018970184
0.413837433 0.253577203 0.035744525
0.604677975 0.236153603 0.008953432
0.890334189 0.196553141 0.000000000
0.179559991 0.342390567 0.000000000
0.283616811 0.386641026 0.000000000
0.453201950 0.384779423 0.000000000
0.655824065 0.371862471 0.014451651
0.916363418 0.351923704 0.000000000
0.139198750 0.487292945 0.000000000
0.245092139 0.552056909 0.000000000
0.415524185 0.584255219 0.000000000
0.721956730 0.560960054 0.000000000
0.994781137 0.538191855 0.000000000
0.087192863 0.669454515 0.000000000
0.195139438 0.762154341 0.000000000
0.368613929 0.837527454 0.000000000
0.690922499 0.833894730 0.000000000
0.995161295 0.798231661 0.000000000
0.267217994 0.120379157 0.290246576
0.327069998 0.136310324 0.261409700
0.442162126 0.131975666 0.253645241
0.642034113 0.104520597 0.222846374
0.918536425 0.057188433 0.172286764
0.160975695 0.232660860 0.217359781
0.290470868 0.247945890 0.229044586
0.404935986 0.248221710 0.225266978
0.601078093 0.231043413 0.203873858
0.887735605 0.192291886 0.160848916
0.084882915 0.318494469 0.115345359
0.257595778 0.369307935 0.199450955
0.424204618 0.386656016 0.204803750
0.609980285 0.383006752 0.214050099
0.904152870 0.355523556 0.177826524
0.052390210 0.446797699 0.069352239
0.207652912 0.507718146 0.151762888
0.389829665 0.585596859 0.182572812
0.684041202 0.573525369 0.174051777
0.978230298 0.559189856 0.198550239
0.017648712 0.613042057 0.031377688
0.157609478 0.698844016 0.105077587
0.349040508 0.811877131 0.164895639
0.651405334 0.849359751 0.139805600
0.995161295 0.815069795 0.144504398
0.262150675 0.111337513 0.470353901
0.331510544 0.129493177 0.406378895
0.442425728 0.128426656 0.385391921
0.642816722 0.101058923 0.353279650
0.920195162 0.054046065 0.302085012
0.141981035 0.209587917 0.398712665
0.280375123 0.234177917 0.391771346
0.407473743 0.246437386 0.357152700
0.606447399 0.229793757 0.336447328
0.895936608 0.191528931 0.294166923
0.019491617 0.310002685 0.282573849
0.183201790 0.355902165 0.323755115
0.402096838 0.393674552 0.356189489
0.610339761 0.386474460 0.344616532
0.914977252 0.358692974 0.312600046
0.000000000 0.437559605 0.189594656
0.100272909 0.458373487 0.218541771
0.363353074 0.560392141 0.322839975
0.652090430 0.588985741 0.330910593
0.937787175 0.582899272 0.337451398
0.000000000 0.585200369 0.122466065
0.063697390 0.612476468 0.168730423
0.296039194 0.723722458 0.260623336
0.618858278 0.861758947 0.317929447
0.994170845 0.837269545 0.305677474
0.253405452 0.098760590 0.701794684
0.332715660 0.117611356 0.591473937
0.445381939 0.122648962 0.527579427
0.644355953 0.097455971 0.484646320
0.923470616 0.051229581 0.429779410
0.140651986 0.198093280 0.617642879
0.265839309 0.215844065 0.570218921
0.413009822 0.240294129 0.501924276
0.612984776 0.229140371 0.467087001
0.904915810 0.191381767 0.423185319
0.016470326 0.306362271 0.482050717
0.153300717 0.321264714 0.492969900
0.386836439 0.374618292 0.520663738
0.620941162 0.388706326 0.479535848
0.928212941 0.361612350 0.447508156
0.000000000 0.439015836 0.363894343
0.029671375 0.441535980 0.362181187
0.274930149 0.522148848 0.425357282
0.622208416 0.604641318 0.486996442
0.942144692 0.591433167 0.469417185
0.000000000 0.583115518 0.259305924
0.011290320 0.581997037 0.261655957
0.170839101 0.607201695 0.288918823
0.562858760 0.812149763 0.444822967
0.991001844 0.856003225 0.459130108
0.243902728 0.085411310 0.942759693
0.328773618 0.103855044 0.810921490
0.450701416 0.111918792 0.696309924
0.650275469 0.092514336 0.617492080
0.928841114 0.048339289 0.553012669
0.138096869 0.186918393 0.869030237
0.258485824 0.204828605 0.791734040
0.413601607 0.227422461 0.679577649
0.624682188 0.225927413 0.602017581
0.915908098 0.191272110 0.548690975
0.022323938 0.302424043 0.727749765
0.158080548 0.315535069 0.721953571
0.364521384 0.348777413 0.694196999
0.633888543 0.383322954 0.626574874
0.943800330 0.365369767 0.580331385
0.000000000 0.439530015 0.561482310
0.031467006 0.443367720 0.560296297
0.236696050 0.463148743 0.574835539
0.591484070 0.569136143 0.649010718
0.959517539 0.599736869 0.604471207
0.000000000 0.586382091 0.420174360
0.011290320 0.583653212 0.415043086
0.094106592 0.571634948 0.405356020
0.421776533 0.726078033 0.507599592
0.964310050 0.875408292 0.615718544
