Desert Affinity Presets/Desert Affinity Preset #4.cube
TITLE "32x32x32 Adobe/IRIDAS cube 3D LUT exported with GrossGrade v0.1.027.1 (beta) 64 bit"
LUT_3D_SIZE 5
DOMAIN_MIN 0.000000 0.000000 0.000000
DOMAIN_MAX 0.903226 0.903226 0.903226
0.000000000 0.041618261 0.186940998
0.070895381 0.034515623 0.210706413
0.335361838 0.000000000 0.188328087
0.640118122 0.000000000 0.156689629
0.911233485 0.000000000 0.141428366
0.000000000 0.133263886 0.179692656
0.020178284 0.151334092 0.176062524
0.333534271 0.118104428 0.175425187
0.675674498 0.087613046 0.177043766
0.980106056 0.073098324 0.193820879
0.000000000 0.349396318 0.144344747
0.012305046 0.397081852 0.176219270
0.269275367 0.402868241 0.154394820
0.646096945 0.378784150 0.154723868
0.976106048 0.367318273 0.184094787
0.000000000 0.634786606 0.153624758
0.013751849 0.689104617 0.193476766
0.264904439 0.699358940 0.181465089
0.581752658 0.692842960 0.146547213
0.909068584 0.675013959 0.143321052
0.000000000 0.905675352 0.214428291
0.038350735 0.951001883 0.245555565
0.292209089 0.948766708 0.225916028
0.582019866 0.933770299 0.183291614
0.849805593 0.922415733 0.144320861
0.000000000 0.040978495 0.272822529
0.029736381 0.047614940 0.281478316
0.303193778 0.000000000 0.281936496
0.615366638 0.000000000 0.258369267
0.891989589 0.000000000 0.249712452
0.000000000 0.132410914 0.268124133
0.033171918 0.155109987 0.279877931
0.327755213 0.131973878 0.287624389
0.667309940 0.104251750 0.290773332
0.971901000 0.091606505 0.308998764
0.000000000 0.358787864 0.244599804
0.021054575 0.407424688 0.280702412
0.290489286 0.414856493 0.266434401
0.663523555 0.391746461 0.275920331
0.979201972 0.384815812 0.301108032
0.000000000 0.647027910 0.257180333
0.025493184 0.700907707 0.298097581
0.290770799 0.709623277 0.291004151
0.601491034 0.703363419 0.257119000
0.931176186 0.682174265 0.260345995
0.000000000 0.915178299 0.315433353
0.060632143 0.959082127 0.346171558
0.313705593 0.955187619 0.327803999
0.602431655 0.939155042 0.289505571
0.865049481 0.928441405 0.250386626
0.000000000 0.030246759 0.488611430
0.020553308 0.036958918 0.490954965
0.243142992 0.000763151 0.459976166
0.551846921 0.000000000 0.457009017
0.849034607 0.000000000 0.470779538
0.000000000 0.124028072 0.485234559
0.034927338 0.152451828 0.503754318
0.288108230 0.146606609 0.499913514
0.638241291 0.115465462 0.527488232
0.950210214 0.101539068 0.553743243
0.000000000 0.359411299 0.472898602
0.034911428 0.408842593 0.511396229
0.301895469 0.417038858 0.508658648
0.652604222 0.400482118 0.522977233
0.963871956 0.394508421 0.547878504
0.000000000 0.649487913 0.489052713
0.040965635 0.702702463 0.530756295
0.305838108 0.710029364 0.525552571
0.610647738 0.703288436 0.497093737
0.934537232 0.681059420 0.507470965
0.000000000 0.914405584 0.544909775
0.072117224 0.956679583 0.575081646
0.324395597 0.951617777 0.557048559
0.612932086 0.934047043 0.523664236
0.870194614 0.924355090 0.486361802
0.000000000 0.017674895 0.719476879
0.015038256 0.024148123 0.720332325
0.232445866 0.000000000 0.683063805
0.502211154 0.000000000 0.651489854
0.779890120 0.000000000 0.673129439
0.000000000 0.116659969 0.720587134
0.037017111 0.150142133 0.744878769
0.290044069 0.147049725 0.737422645
0.590290487 0.135779262 0.734541953
0.897963762 0.123006135 0.780578434
0.000000000 0.360067040 0.716040850
0.043615147 0.410869986 0.755831242
0.309357613 0.420101494 0.755166531
0.616137981 0.418288380 0.755361319
0.936062932 0.406990081 0.802764118
0.000000000 0.651312411 0.734891295
0.053212032 0.703734577 0.776373625
0.317877978 0.709623933 0.771329105
0.618070781 0.701484382 0.752256751
0.917976618 0.684153259 0.765797079
0.000000000 0.912174463 0.788104057
0.081388190 0.953084648 0.817816496
0.333231002 0.946777940 0.799992740
0.621727288 0.928177834 0.768853784
0.873943806 0.918884933 0.737847447
0.000000000 0.010029890 0.883955181
0.014357404 0.016564785 0.884309947
0.229907975 0.000000000 0.846574247
0.500155568 0.000000000 0.810830534
0.750818968 0.000000000 0.811257958
0.000000000 0.116160594 0.891792834
0.044894096 0.153619558 0.920478106
0.299303263 0.152242959 0.913484037
0.598074913 0.143992379 0.904800057
0.865292490 0.147826239 0.920711875
0.000000000 0.366785049 0.893776536
0.056186993 0.418559134 0.934922934
0.322111696 0.428448379 0.935631454
0.627041399 0.427701533 0.930516124
0.895064473 0.434247315 0.945454478
0.000000000 0.658766270 0.913616478
0.067674398 0.710592151 0.954392195
0.330506831 0.715584397 0.948389173
0.627337337 0.706350267 0.929247677
0.881820440 0.702282667 0.927187800
0.002723391 0.915455818 0.963806689
0.093760855 0.954871833 0.992293537
0.345317096 0.947654426 0.974142790
0.634148180 0.928158283 0.943701565
0.882907569 0.918631494 0.923247218
