Desert Affinity Presets/Desert Affinity Preset #12.cube
TITLE "32x32x32 Adobe/IRIDAS cube 3D LUT exported with GrossGrade v0.1.027.1 (beta) 64 bit"
DOMAIN_MIN 0 0 0
DOMAIN_MAX 1 1 1
LUT_3D_SIZE 32
0.157876700 0.127985895 0.005508509
0.172434792 0.127961814 0.005499156
0.187481433 0.127653643 0.005206429
0.202193514 0.127476946 0.005044164
0.216351807 0.127601981 0.005182579
0.230272770 0.127680495 0.005261140
0.244484693 0.127815083 0.005395808
0.259305477 0.127719223 0.005303224
0.275283366 0.127468437 0.005071284
0.292863488 0.126945585 0.004582629
0.312043935 0.125797495 0.003460355
0.332453400 0.124273546 0.001936862
0.354121447 0.122341305 0.000550851
0.377189666 0.119854607 0.000000000
0.401757002 0.116949998 0.000000000
0.427973568 0.113512434 0.000000000
0.456431150 0.109472178 0.000000000
0.487821519 0.104583330 0.000000000
0.522557795 0.098775208 0.000000000
0.560205698 0.092124708 0.000000000
0.599923372 0.084869362 0.000000000
0.641038775 0.077295423 0.000000000
0.682287872 0.069633961 0.000000000
0.722978532 0.062198441 0.000000000
0.762049079 0.055131868 0.000000000
0.799293399 0.048684824 0.000000000
0.835504174 0.042421550 0.000000000
0.871474743 0.036229912 0.000000000
0.907678545 0.030128416 0.000000000
0.943537593 0.024024704 0.000000000
0.979554176 0.018045729 0.000000000
1.000000000 0.011872245 0.000000000
0.156083226 0.142914370 0.003457078
0.172235459 0.142679766 0.001122275
0.188812718 0.141882211 0.002485374
0.202447489 0.141895786 0.004218826
0.216364637 0.142181054 0.004873955
0.230382279 0.142438903 0.005246178
0.244715512 0.142720759 0.005589871
0.259704381 0.142775357 0.005724547
0.275560796 0.142386630 0.005415449
0.292925090 0.141611814 0.004730859
0.311862022 0.140220508 0.003400965
0.332027048 0.138465062 0.001730177
0.353514761 0.136351287 0.000390927
0.376390398 0.133739024 0.000000000
0.400789887 0.130723879 0.000000000
0.426833928 0.127226934 0.000000000
0.455108196 0.123122312 0.000000000
0.486323059 0.118201323 0.000000000
0.520919323 0.112378120 0.000000000
0.558611155 0.105681010 0.000000000
0.598249018 0.098447509 0.000000000
0.639322281 0.090874545 0.000000000
0.680791497 0.083165422 0.000000000
0.721732497 0.075683609 0.000000000
0.761046171 0.068574458 0.000000000
0.798469007 0.062118597 0.000000000
0.834945858 0.055870343 0.000000000
0.871174335 0.049672514 0.000000000
0.907561243 0.043612719 0.000000000
0.943900645 0.037622117 0.000000000
0.980136871 0.031804983 0.000000000
1.000000000 0.025746992 0.000000000
0.153947920 0.158280268 0.000989943
0.170992300 0.157374769 0.003849874
0.186970383 0.157922700 0.000000000
0.205016240 0.157098845 0.000000000
0.219046444 0.156959772 0.000172082
0.231621385 0.157293588 0.002606019
0.244829357 0.157402858 0.003624483
0.259062886 0.157314569 0.003977533
0.274442226 0.156769216 0.003682003
0.291438252 0.155805126 0.002880975
0.310261488 0.154344738 0.001598775
0.330237210 0.152499065 0.000289922
0.351463586 0.150339618 0.000000000
0.374092519 0.147762105 0.000000000
0.398402721 0.144753426 0.000000000
0.424243301 0.141232491 0.000000000
0.452175319 0.137207434 0.000000000
0.483153552 0.132357851 0.000000000
0.517460048 0.126649335 0.000000000
0.554763556 0.120106906 0.000000000
0.594435692 0.112958498 0.000000000
0.635502815 0.105408274 0.000000000
0.676960111 0.097759239 0.000000000
0.718037307 0.090368211 0.000000000
0.757592022 0.083340004 0.000000000
0.795308471 0.076925710 0.000000000
0.832039177 0.070769109 0.000000000
0.868600130 0.064706020 0.000000000
0.905327618 0.058781266 0.000000000
0.941830158 0.052838851 0.000000000
0.978656650 0.047028266 0.000000000
1.000000000 0.041246235 0.000000000
0.152559236 0.174028620 0.000000000
0.170477971 0.172628909 0.003204102
0.185361087 0.172850221 0.000867894
0.201566577 0.173026368 0.000000000
0.219005838 0.172080025 0.000000000
0.234647989 0.171318159 0.000000000
0.247757241 0.170982495 0.000000000
0.260829777 0.170834586 0.000056114
0.275227606 0.170321509 0.000425530
0.291393727 0.169452161 0.000452652
0.309474587 0.167984411 0.000000000
0.329019308 0.166170895 0.000000000
0.349946380 0.164043516 0.000000000
0.372326374 0.161492392 0.000000000
0.396345735 0.158532977 0.000000000
0.422103643 0.155111983 0.000000000
0.449870914 0.151162088 0.000000000
0.480482608 0.146374375 0.000000000
0.514738023 0.140778169 0.000000000
0.551994979 0.134398758 0.000000000
0.591605127 0.127412349 0.000000000
0.632718086 0.119992264 0.000000000
0.674450278 0.112400904 0.000000000
0.715970814 0.105060451 0.000000000
0.756001592 0.098128006 0.000000000
0.793944001 0.091777757 0.000000000
0.830967069 0.085830100 0.000000000
0.867854774 0.079970948 0.000000000
0.905093074 0.074146286 0.000000000
0.942095101 0.068529315 0.000000000
0.979194939 0.062846415 0.000000000
1.000000000 0.057229377 0.000000000
0.151158750 0.188917741 0.000000000
0.169364959 0.187069222 0.001747477
0.185339510 0.186346635 0.002720585
0.199027196 0.187024981 0.000000000
0.215053633 0.187001169 0.000000000
0.232422069 0.186058149 0.000000000
0.249066770 0.184888780 0.000000000
0.264334887 0.184010789 0.000000000
0.278779268 0.183204442 0.000000000
0.294242948 0.182283595 0.000000000
0.311475903 0.180886045 0.000000000
0.330328733 0.179171175 0.000000000
0.350648165 0.177182898 0.000000000
0.372601390 0.174749777 0.000000000
0.396210760 0.171931103 0.000000000
0.421639711 0.168649286 0.000000000
0.449231595 0.164853945 0.000000000
0.479760736 0.160224497 0.000000000
0.513856947 0.154749125 0.000000000
0.551166236 0.148474693 0.000000000
0.591078460 0.141612127 0.000000000
0.632633150 0.134355322 0.000000000
0.674678743 0.126916215 0.000000000
0.716472507 0.119670950 0.000000000
0.756781638 0.112974994 0.000000000
0.795251548 0.106855378 0.000000000
0.832773626 0.101045504 0.000000000
0.870239675 0.095410228 0.000000000
0.907973170 0.089795217 0.000000000
0.945592940 0.084347442 0.000000000
0.983354747 0.078950182 0.000000000
1.000000000 0.073600203 0.000000000
0.149412662 0.203164816 0.000000000
0.167872280 0.201097161 0.000089314
0.184596568 0.199894279 0.001980352
0.198514715 0.199840799 0.000046761
0.212013483 0.200767130 0.000000000
0.228192106 0.200570092 0.000000000
0.245661497 0.199456304 0.000000000
0.263497442 0.198146015 0.000000000
0.280887187 0.196759611 0.000000000
0.298166245 0.195304215 0.000000000
0.315708727 0.193707496 0.000000000
0.334129870 0.192049637 0.000000000
0.353793532 0.190074518 0.000000000
0.375229836 0.187808380 0.000000000
0.398456126 0.185167566 0.000000000
0.423555315 0.182033673 0.000000000
0.450920284 0.178447559 0.000000000
0.481322736 0.174036205 0.000000000
0.515444934 0.168744683 0.000000000
0.552776635 0.162667796 0.000000000
0.592671216 0.155924454 0.000000000
0.634608924 0.148879498 0.000000000
0.677142203 0.141759709 0.000000000
0.719275713 0.134760320 0.000000000
0.759942055 0.128220201 0.000000000
0.798959374 0.122398891 0.000000000
0.837166190 0.116865173 0.000000000
0.875175714 0.111399136 0.000000000
0.913063169 0.106063329 0.000000000
0.951175213 0.100786112 0.000000000
0.989427686 0.095638603 0.000000000
1.000000000 0.090381645 0.000000000
0.147186652 0.217208818 0.000000000
0.165858611 0.215011179 0.000000000
0.183234498 0.213530123 0.000409164
0.198071092 0.212896302 0.000584519
0.210828483 0.213633135 0.000000000
0.224709466 0.214440688 0.000000000
0.241473645 0.214175612 0.000000000
0.259673983 0.212950379 0.000000000
0.278667033 0.211351514 0.000000000
0.298550874 0.209516451 0.000000000
0.318684727 0.207432821 0.000000000
0.338679910 0.205387756 0.000000000
0.358870089 0.203291923 0.000000000
0.380146116 0.201046333 0.000000000
0.403192878 0.198566779 0.000000000
0.428034842 0.195589483 0.000000000
0.455310434 0.192102790 0.000000000
0.485885769 0.187945172 0.000000000
0.520133376 0.182843551 0.000000000
0.557852387 0.176980048 0.000000000
0.597912252 0.170560881 0.000000000
0.639777839 0.163738832 0.000000000
0.682655334 0.156848744 0.000000000
0.725203872 0.150280356 0.000000000
0.765870750 0.144207045 0.000000000
0.804705143 0.138633400 0.000000000
0.843031526 0.133301944 0.000000000
0.881367981 0.128049999 0.000000000
0.919441700 0.122942977 0.000000000
0.958176494 0.117851108 0.000000000
0.995612741 0.112794340 0.000000000
1.000000000 0.107682146 0.000000000
0.144365981 0.231383339 0.000000000
0.163285881 0.229116827 0.000000000
0.181047276 0.227514520 0.000000000
0.196623430 0.226597130 0.000000000
0.209907711 0.226885304 0.000000000
0.222658664 0.227828562 0.000000000
0.237450942 0.228573799 0.000000000
0.255091667 0.228096500 0.000000000
0.274395615 0.226797000 0.000000000
0.295330673 0.224981293 0.000000000
0.317533523 0.222658545 0.000000000
0.340103626 0.220299169 0.000000000
0.362770259 0.217838958 0.000000000
0.385645777 0.215291917 0.000000000
0.409450084 0.212654933 0.000000000
0.434784681 0.209857792 0.000000000
0.462361664 0.206499204 0.000000000
0.493276805 0.202419594 0.000000000
0.527948678 0.197536260 0.000000000
0.566081822 0.191836223 0.000000000
0.606566072 0.185629293 0.000000000
0.648549914 0.179164767 0.000000000
0.691147745 0.172626838 0.000000000
0.733181834 0.166357905 0.000000000
0.773586988 0.160624683 0.000000000
0.812290967 0.155372933 0.000000000
0.850366771 0.150336623 0.000000000
0.888607383 0.145338044 0.000000000
0.926787019 0.140430808 0.000000000
0.965616465 0.135544375 0.000000000
0.997401357 0.130700752 0.000000000
1.000000000 0.125787020 0.000000000
0.140725821 0.245988816 0.000000000
0.159920707 0.243756562 0.000000000
0.178089023 0.242021441 0.000000000
0.194248870 0.241006956 0.000000000
0.208424613 0.240962952 0.000000000
0.221171558 0.241695300 0.000000000
0.234600455 0.242941216 0.000000000
0.250663429 0.243471071 0.000000000
0.269573838 0.242862061 0.000000000
0.290702462 0.241492644 0.000000000
0.313705623 0.239338785 0.000000000
0.337879509 0.236913249 0.000000000
0.362854719 0.234356582 0.000000000
0.388511240 0.231557488 0.000000000
0.414654225 0.228610232 0.000000000
0.441877186 0.225510597 0.000000000
0.471004754 0.222091332 0.000000000
0.503097415 0.217950791 0.000000000
0.538527548 0.213009804 0.000000000
0.577007294 0.207415715 0.000000000
0.617673278 0.201390892 0.000000000
0.659558415 0.195166916 0.000000000
0.701611817 0.188965797 0.000000000
0.742796004 0.183057547 0.000000000
0.782409430 0.177726761 0.000000000
0.820798993 0.172833979 0.000000000
0.858754873 0.168065414 0.000000000
0.896741867 0.163350776 0.000000000
0.934866309 0.158717826 0.000000000
0.973596811 0.154039890 0.000000000
0.997648716 0.149482265 0.000000000
1.000000000 0.144854665 0.000000000
0.135983452 0.261299521 0.000000000
0.155450851 0.259103447 0.000000000
0.174111098 0.257419437 0.000000000
0.190929726 0.256341636 0.000000000
0.205929086 0.256159514 0.000000000
0.219287112 0.256738722 0.000000000
0.232242286 0.257927626 0.000000000
0.246982783 0.259257704 0.000000000
0.264687151 0.259668916 0.000000000
0.285507292 0.258952588 0.000000000
0.308788329 0.257401288 0.000000000
0.333483249 0.255278468 0.000000000
0.359775811 0.252820790 0.000000000
0.387342721 0.250021070 0.000000000
0.416124076 0.246958792 0.000000000
0.446126461 0.243488580 0.000000000
0.478049785 0.239539638 0.000000000
0.512552917 0.234931603 0.000000000
0.549693167 0.229699433 0.000000000
0.589081407 0.224034816 0.000000000
0.629899144 0.218119487 0.000000000
0.671516597 0.212091714 0.000000000
0.712895691 0.206196651 0.000000000
0.753125489 0.200713769 0.000000000
0.791761816 0.195803553 0.000000000
0.829698086 0.191263661 0.000000000
0.867533326 0.186796546 0.000000000
0.905290186 0.182383761 0.000000000
0.943145454 0.178045943 0.000000000
0.981679857 0.173637167 0.000000000
0.997903585 0.169343427 0.000000000
1.000000000 0.165053576 0.000000000
0.130284861 0.277637750 0.000000000
0.150194660 0.275496125 0.000000000
0.169264078 0.273932487 0.000000000
0.186647773 0.272890180 0.000000000
0.202274770 0.272633046 0.000000000
0.216600999 0.273209244 0.000000000
0.229965791 0.274450928 0.000000000
0.244067997 0.275964439 0.000000000
0.260524303 0.277278244 0.000000000
0.280324429 0.277544498 0.000000000
0.303256392 0.276710033 0.000000000
0.328246921 0.275137991 0.000000000
0.354815394 0.273007125 0.000000000
0.383390516 0.270420402 0.000000000
0.413531512 0.267298907 0.000000000
0.445608258 0.263645232 0.000000000
0.480281562 0.259304911 0.000000000
0.517978072 0.254141718 0.000000000
0.558044851 0.248343691 0.000000000
0.599524498 0.242264867 0.000000000
0.641697466 0.236172691 0.000000000
0.683489621 0.230205864 0.000000000
0.724368274 0.224612445 0.000000000
0.763761818 0.219531238 0.000000000
0.801513791 0.215019897 0.000000000
0.838874519 0.210803002 0.000000000
0.876467824 0.206706777 0.000000000
0.913872719 0.202649325 0.000000000
0.951552570 0.198600501 0.000000000
0.989473104 0.194523007 0.000000000
0.998149097 0.190553352 0.000000000
1.000000000 0.186508432 0.000000000
0.124293342 0.294989258 0.000000000
0.144613713 0.293009520 0.000000000
0.164265215 0.291559190 0.000000000
0.182266325 0.290705532 0.000000000
0.198491096 0.290538967 0.000000000
0.213599369 0.291088760 0.000000000
0.227702007 0.292325258 0.000000000
0.241954803 0.294053078 0.000000000
0.257541895 0.295734763 0.000000000
0.276053697 0.296829492 0.000000000
0.298053831 0.296870798 0.000000000
0.322651863 0.295938909 0.000000000
0.349375933 0.294301838 0.000000000
0.377973258 0.291966408 0.000000000
0.408829600 0.289018542 0.000000000
0.441916674 0.285442054 0.000000000
0.478306800 0.281010479 0.000000000
0.518589079 0.275507659 0.000000000
0.561801195 0.269186020 0.000000000
0.606631398 0.262455881 0.000000000
0.651180565 0.255882382 0.000000000
0.694588125 0.249771625 0.000000000
0.735948205 0.244247407 0.000000000
0.775050640 0.239451021 0.000000000
0.812371612 0.235243917 0.000000000
0.849292874 0.231287867 0.000000000
0.886481166 0.227507383 0.000000000
0.923377931 0.223932311 0.000000000
0.961056948 0.220149368 0.000000000
0.994561374 0.216406330 0.000000000
0.998387098 0.212805882 0.000000000
1.000000000 0.209141091 0.000000000
0.118238837 0.313576370 0.000000000
0.139124304 0.311790675 0.000000000
0.159239158 0.310457647 0.000000000
0.177848682 0.309828937 0.000000000
0.194675535 0.309904367 0.000000000
0.210468605 0.310442686 0.000000000
0.225302368 0.311648339 0.000000000
0.239832833 0.313303918 0.000000000
0.255262017 0.315109372 0.000000000
0.272738636 0.316736728 0.000000000
0.293514371 0.317566007 0.000000000
0.317234933 0.317457974 0.000000000
0.343483955 0.316396862 0.000000000
0.372029036 0.314475745 0.000000000
0.402903199 0.311864763 0.000000000
0.436379790 0.308553636 0.000000000
0.473381966 0.304324955 0.000000000
0.515134335 0.298837900 0.000000000
0.560788274 0.292230994 0.000000000
0.608608425 0.285054982 0.000000000
0.656466722 0.277885735 0.000000000
0.702427149 0.271301001 0.000000000
0.745575428 0.265593439 0.000000000
0.785559058 0.260814011 0.000000000
0.823415875 0.256700814 0.000000000
0.860601127 0.252895266 0.000000000
0.897570312 0.249322280 0.000000000
0.934288323 0.246091932 0.000000000
0.971746802 0.242706761 0.000000000
0.995215118 0.239308670 0.000000000
0.998387098 0.236113131 0.000000000
1.000000000 0.232849419 0.000000000
0.112151116 0.333494633 0.000000000
0.133481085 0.331953108 0.000000000
0.154125139 0.330808878 0.000000000
0.173196152 0.330303580 0.000000000
0.190545291 0.330483079 0.000000000
0.206786737 0.331065446 0.000000000
0.222209141 0.332105488 0.000000000
0.237314299 0.333764851 0.000000000
0.252832860 0.335633427 0.000000000
0.269927204 0.337429434 0.000000000
0.289631844 0.338861346 0.000000000
0.312184364 0.339573443 0.000000000
0.337546587 0.339254141 0.000000000
0.365693450 0.337955236 0.000000000
0.396320105 0.335822314 0.000000000
0.429709643 0.332905948 0.000000000
0.466720283 0.329043239 0.000000000
0.508830488 0.323872983 0.000000000
0.555777729 0.317341387 0.000000000
0.605668247 0.309990168 0.000000000
0.656383157 0.302462161 0.000000000
0.705431700 0.295383781 0.000000000
0.751278222 0.289234579 0.000000000
0.793251395 0.284229219 0.000000000
0.832720876 0.279985726 0.000000000
0.871025443 0.276152641 0.000000000
0.908653617 0.272663414 0.000000000
0.945699751 0.269607097 0.000000000
0.983153343 0.266560197 0.000000000
0.995903492 0.263489634 0.000000000
0.998387098 0.260655731 0.000000000
1.000000000 0.257805735 0.000000000
0.105778277 0.354658842 0.000000000
0.127512768 0.353271186 0.000000000
0.148630455 0.352327347 0.000000000
0.168105602 0.351920068 0.000000000
0.185894385 0.352133542 0.000000000
0.202548280 0.352832407 0.000000000
0.218562737 0.353873640 0.000000000
0.234235093 0.355362952 0.000000000
0.250065714 0.357319176 0.000000000
0.267104715 0.359248281 0.000000000
0.286155671 0.360953629 0.000000000
0.307609200 0.362270325 0.000000000
0.331865698 0.362811923 0.000000000
0.359218091 0.362274647 0.000000000
0.389378726 0.360796183 0.000000000
0.422486871 0.358441293 0.000000000
0.459087729 0.355071455 0.000000000
0.500907421 0.350404054 0.000000000
0.548156381 0.344211757 0.000000000
0.599331975 0.336937785 0.000000000
0.652056396 0.329292119 0.000000000
0.703837216 0.321920812 0.000000000
0.752452910 0.315420657 0.000000000
0.797035038 0.310096443 0.000000000
0.838888288 0.305621386 0.000000000
0.879203975 0.301622272 0.000000000
0.918169856 0.298084855 0.000000000
0.956561685 0.295000523 0.000000000
0.990708053 0.292128175 0.000000000
0.996648848 0.289315820 0.000000000
0.998387098 0.286756814 0.000000000
1.000000000 0.284276217 0.000000000
0.099028215 0.376943290 0.000000000
0.121056221 0.375725389 0.000000000
0.142525166 0.374904454 0.000000000
0.162426054 0.374625146 0.000000000
0.180639312 0.374936163 0.000000000
0.197755799 0.375744432 0.000000000
0.214244470 0.376894921 0.000000000
0.230456918 0.378365159 0.000000000
0.246779233 0.380273223 0.000000000
0.264064074 0.382304609 0.000000000
0.282931685 0.384201258 0.000000000
0.303468734 0.385959983 0.000000000
0.326642841 0.387149483 0.000000000
0.352883935 0.387473375 0.000000000
0.382305622 0.386745989 0.000000000
0.414722323 0.385048032 0.000000000
0.450900435 0.382297754 0.000000000
0.492020279 0.378156304 0.000000000
0.538977385 0.372609347 0.000000000
0.590567350 0.365641475 0.000000000
0.644632995 0.358071566 0.000000000
0.698406041 0.350639224 0.000000000
0.749532640 0.343921781 0.000000000
0.796589434 0.338357627 0.000000000
0.841000199 0.333639175 0.000000000
0.883751988 0.329442829 0.000000000
0.924815118 0.325767100 0.000000000
0.965195656 0.322554052 0.000000000
0.992537975 0.319682628 0.000000000
0.996774197 0.317020327 0.000000000
0.998387098 0.314697504 0.000000000
1.000000000 0.312459528 0.000000000
0.091666028 0.400410354 0.000000000
0.113798708 0.399397224 0.000000000
0.135699078 0.398681402 0.000000000
0.156046018 0.398544848 0.000000000
0.174610808 0.399033636 0.000000000
0.192174375 0.399971038 0.000000000
0.209046379 0.401286036 0.000000000
0.225852653 0.402808934 0.000000000
0.242739230 0.404705763 0.000000000
0.260376841 0.406808913 0.000000000
0.279317558 0.408863813 0.000000000
0.299645483 0.410854250 0.000000000
0.321824342 0.412637204 0.000000000
0.346918225 0.413736612 0.000000000
0.375285834 0.413878381 0.000000000
0.406978548 0.412921757 0.000000000
0.442236990 0.410879463 0.000000000
0.482560366 0.407422453 0.000000000
0.528815687 0.402451217 0.000000000
0.580229521 0.396126628 0.000000000
0.634894311 0.388815075 0.000000000
0.690077066 0.381481797 0.000000000
0.743296981 0.374734074 0.000000000
0.792679906 0.369022369 0.000000000
0.839198947 0.364185333 0.000000000
0.884340227 0.359860033 0.000000000
0.927844882 0.356065631 0.000000000
0.970440149 0.352676421 0.000000000
0.993232369 0.349767774 0.000000000
0.996774197 0.347221375 0.000000000
0.998387098 0.345176011 0.000000000
1.000000000 0.343259394 0.000000000
0.083294414 0.425251216 0.000000000
0.105588637 0.424424559 0.000000000
0.127883270 0.423821181 0.000000000
0.148566887 0.423851669 0.000000000
0.167564780 0.424501538 0.000000000
0.185575604 0.425611466 0.000000000
0.202896908 0.427128375 0.000000000
0.220131740 0.428820252 0.000000000
0.237568319 0.430762023 0.000000000
0.255747706 0.432919800 0.000000000
0.274970859 0.435130596 0.000000000
0.295210809 0.437371671 0.000000000
0.317058414 0.439476043 0.000000000
0.341151625 0.441228360 0.000000000
0.368324310 0.442243159 0.000000000
0.398973137 0.442199528 0.000000000
0.433372647 0.440954775 0.000000000
0.472535431 0.438354433 0.000000000
0.518055677 0.434124827 0.000000000
0.568841338 0.428475678 0.000000000
0.623541296 0.421662480 0.000000000
0.679566860 0.414560437 0.000000000
0.734496772 0.407900989 0.000000000
0.786028564 0.402213484 0.000000000
0.834363639 0.397414774 0.000000000
0.881510973 0.393125802 0.000000000
0.927295387 0.389440954 0.000000000
0.972357631 0.386152297 0.000000000
0.993570447 0.383281797 0.000000000
0.996774197 0.380812317 0.000000000
0.998387098 0.379007071 0.000000000
1.000000000 0.377485812 0.000000000
0.073487580 0.451709837 0.000000000
0.095916040 0.451145142 0.000000000
0.118614830 0.450679809 0.000000000
0.139717072 0.450863242 0.000000000
0.159072757 0.451712579 0.000000000
0.177462891 0.452995390 0.000000000
0.195199877 0.454694808 0.000000000
0.212864295 0.456584990 0.000000000
0.230861694 0.458663136 0.000000000
0.249426574 0.460931748 0.000000000
0.269096702 0.463248938 0.000000000
0.289516211 0.465696305 0.000000000
0.311082929 0.468164206 0.000000000
0.334533691 0.470395744 0.000000000
0.360669345 0.472129792 0.000000000
0.390128851 0.473033160 0.000000000
0.423474908 0.472727686 0.000000000
0.461502194 0.471047342 0.000000000
0.505756497 0.467751503 0.000000000
0.556010962 0.462839842 0.000000000
0.610423267 0.456692368 0.000000000
0.666924357 0.449988514 0.000000000
0.723139644 0.443622172 0.000000000
0.776663303 0.438166767 0.000000000
0.826845825 0.433688611 0.000000000
0.875697792 0.429657727 0.000000000
0.923894942 0.426211059 0.000000000
0.971145511 0.423345208 0.000000000
0.993657410 0.420706987 0.000000000
0.996774197 0.418342859 0.000000000
0.998387098 0.416623861 0.000000000
1.000000000 0.415293932 0.000000000
0.061246797 0.480211020 0.000000000
0.083972119 0.479926705 0.000000000
0.107190490 0.479612499 0.000000000
0.128759548 0.479970098 0.000000000
0.148489743 0.481060356 0.000000000
0.167191043 0.482615322 0.000000000
0.185219079 0.484511077 0.000000000
0.203286454 0.486620218 0.000000000
0.221774653 0.488844097 0.000000000
0.240944758 0.491283983 0.000000000
0.260957271 0.493784934 0.000000000
0.281672150 0.496413916 0.000000000
0.303358465 0.499168873 0.000000000
0.326508045 0.501818836 0.000000000
0.351770729 0.504168928 0.000000000
0.380114764 0.505916893 0.000000000
0.412292778 0.506648600 0.000000000
0.449096978 0.505971193 0.000000000
0.492061138 0.503781796 0.000000000
0.541371346 0.499868214 0.000000000
0.595569372 0.494646996 0.000000000
0.652387679 0.488644123 0.000000000
0.709564507 0.482684731 0.000000000
0.764666200 0.477603227 0.000000000
0.816658974 0.473581970 0.000000000
0.867114067 0.470018387 0.000000000
0.917103231 0.466759920 0.000000000
0.966386497 0.464262038 0.000000000
0.993441343 0.461862743 0.000000000
0.996774197 0.459755272 0.000000000
0.998387098 0.458153576 0.000000000
1.000000000 0.456881464 0.000000000
0.046391658 0.510919034 0.000000000
0.069509260 0.510883033 0.000000000
0.093173429 0.510777473 0.000000000
0.115183949 0.511332929 0.000000000
0.135353416 0.512733579 0.000000000
0.154439360 0.514574349 0.000000000
0.172778875 0.516761839 0.000000000
0.191134632 0.519139826 0.000000000
0.210117877 0.521616817 0.000000000
0.229975656 0.524139822 0.000000000
0.250683069 0.526839316 0.000000000
0.271796674 0.529672801 0.000000000
0.293716520 0.532712519 0.000000000
0.317078322 0.535707533 0.000000000
0.342075557 0.538550317 0.000000000
0.369572937 0.541050375 0.000000000
0.400635988 0.542887032 0.000000000
0.436427057 0.543466032 0.000000000
0.477891386 0.542447507 0.000000000
0.526203334 0.539803445 0.000000000
0.579832494 0.535659909 0.000000000
0.636778355 0.530672669 0.000000000
