Desert Affinity Presets/Desert Affinity Preset #10.cube
TITLE "32x32x32 Adobe/IRIDAS cube 3D LUT exported with GrossGrade v0.1.027.1 (beta) 64 bit"
DOMAIN_MIN 0 0 0
DOMAIN_MAX 1 1 1
LUT_3D_SIZE 32
0.000000000 0.096050702 0.000000000
0.001612904 0.094214603 0.000000000
0.003225807 0.091545537 0.000000000
0.004838713 0.088288538 0.000000000
0.006451614 0.084317572 0.000000000
0.008064517 0.078507900 0.000000000
0.028674770 0.066001043 0.000000000
0.123423591 0.041064568 0.000000000
0.185298845 0.031106262 0.000000000
0.235163301 0.024577877 0.000000000
0.281505436 0.018900076 0.000000000
0.325460941 0.013721246 0.000000000
0.367819905 0.008785108 0.000000000
0.409257948 0.003919551 0.000000000
0.449930936 0.000667756 0.000000000
0.489796907 0.000000000 0.000000000
0.528871417 0.000000000 0.000000000
0.567146122 0.000000000 0.000000000
0.604371548 0.000000000 0.000000000
0.640364468 0.000000000 0.000000000
0.674886107 0.000000000 0.000000000
0.708030283 0.000000000 0.000000000
0.740053415 0.000000000 0.000000000
0.771198809 0.000000000 0.000000000
0.801631570 0.000000000 0.000000000
0.831502259 0.000000000 0.000000000
0.860824227 0.000000000 0.000000000
0.889653921 0.000000000 0.000000000
0.918332934 0.000000000 0.000000000
0.946796417 0.000000000 0.000000000
0.974747896 0.000000000 0.000000000
1.000000000 0.000000000 0.000000000
0.000000000 0.118160985 0.000000000
0.001612904 0.116136633 0.000000000
0.003225807 0.112295009 0.000000000
0.004838713 0.109567538 0.000000000
0.006451614 0.106022768 0.000000000
0.008064517 0.100629874 0.000000000
0.030010255 0.088561267 0.000000000
0.129788220 0.063781381 0.000000000
0.191570953 0.053694040 0.000000000
0.241131037 0.046814468 0.000000000
0.287072539 0.040681213 0.000000000
0.330679476 0.035109088 0.000000000
0.372789681 0.029879319 0.000000000
0.414059728 0.024801012 0.000000000
0.454582661 0.019855013 0.000000000
0.494319290 0.015081643 0.000000000
0.533319294 0.010495750 0.000000000
0.571565986 0.006097343 0.000000000
0.608787775 0.003006866 0.000000000
0.644792199 0.002062281 0.000000000
0.679350317 0.001963616 0.000000000
0.712571919 0.001877574 0.000000000
0.744721532 0.001803223 0.000000000
0.775997996 0.001737289 0.000000000
0.806568742 0.001677435 0.000000000
0.836592019 0.001625529 0.000000000
0.866144300 0.001612904 0.000000000
0.895200551 0.001612904 0.000000000
0.924060822 0.001612904 0.000000000
0.952951372 0.001612904 0.000000000
0.981299460 0.001612904 0.000000000
1.000000000 0.001612904 0.000000000
0.000000000 0.141667217 0.000000000
0.001612904 0.138428256 0.000000000
0.003225807 0.137401477 0.000000000
0.004838713 0.132838845 0.000000000
0.006451614 0.128471300 0.000000000
0.008064517 0.123243742 0.000000000
0.031194290 0.111115120 0.000000000
0.133644372 0.086195685 0.000000000
0.194467768 0.075919382 0.000000000
0.243467525 0.068791091 0.000000000
0.289130747 0.062492315 0.000000000
0.332518011 0.056756511 0.000000000
0.374454379 0.051384546 0.000000000
0.415640354 0.046227682 0.000000000
0.456149012 0.041269083 0.000000000
0.495867372 0.036485847 0.000000000
0.534863293 0.031903256 0.000000000
0.573136747 0.027539955 0.000000000
0.610436141 0.023492243 0.000000000
0.646539569 0.019789180 0.000000000
0.681198716 0.016488791 0.000000000
0.714529097 0.013608751 0.000000000
0.746841729 0.011126635 0.000000000
0.778343379 0.008960638 0.000000000
0.809144616 0.007021909 0.000000000
0.839392424 0.005325871 0.000000000
0.869203210 0.004646889 0.000000000
0.898641765 0.004542610 0.000000000
0.927903116 0.004515489 0.000000000
0.956993759 0.004496783 0.000000000
0.985870183 0.004495852 0.000000000
1.000000000 0.004522035 0.000000000
0.000000000 0.166435093 0.000000000
0.001612904 0.162458792 0.000000000
0.003225807 0.160729960 0.000000000
0.004838713 0.158490181 0.000000000
0.006451614 0.152664110 0.000000000
0.008235663 0.145081893 0.000000000
0.033486482 0.131894127 0.000000000
0.142861992 0.106917009 0.000000000
0.201115072 0.096805938 0.000000000
0.248118833 0.089865595 0.000000000
0.292368054 0.083752051 0.000000000
0.334846437 0.078159377 0.000000000
0.376225084 0.072883703 0.000000000
0.417086184 0.067760982 0.000000000
0.457468092 0.062822051 0.000000000
0.497175246 0.058110368 0.000000000
0.536210001 0.053619370 0.000000000
0.574555337 0.049348656 0.000000000
0.612023532 0.045479141 0.000000000
0.648370624 0.042030465 0.000000000
0.683266699 0.038975567 0.000000000
0.716823459 0.036323268 0.000000000
0.749357641 0.034071703 0.000000000
0.781168222 0.032208707 0.000000000
0.812363744 0.030672563 0.000000000
0.842989385 0.029359065 0.000000000
0.873155415 0.028316738 0.000000000
0.903027594 0.027643368 0.000000000
0.932873309 0.027238887 0.000000000
0.962545872 0.026999922 0.000000000
0.991596162 0.027033169 0.000000000
1.000000000 0.027468009 0.000000000
0.000000000 0.190149903 0.000000000
0.001612904 0.185417518 0.000000000
0.003225807 0.182011604 0.000000000
0.004838713 0.180611372 0.000000000
0.006451614 0.176916733 0.000000000
0.008121565 0.169088334 0.000000000
0.036065884 0.154280350 0.000000000
0.154435828 0.127621606 0.000000000
0.213683441 0.116748817 0.000000000
0.259063244 0.109754615 0.000000000
0.301292986 0.103846632 0.000000000
0.342019588 0.098561011 0.000000000
0.382052094 0.093624875 0.000000000
0.421842277 0.088842638 0.000000000
0.461352676 0.084204800 0.000000000
0.500508785 0.079787716 0.000000000
0.539268613 0.075612843 0.000000000
0.577558935 0.071652628 0.000000000
0.615038037 0.067972481 0.000000000
0.651525855 0.064760894 0.000000000
0.686765909 0.062127303 0.000000000
0.720721662 0.059918731 0.000000000
0.753627360 0.058051087 0.000000000
0.785804629 0.056560792 0.000000000
0.817464650 0.055502106 0.000000000
0.848688662 0.054802578 0.000000000
0.879420519 0.054331183 0.000000000
0.909795046 0.054159600 0.000000000
0.940216601 0.054344773 0.000000000
0.970620930 0.054836717 0.000000000
0.997563601 0.055562440 0.000000000
1.000000000 0.056339156 0.000000000
0.000000000 0.213102862 0.000000000
0.001612904 0.208011359 0.000000000
0.003225807 0.203723237 0.000000000
0.004838713 0.201001599 0.000000000
0.006451614 0.198914185 0.000000000
0.008064517 0.192938641 0.000000000
0.033729747 0.178393453 0.000000000
0.154785290 0.151011497 0.000000000
0.220818326 0.138853922 0.000000000
0.270849407 0.130669743 0.000000000
0.314242899 0.124226987 0.000000000
0.354043543 0.118911646 0.000000000
0.392546058 0.114244662 0.000000000
0.430986017 0.109891698 0.000000000
0.469363034 0.105712377 0.000000000
0.507555425 0.101720311 0.000000000
0.545570612 0.098004177 0.000000000
0.583345354 0.094581783 0.000000000
0.620498478 0.091470227 0.000000000
0.656721175 0.088717856 0.000000000
0.691854358 0.086513042 0.000000000
0.726052761 0.084914751 0.000000000
0.759464562 0.083757311 0.000000000
0.792126834 0.082879633 0.000000000
0.824232101 0.082359277 0.000000000
0.856014013 0.082275994 0.000000000
0.887456834 0.082544878 0.000000000
0.918454349 0.083005838 0.000000000
0.949300051 0.083631091 0.000000000
0.980043769 0.084456891 0.000000000
0.997856379 0.085566558 0.000000000
1.000000000 0.086705662 0.000000000
0.000000000 0.235987976 0.000000000
0.001612904 0.230714306 0.000000000
0.003225807 0.226002932 0.000000000
0.004838713 0.222222388 0.000000000
0.006451614 0.219720080 0.000000000
0.008064517 0.215679914 0.000000000
0.032187436 0.202826738 0.000000000
0.148888886 0.175926983 0.000000000
0.217957392 0.163488373 0.000000000
0.273385376 0.154592916 0.000000000
0.322564423 0.147170484 0.000000000
0.366262019 0.141062200 0.000000000
0.406061560 0.136039943 0.000000000
0.444104791 0.131786928 0.000000000
0.481547236 0.128048211 0.000000000
0.518755436 0.124613263 0.000000000
0.555832565 0.121433400 0.000000000
0.592896402 0.118596144 0.000000000
0.629589498 0.116216183 0.000000000
0.665555000 0.114238888 0.000000000
0.700448513 0.112703264 0.000000000
0.734440982 0.111719064 0.000000000
0.767844856 0.111299835 0.000000000
0.800740480 0.111298919 0.000000000
0.833077431 0.111503199 0.000000000
0.864962101 0.111888960 0.000000000
0.896559477 0.112537958 0.000000000
0.927820325 0.113412395 0.000000000
0.958908796 0.114380471 0.000000000
0.989378572 0.115471281 0.000000000
0.998164535 0.116810784 0.000000000
1.000000000 0.118236400 0.000000000
0.000000000 0.259454817 0.000000000
0.001612904 0.254110634 0.000000000
0.003225807 0.249181420 0.000000000
0.004838713 0.244889781 0.000000000
0.006451614 0.241588175 0.000000000
0.008064517 0.237823948 0.000000000
0.030899607 0.226972684 0.000000000
0.141493872 0.201693580 0.000000000
0.211032167 0.189943999 0.000000000
0.268451661 0.181143239 0.000000000
0.321598262 0.173438549 0.000000000
0.370527059 0.166792721 0.000000000
0.415378869 0.161130235 0.000000000
0.456790626 0.156395346 0.000000000
0.495703191 0.152573705 0.000000000
0.533114314 0.149525031 0.000000000
0.569764793 0.146952391 0.000000000
0.606115997 0.144728824 0.000000000
0.642160594 0.143004015 0.000000000
0.677686691 0.141824156 0.000000000
0.712293983 0.141123295 0.000000000
0.745948672 0.140805498 0.000000000
0.778903186 0.140848443 0.000000000
0.811401129 0.141290754 0.000000000
0.843542099 0.142030507 0.000000000
0.875247836 0.142885059 0.000000000
0.906557083 0.143881842 0.000000000
0.937581837 0.145099983 0.000000000
0.968569338 0.146421641 0.000000000
0.995095372 0.147835001 0.000000000
0.998387098 0.149416029 0.000000000
1.000000000 0.151055679 0.000000000
0.000000000 0.284044474 0.000000000
0.001612904 0.278766364 0.000000000
0.003225807 0.273773849 0.000000000
0.004838713 0.269320935 0.000000000
0.006451614 0.265439302 0.000000000
0.008064517 0.261327803 0.000000000
0.029878389 0.251313329 0.000000000
0.134421259 0.228039175 0.000000000
0.202868029 0.217922255 0.000000000
0.260709614 0.209983155 0.000000000
0.315326691 0.202690333 0.000000000
0.367295235 0.196193308 0.000000000
0.416488647 0.190443784 0.000000000
0.462849796 0.185391337 0.000000000
0.506192088 0.181174323 0.000000000
0.546670973 0.177923024 0.000000000
0.584960282 0.175520942 0.000000000
0.621791363 0.173720539 0.000000000
0.657469451 0.172425404 0.000000000
0.692289591 0.171647266 0.000000000
0.726180732 0.171391323 0.000000000
0.759154797 0.171559989 0.000000000
0.791480780 0.172013670 0.000000000
0.823335052 0.172763586 0.000000000
0.854938745 0.173844755 0.000000000
0.886277676 0.175150961 0.000000000
0.917196691 0.176538929 0.000000000
0.947848558 0.178054437 0.000000000
0.978551090 0.179693222 0.000000000
0.995720148 0.181445196 0.000000000
0.998387098 0.183348745 0.000000000
1.000000000 0.185256138 0.000000000
0.000000000 0.310294628 0.000000000
0.001612904 0.305244774 0.000000000
0.003225807 0.300356328 0.000000000
0.004838713 0.295926660 0.000000000
0.006451614 0.291865528 0.000000000
0.008064517 0.287457258 0.000000000
0.029078735 0.277540118 0.000000000
0.128721043 0.255520612 0.000000000
0.194671616 0.247429416 0.000000000
0.251846731 0.241210580 0.000000000
0.306943715 0.234948680 0.000000000
0.360077739 0.229043722 0.000000000
0.411612779 0.223682642 0.000000000
0.461494058 0.218811557 0.000000000
0.509070873 0.214485049 0.000000000
0.553884506 0.210855767 0.000000000
0.595868111 0.207988471 0.000000000
0.635167181 0.205869228 0.000000000
0.672130287 0.204467356 0.000000000
0.707185388 0.203712061 0.000000000
0.740650356 0.203606039 0.000000000
0.772971809 0.204045787 0.000000000
0.804599404 0.204846784 0.000000000
0.835736871 0.205898523 0.000000000
0.866611779 0.207234904 0.000000000
0.897357225 0.208894268 0.000000000
0.927846909 0.210674897 0.000000000
0.958042443 0.212521642 0.000000000
0.987649143 0.214441717 0.000000000
0.996336520 0.216472819 0.000000000
0.998387098 0.218698099 0.000000000
1.000000000 0.220885217 0.000000000
0.000000000 0.338683665 0.000000000
0.001612904 0.333943903 0.000000000
0.003225807 0.329328954 0.000000000
0.004838713 0.325048208 0.000000000
0.006451614 0.321128547 0.000000000
0.008064517 0.316628188 0.000000000
0.028587800 0.306808233 0.000000000
0.124686085 0.285319507 0.000000000
0.188036576 0.278708994 0.000000000
0.243171334 0.274397314 0.000000000
0.297770619 0.269765735 0.000000000
0.351310015 0.264877439 0.000000000
0.403681785 0.260054588 0.000000000
0.455123961 0.255444705 0.000000000
0.505221128 0.251151353 0.000000000
0.553306520 0.247320935 0.000000000
0.598996758 0.244047716 0.000000000
0.642011821 0.241403937 0.000000000
0.682079613 0.239523366 0.000000000
0.719248950 0.238433555 0.000000000
0.753810763 0.238115340 0.000000000
0.786420941 0.238498330 0.000000000
0.817772567 0.239432037 0.000000000
0.848362505 0.240733847 0.000000000
0.878549457 0.242271870 0.000000000
0.908543229 0.244122893 0.000000000
0.938449025 0.246267557 0.000000000
0.968120277 0.248425812 0.000000000
0.992720306 0.250631034 0.000000000
0.996774197 0.252907127 0.000000000
0.998387098 0.255365074 0.000000000
1.000000000 0.257815242 0.000000000
0.000000000 0.369124591 0.000000000
0.001612904 0.364804655 0.000000000
0.003225807 0.360682875 0.000000000
0.004838713 0.356831104 0.000000000
0.006451614 0.353086650 0.000000000
0.008064517 0.348664165 0.000000000
0.028214542 0.338872373 0.000000000
0.122214854 0.317656368 0.000000000
0.184211969 0.311766118 0.000000000
0.236809671 0.308854938 0.000000000
0.289475173 0.305737644 0.000000000
0.342300951 0.302080512 0.000000000
0.394774228 0.297997355 0.000000000
0.446746945 0.293796271 0.000000000
0.497934103 0.289732307 0.000000000
0.547937512 0.285953343 0.000000000
0.596254587 0.282576650 0.000000000
0.642417312 0.279629827 0.000000000
0.685874641 0.277281255 0.000000000
0.726347983 0.275701493 0.000000000
0.763623059 0.274954647 0.000000000
0.798054338 0.274987727 0.000000000
0.830407441 0.275689989 0.000000000
0.861355007 0.276937157 0.000000000
0.891376495 0.278574884 0.000000000
0.920808315 0.280492753 0.000000000
0.950027466 0.282768220 0.000000000
0.979178548 0.285243243 0.000000000
0.993714929 0.287689805 0.000000000
0.996774197 0.290186137 0.000000000
0.998387098 0.292836100 0.000000000
1.000000000 0.295491278 0.000000000
0.000000000 0.402013332 0.000000000
0.001612904 0.398205876 0.000000000
0.003225807 0.394513667 0.000000000
0.004838713 0.391135097 0.000000000
0.006451614 0.387776613 0.000000000
0.008064517 0.383277535 0.000000000
0.027751666 0.373332739 0.000000000
0.120097116 0.351998419 0.000000000
0.181744650 0.346244812 0.000000000
0.232532829 0.344031930 0.000000000
0.282760739 0.342195660 0.000000000
0.333859980 0.339844376 0.000000000
0.385634333 0.336832255 0.000000000
0.437605143 0.333287030 0.000000000
0.489179701 0.329597473 0.000000000
0.539961696 0.326045305 0.000000000
0.589791715 0.322790653 0.000000000
0.638125181 0.319850743 0.000000000
0.684193909 0.317282796 0.000000000
0.727620006 0.315316319 0.000000000
0.768024385 0.314119101 0.000000000
0.805401683 0.313693464 0.000000000
0.840100944 0.313956589 0.000000000
0.872648895 0.314840585 0.000000000
0.903601587 0.316265911 0.000000000
0.933422625 0.318108678 0.000000000
0.962442577 0.320260704 0.000000000
0.987967730 0.322847396 0.000000000
0.994816184 0.325484723 0.000000000
0.996774197 0.328132749 0.000000000
0.998387098 0.330942482 0.000000000
1.000000000 0.333741099 0.000000000
0.000000000 0.437372297 0.000000000
0.001612904 0.434089094 0.000000000
0.003225807 0.430704325 0.000000000
0.004838713 0.427487820 0.000000000
0.006451614 0.424283862 0.000000000
0.008064517 0.419882298 0.000000000
0.027159674 0.409520179 0.000000000
0.117512293 0.388011098 0.000000000
0.179419458 0.382166386 0.000000000
0.229445875 0.380160838 0.000000000
0.277721614 0.379107416 0.000000000
0.326579511 0.377967596 0.000000000
0.376822621 0.376134813 0.000000000
0.428148061 0.373558253 0.000000000
0.479685277 0.370496988 0.000000000
0.530752718 0.367309302 0.000000000
0.581148148 0.364260912 0.000000000
0.630671859 0.361498326 0.000000000
0.678507268 0.358977735 0.000000000
0.724091649 0.356842667 0.000000000
0.767023325 0.355339140 0.000000000
0.807196856 0.354513526 0.000000000
0.844751000 0.354328275 0.000000000
0.879914880 0.354728550 0.000000000
0.912879884 0.355700284 0.000000000
0.944121480 0.357191235 0.000000000
0.974008203 0.359123856 0.000000000
0.991236508 0.361511469 0.000000000
0.995161295 0.364102691 0.000000000
0.996774197 0.366767108 0.000000000
0.998387098 0.369633913 0.000000000
1.000000000 0.372507602 0.000000000
0.000000000 0.474497974 0.000000000
0.001612904 0.471529782 0.000000000
0.003225807 0.468388110 0.000000000
0.004838713 0.465293795 0.000000000
0.006451614 0.462140501 0.000000000
0.008064517 0.457801342 0.000000000
0.026508754 0.447339714 0.000000000
0.114377975 0.425376654 0.000000000
0.176963374 0.419414967 0.000000000
0.226899043 0.417375833 0.000000000
0.274129272 0.416647941 0.000000000
0.321015328 0.416354239 0.000000000
0.369215429 0.415664434 0.000000000
0.419157147 0.414156646 0.000000000
0.470075220 0.411965042 0.000000000
0.521063328 0.409353077 0.000000000
0.571619928 0.406607479 0.000000000
0.621621072 0.404090732 0.000000000
0.670349419 0.401741534 0.000000000
0.717348814 0.399649650 0.000000000
0.762067318 0.398021162 0.000000000
0.804384232 0.396942675 0.000000000
0.844376564 0.396403044 0.000000000
0.882135034 0.396387249 0.000000000
0.917680085 0.396867901 0.000000000
0.951207757 0.397844493 0.000000000
0.982878447 0.399346024 0.000000000
0.992557049 0.401390105 0.000000000
0.995161295 0.403668493 0.000000000
0.996774197 0.406123161 0.000000000
0.998387098 0.408846408 0.000000000
1.000000000 0.411640227 0.000000000
0.000000000 0.512867987 0.000000000
0.001612904 0.510100901 0.000000000
0.003225807 0.507155001 0.000000000
0.004838713 0.504215300 0.000000000
0.006451614 0.501124799 0.000000000
0.008064517 0.496793270 0.000000000
0.025832567 0.486327410 0.000000000
0.111049488 0.464109838 0.000000000
0.174391270 0.457802325 0.000000000
0.224664614 0.455648839 0.000000000
0.271490574 0.454935372 0.000000000
0.317114621 0.455068409 0.000000000
0.363367826 0.455246508 0.000000000
0.411450595 0.454794765 0.000000000
0.461097419 0.453548044 0.000000000
0.511470675 0.451715440 0.000000000
0.561892450 0.449492604 0.000000000
0.611876786 0.447137594 0.000000000
0.661105156 0.445136130 0.000000000
0.708734810 0.443183213 0.000000000
0.754557371 0.441584796 0.000000000
0.798350930 0.440402120 0.000000000
0.840144038 0.439646155 0.000000000
0.879977524 0.439300954 0.000000000
0.917824447 0.439383298 0.000000000
0.953741729 0.439884871 0.000000000
0.986721098 0.440850943 0.000000000
0.993453026 0.442422926 0.000000000
0.995161295 0.444206029 0.000000000
0.996774197 0.446256936 0.000000000
0.998387098 0.448651493 0.000000000
1.000000000 0.451180696 0.000000000
0.000000000 0.552256346 0.000000000
0.001612904 0.549658179 0.000000000
0.003225807 0.546849489 0.000000000
0.004838713 0.544056654 0.000000000
0.006451614 0.541074693 0.000000000
0.008064517 0.536760986 0.000000000
0.025089070 0.526261866 0.000000000
0.107466504 0.503873289 0.000000000
0.171735182 0.497292399 0.000000000
0.222549140 0.494912654 0.000000000
0.269391090 0.494054526 0.000000000
0.314352065 0.494244218 0.000000000
0.359170526 0.494917274 0.000000000
0.405365765 0.495323032 0.000000000
0.453289092 0.495049477 0.000000000
0.502488732 0.494043410 0.000000000
0.552288234 0.492495805 0.000000000
0.602072775 0.490599394 0.000000000
0.651224732 0.488731563 0.000000000
0.699262261 0.487093300 0.000000000
0.745532990 0.485596716 0.000000000
0.790156722 0.484423548 0.000000000
0.833157003 0.483570188 0.000000000
0.874485672 0.483021557 0.000000000
0.914113939 0.482793301 0.000000000
0.952009737 0.482905746 0.000000000
0.987081587 0.483391225 0.000000000
0.993548393 0.484363019 0.000000000
0.995161295 0.485688984 0.000000000
0.996774197 0.487201065 0.000000000
0.998387098 0.489108115 0.000000000
1.000000000 0.491205424 0.000000000
0.000000000 0.592473328 0.000000000
0.001612904 0.590075016 0.000000000
0.003225807 0.587386310 0.000000000
0.004838713 0.584675908 0.000000000
0.006451614 0.581782103 0.000000000
0.008064517 0.577516854 0.000000000
0.024365205 0.567001402 0.000000000
0.103736967 0.544481814 0.000000000
0.168899685 0.537619591 0.000000000
0.220444605 0.534991384 0.000000000
0.267578274 0.533937275 0.000000000
0.312285185 0.534000337 0.000000000
0.356221080 0.534774840 0.000000000
0.400864333 0.535696208 0.000000000
0.446977705 0.536240697 0.000000000
0.494576782 0.536122620 0.000000000
0.543255746 0.535306156 0.000000000
0.592424870 0.534003913 0.000000000
0.641328871 0.532533944 0.000000000
0.689304650 0.531083286 0.000000000
0.735781789 0.529741406 0.000000000
0.780721128 0.528625369 0.000000000
0.824321210 0.527747095 0.000000000
0.866612196 0.527093232 0.000000000
0.907485604 0.526668906 0.000000000
0.946864486 0.526486456 0.000000000
0.984474242 0.526578248 0.000000000
0.993548393 0.527051866 0.000000000
0.995161295 0.527902603 0.000000000
0.996774197 0.528864801 0.000000000
0.998387098 0.530174673 0.000000000
1.000000000 0.531706154 0.000000000
0.000000000 0.633286357 0.000000000
0.001612904 0.631074429 0.000000000
0.003225807 0.628514647 0.000000000
0.004838713 0.625869155 0.000000000
0.006451614 0.623009026 0.000000000
0.008064517 0.618763328 0.000000000
0.023714285 0.608251572 0.000000000
0.100222833 0.585654199 0.000000000
0.166148484 0.578524172 0.000000000
0.218467698 0.575599372 0.000000000
0.266064763 0.574292839 0.000000000
0.310838908 0.574158311 0.000000000
0.354330808 0.574828446 0.000000000
0.397886544 0.575902283 0.000000000
0.442376077 0.576966047 0.000000000
0.488224328 0.577606142 0.000000000
0.535416901 0.577584684 0.000000000
0.583532810 0.576941729 0.000000000
0.631795943 0.575982928 0.000000000
0.679445982 0.574831307 0.000000000
0.725840867 0.573679864 0.000000000
0.770859301 0.572642446 0.000000000
0.814648986 0.571765423 0.000000000
0.857347369 0.571052670 0.000000000
0.898963571 0.570502400 0.000000000
0.939378679 0.570119560 0.000000000
0.978433907 0.569919348 0.000000000
0.993056476 0.570059836 0.000000000
0.995161295 0.570407927 0.000000000
0.996774197 0.570869505 0.000000000
0.998387098 0.571618795 0.000000000
1.000000000 0.572540641 0.000000000
0.000000000 0.674488783 0.000000000
0.001612904 0.672446728 0.000000000
0.003225807 0.669988930 0.000000000
0.004838713 0.667422950 0.000000000
0.006451614 0.664572358 0.000000000
0.008064517 0.660301149 0.000000000
0.023161571 0.649745226 0.000000000
0.097160280 0.627094746 0.000000000
0.163618281 0.619697034 0.000000000
0.216676548 0.616449058 0.000000000
0.264900297 0.614879906 0.000000000
0.309907705 0.614489257 0.000000000
0.353248745 0.614964426 0.000000000
0.396185428 0.615962744 0.000000000
0.439428419 0.617220938 0.000000000
0.483616441 0.618350804 0.000000000
0.529111981 0.619019032 0.000000000
0.575778663 0.619053304 0.000000000
0.623085737 0.618700862 0.000000000
0.670033872 0.617946029 0.000000000
0.716050029 0.617030263 0.000000000
0.760937750 0.616137505 0.000000000
0.804741204 0.615316868 0.000000000
0.847535372 0.614564419 0.000000000
0.889401615 0.613905728 0.000000000
0.930365145 0.613377690 0.000000000
0.970256567 0.612973511 0.000000000
0.992173612 0.612887740 0.000000000
0.995161295 0.612774491 0.000000000
0.996774197 0.612776399 0.000000000
0.998387098 0.613054752 0.000000000
1.000000000 0.613448918 0.000000000
0.000000000 0.715921879 0.000000000
0.001612904 0.713995099 0.000000000
0.003225807 0.711592138 0.000000000
0.004838713 0.709060133 0.000000000
0.006451614 0.706213176 0.000000000
0.008064517 0.701911449 0.000000000
0.022740709 0.691269696 0.000000000
0.094727464 0.668521523 0.000000000
0.161643282 0.660978675 0.000000000
0.215263709 0.657312453 0.000000000
0.264154702 0.655455172 0.000000000
0.309537888 0.654760540 0.000000000
0.352914274 0.654959023 0.000000000
0.395504236 0.655769706 0.000000000
0.437952667 0.656971216 0.000000000
0.480775982 0.658320189 0.000000000
0.524599075 0.659447432 0.000000000
0.569626331 0.660081029 0.000000000
0.615449548 0.660231888 0.000000000
0.661542833 0.660071552 0.000000000
0.706845164 0.659482360 0.000000000
0.751316845 0.658777237 0.000000000
