Desert Affinity Presets/Desert Affinity Preset #19.cube
TITLE "32x32x32 Adobe/IRIDAS cube 3D LUT exported with GrossGrade v0.1.027.1 (beta) 64 bit"
LUT_3D_SIZE 8
DOMAIN_MIN 0.000000 0.000000 0.000000
DOMAIN_MAX 0.903226 0.903226 0.903226
0.033225015 0.032674108 0.033051070
0.064596795 0.037994191 0.027510773
0.124565639 0.048301417 0.016932314
0.186089829 0.066185355 0.012894939
0.245058745 0.078208193 0.009393441
0.304995447 0.085989267 0.003787687
0.375626802 0.096676797 0.000000000
0.444700837 0.116734192 0.000000000
0.029492524 0.057569869 0.037149698
0.085501991 0.084153861 0.039066434
0.157120600 0.091081992 0.024596581
0.223367423 0.101004764 0.017391998
0.278956592 0.107514121 0.011993413
0.334738195 0.113222659 0.006089289
0.399903089 0.126784161 0.001722227
0.465140849 0.146869406 0.001174181
0.025558002 0.105733737 0.056014691
0.045378692 0.133287266 0.050285019
0.214314669 0.190639883 0.058715623
0.285436630 0.191046193 0.041614451
0.339450389 0.187410384 0.029902110
0.396691322 0.185190678 0.020100892
0.460269123 0.194385946 0.014218804
0.515590668 0.210088491 0.015185821
0.024738681 0.157468572 0.076397568
0.032412656 0.191960678 0.070847899
0.156259924 0.263577163 0.060824595
0.369217634 0.332866192 0.100025989
0.428197116 0.320907891 0.082164645
0.481872529 0.311533868 0.066561304
0.539688170 0.310546279 0.052906461
0.603279591 0.335779041 0.058156818
0.022957595 0.221143901 0.115740299
0.028347194 0.253974676 0.115143672
0.065020368 0.301211923 0.079679750
0.333182663 0.406999409 0.118915170
0.535092413 0.486232847 0.159921065
0.617693186 0.498218209 0.136097997
0.680858195 0.507477045 0.125211328
0.733006775 0.537148774 0.184358209
0.020696670 0.295522869 0.159708709
0.027069241 0.315083742 0.156301871
0.043967377 0.371579170 0.113934480
0.184393123 0.435744852 0.088327378
0.527520001 0.590190411 0.187405810
0.707370400 0.659160554 0.263625175
0.763860524 0.676580250 0.290287763
0.806580245 0.708204389 0.376865506
0.021487396 0.367689818 0.184078932
0.029188452 0.385178745 0.176914543
0.049706876 0.475027680 0.164635718
0.122082874 0.507657230 0.160057381
0.466445774 0.655197620 0.190222979
0.741616130 0.772481561 0.370790124
0.828926325 0.821064115 0.457716435
0.856219947 0.827764750 0.536334991
0.035414811 0.464096546 0.210522473
0.046891905 0.490965754 0.217264578
0.082531609 0.584394693 0.264057934
0.181704789 0.625670910 0.302926958
0.491207689 0.732060850 0.358532786
0.762888849 0.846229136 0.522419512
0.847291231 0.873692334 0.593981326
0.874587834 0.882233799 0.620048463
0.032171424 0.034876622 0.057116814
0.066796422 0.035014104 0.062723503
0.132954746 0.041516315 0.048083872
0.193453297 0.051863194 0.029110411
0.265259266 0.059505928 0.016783101
0.340734810 0.069686353 0.007637485
0.422179759 0.088191733 0.006451614
0.489179999 0.108946279 0.006451614
0.028568039 0.061949614 0.067731656
0.064943701 0.069575466 0.070236661
0.150641233 0.074821591 0.037118766
0.222082064 0.082200117 0.023565831
0.289099067 0.085789531 0.012341228
0.361254632 0.095028222 0.006477800
0.438700616 0.114571042 0.006451614
0.502830744 0.137319043 0.006677940
0.025726346 0.108673081 0.086040154
0.041344136 0.130306214 0.090241671
0.193324000 0.175488979 0.084061205
0.274341822 0.173494324 0.055930931
0.336689353 0.168470204 0.037820175
0.400853723 0.162937239 0.022159744
0.472260952 0.177552953 0.018300958
0.530155361 0.199895442 0.022917278
0.024619939 0.165409550 0.110905737
0.031729478 0.197339818 0.112492636
0.103564553 0.237287641 0.085677303
0.354808539 0.323505968 0.120565459
0.419767797 0.307720840 0.092179053
0.477995902 0.297702193 0.075717598
0.543259084 0.297171116 0.062006157
0.614287019 0.331588328 0.074313782
0.022297321 0.234312922 0.151353821
0.027924068 0.269067049 0.152884096
0.054313373 0.298418790 0.107444845
0.291268736 0.391064793 0.125250369
0.532820582 0.487497032 0.182360068
0.618320227 0.495848238 0.154238895
0.684912622 0.503871322 0.146048322
0.740007937 0.539633930 0.222560778
0.020468475 0.310893863 0.194946945
0.027378816 0.333927929 0.199000031
0.043543238 0.384073019 0.157394022
0.142631307 0.420987815 0.111032300
0.510217071 0.586536646 0.198245078
0.709949970 0.663292348 0.282442451
0.769097805 0.680963278 0.309828818
0.811131597 0.713151515 0.399466157
0.026564291 0.394542843 0.230915830
0.035115052 0.411317050 0.226339117
0.054281108 0.492412269 0.205582872
0.116978727 0.523682773 0.194680512
0.442121416 0.654971182 0.195050269
0.743454874 0.778835416 0.384386778
0.831609547 0.825560272 0.470504344
0.856732666 0.830239296 0.542328835
0.048050277 0.503386796 0.260784090
0.058319952 0.523609340 0.263488054
0.089096442 0.594666362 0.292760789
0.187323824 0.631780922 0.322272658
0.498694420 0.735980868 0.376481086
0.768332064 0.846864283 0.524930120
0.848393977 0.869861603 0.583638430
0.872404158 0.878562331 0.611310720
0.027997969 0.038791019 0.106573649
0.059266392 0.033662718 0.129846811
0.133619025 0.034191113 0.131642669
0.212875336 0.039078094 0.099780582
0.284601212 0.053503111 0.070360512
0.375221401 0.068319969 0.052463919
0.474288821 0.088648580 0.043780800
0.545495510 0.115169108 0.045306638
0.028204182 0.072075292 0.115090340
0.048854493 0.069188289 0.137291491
0.161124662 0.059750423 0.155441642
0.243538216 0.064947933 0.085915715
0.315686703 0.074678071 0.055899017
0.407277346 0.087714739 0.040191401
0.498952121 0.110520028 0.031143963
0.553990006 0.138552234 0.043783136
0.026121454 0.117033944 0.135363802
0.042249408 0.138583273 0.159315616
0.146221787 0.158101857 0.168411553
0.262587070 0.150750473 0.090153247
0.330386966 0.140645996 0.059396330
0.404540598 0.138853058 0.040203992
0.489225566 0.156542599 0.034235857
0.555704117 0.187151045 0.045623675
0.024051338 0.176476315 0.160417780
0.030505257 0.216975018 0.184363782
0.080900095 0.231704682 0.167667359
0.334216237 0.310413212 0.181113467
0.415312558 0.290017039 0.122033432
0.468913168 0.268185914 0.086755082
0.546056271 0.266116381 0.069707692
0.633468091 0.323425233 0.106492512
0.020872919 0.251424044 0.196263790
0.027295552 0.295726001 0.219253138
0.052278277 0.310640067 0.165910646
0.220942765 0.373719990 0.133336321
0.523441315 0.485918730 0.207305729
0.614719331 0.485963136 0.176420406
0.690748453 0.493911386 0.183132038
0.753870785 0.547692716 0.286647141
0.023256848 0.337139368 0.249939367
0.033350714 0.367325485 0.264444947
0.052425113 0.420312017 0.236484244
0.107340358 0.416688561 0.160705715
0.466729045 0.575702786 0.210919321
0.716007888 0.673405528 0.322061032
0.782582521 0.693860888 0.357105494
0.824684620 0.730506599 0.455708355
0.042764310 0.440824866 0.300065637
0.055083603 0.463579059 0.304294378
0.076722413 0.543302655 0.300385982
0.119684987 0.559635520 0.265969008
0.395555317 0.658267021 0.234423682
0.747533023 0.795141459 0.422275007
0.838794887 0.835562289 0.499163210
0.858749151 0.837005794 0.552643418
0.078520551 0.576341927 0.352623880
0.087963037 0.589859307 0.355124742
0.110217258 0.620151937 0.356502622
0.209274054 0.651017368 0.375756800
0.504235566 0.749729574 0.435823500
0.778542399 0.849847496 0.534851491
0.849571705 0.866275787 0.574474156
0.868155420 0.870928466 0.587513268
0.026737319 0.042893413 0.148766711
0.051157523 0.036646061 0.184430882
0.110056341 0.035332531 0.206162661
0.207401037 0.035780035 0.185577124
0.323640466 0.039746355 0.161680654
0.426381856 0.059166431 0.139937535
0.525829375 0.080775850 0.126185179
0.592820823 0.112638891 0.128698736
0.027931137 0.077399105 0.159875885
0.040952280 0.072143115 0.195442915
0.118439317 0.060985394 0.249939844
0.263870746 0.055669978 0.219396800
0.380619973 0.057080321 0.170894623
0.469563872 0.078939885 0.136275545
0.555750430 0.105374679 0.117872857
0.601900280 0.139914691 0.133172840
0.026138768 0.120882072 0.181221798
0.036167648 0.136529237 0.217251420
0.092565186 0.144518793 0.242002994
0.302196354 0.150359124 0.254279017
0.387061805 0.119959243 0.164152205
0.459907681 0.125271708 0.121253282
0.545417309 0.148982987 0.108916759
0.606176496 0.197114646 0.137051031
0.022922961 0.189065173 0.213220999
0.028225664 0.232283562 0.260730654
0.077438317 0.250751287 0.272440135
0.260308892 0.303908467 0.304788589
0.421810180 0.278877050 0.197065055
0.471115381 0.232909873 0.127579316
0.550752223 0.230074912 0.100348964
0.652337074 0.318598807 0.174553588
0.020374931 0.271295339 0.249876633
0.030830761 0.321431100 0.291234374
0.059447791 0.346793622 0.287802696
0.163788214 0.356226057 0.247194409
0.508958936 0.483813852 0.303595245
0.606515467 0.466223210 0.221998543
0.673773170 0.444575489 0.194908425
0.755879760 0.527809680 0.326327324
0.030337458 0.364890009 0.306165218
0.046975590 0.403988779 0.332516164
0.086859360 0.487745434 0.357423246
0.110528737 0.439421356 0.241604969
0.401892185 0.551520050 0.229735032
0.705472052 0.665822744 0.350579649
0.785338700 0.687794566 0.388940930
0.832954228 0.736837685 0.500230432
0.070166580 0.496521443 0.373941928
0.086499840 0.525935113 0.388548940
0.119769178 0.614321411 0.415719986
0.142311856 0.599666357 0.353917956
0.332869917 0.648498595 0.322229207
0.741740763 0.803290188 0.457291305
0.844454885 0.843469739 0.530815244
0.864863753 0.850315928 0.590494573
0.116676666 0.636729538 0.439587891
0.126083478 0.646263063 0.443748951
0.147844955 0.662397504 0.441509008
0.229987636 0.676126063 0.446780503
0.498506695 0.765974224 0.492777616
0.786130846 0.859531820 0.581554174
0.857802689 0.874648035 0.612221956
0.871323705 0.876683295 0.616850674
0.026016712 0.048796084 0.199442670
0.043621872 0.042895731 0.237581894
0.094632559 0.040781666 0.268578857
0.190752268 0.041453592 0.263453156
0.333683193 0.039013632 0.250785470
0.472363979 0.043763179 0.242752269
0.583580971 0.069665298 0.233183444
0.641627967 0.104607590 0.242416546
0.027106237 0.082267016 0.212460458
0.033471365 0.081409410 0.265384406
0.084230907 0.064205356 0.323009551
0.239596009 0.063186921 0.332717150
0.408408821 0.055479214 0.299318045
0.532901525 0.061226636 0.271019489
0.620217860 0.093557522 0.245411783
0.652645290 0.134550601 0.265853614
0.025246538 0.127251133 0.232908502
0.031199697 0.140486330 0.279441863
0.067133978 0.140855208 0.299147010
0.216505349 0.127013624 0.374143600
0.414510518 0.122698769 0.329744041
0.532040894 0.102739170 0.279855728
0.615141988 0.135963202 0.253649116
0.666517854 0.198161200 0.299314916
0.020845344 0.199259400 0.268236876
0.026796615 0.230209768 0.316656321
0.059817676 0.245663315 0.338951468
0.171235725 0.268124044 0.364191413
0.465591043 0.294136226 0.407474130
0.550566316 0.221417680 0.316874325
0.618671417 0.228922635 0.277895808
0.710202038 0.345381260 0.360994846
0.021915266 0.291453898 0.317161620
0.038482774 0.346664965 0.375354141
0.080210358 0.386771321 0.410043418
0.170118272 0.392628938 0.408877224
0.440249145 0.479073614 0.465552181
0.602189422 0.452310920 0.369768530
0.668387711 0.406911343 0.296481103
0.768922985 0.527226806 0.424455494
0.043458730 0.398159981 0.370489210
0.071997665 0.451593190 0.411825240
0.134357154 0.560990572 0.481830448
0.163803950 0.515053988 0.416883051
0.311766356 0.534557104 0.386607140
0.679747224 0.652113557 0.444650441
0.766164005 0.641306818 0.410533041
0.818704963 0.688215792 0.497128934
0.106048480 0.559175491 0.458476335
0.124567270 0.587444663 0.478819638
0.165112928 0.674192667 0.526058435
0.207905859 0.668249905 0.493837297
0.286611438 0.652092516 0.412367076
0.671041787 0.762491524 0.457274288
0.833860755 0.830214739 0.535363019
0.866267025 0.848367572 0.619475543
0.147619337 0.684915006 0.520740569
0.157262176 0.692562163 0.526754022
0.192661971 0.703767478 0.533073545
0.311872303 0.742899299 0.571225226
0.503267705 0.800543547 0.589174688
0.765066981 0.860872805 0.627514482
0.859315038 0.885769188 0.668534875
0.880063355 0.891849041 0.690078259
0.024093416 0.057134200 0.257902950
0.038298544 0.052750763 0.294673592
0.082513817 0.047507331 0.331837595
0.183107033 0.046529103 0.333657771
0.334310651 0.048635729 0.333779037
0.481230229 0.047869328 0.334818125
0.598795593 0.066099741 0.347320884
0.664951205 0.096348032 0.358357638
0.024864061 0.090569071 0.273181111
0.031282440 0.092035472 0.335550159
0.068446077 0.066578031 0.389988452
0.210165516 0.060677197 0.421715677
0.419297129 0.068450339 0.411747366
0.540589631 0.073191985 0.384409696
0.636077583 0.092403509 0.378630638
0.668579698 0.127131566 0.377122313
0.023088947 0.136820152 0.291917950
0.029119749 0.146562859 0.339317769
0.054106224 0.141141430 0.373391479
0.158784643 0.105466142 0.445336491
0.377447784 0.120411195 0.456921786
0.534197092 0.123460144 0.407343686
0.632157326 0.132675543 0.394166589
0.686665356 0.191429541 0.415335447
0.019405579 0.211130470 0.325173527
0.026487552 0.237808019 0.374928325
0.048694506 0.246550277 0.412554681
0.117942639 0.239096910 0.410251766
0.360508919 0.235358372 0.533433557
0.569185436 0.235816196 0.480447352
0.658752143 0.218822420 0.446571767
0.765110075 0.341080487 0.513583302
0.022884177 0.307116300 0.383192658
0.040469695 0.351140171 0.437053323
0.076511487 0.393462718 0.490776807
0.133973151 0.372588336 0.474806130
0.304508746 0.417271614 0.541742265
0.655455112 0.459132016 0.595463037
0.743495107 0.389675856 0.528860569
0.824312925 0.538636506 0.604292929
0.062656239 0.435590327 0.443662107
0.094291292 0.496631294 0.501766801
0.158864513 0.591117024 0.600423336
0.227459893 0.580106974 0.585475743
0.383065939 0.605152547 0.601225555
0.646805942 0.652994692 0.627845407
0.757366955 0.624393404 0.546446681
0.816817105 0.663797319 0.577204943
0.135434523 0.607421935 0.540432751
0.151756406 0.631291687 0.563991010
0.197160631 0.711195469 0.627504706
0.293319941 0.742316067 0.648053229
0.394526243 0.742862225 0.628447235
0.537750185 0.717885554 0.560821712
0.799595177 0.795753717 0.601437807
0.852814198 0.798358083 0.627610922
0.165221751 0.711498678 0.591710269
0.175464466 0.714897037 0.602991700
0.241909593 0.741899133 0.639795780
0.417415440 0.815254986 0.719062865
0.586981475 0.865402222 0.753858685
0.671034515 0.849413455 0.670794785
0.820874393 0.877923369 0.689615846
0.881995797 0.895646632 0.738000512
0.023284931 0.069171943 0.321671814
0.036539409 0.063894488 0.356850266
0.075889565 0.052394859 0.393999547
0.182269707 0.048214395 0.410981148
0.340266496 0.052390691 0.410145521
0.490568936 0.058572549 0.414361030
0.598273396 0.078248411 0.422309548
0.655071139 0.100746393 0.421997845
0.024609670 0.099507459 0.338706434
0.032934073 0.098232366 0.402279645
0.060761780 0.070848301 0.461152434
0.192844868 0.057700828 0.499070019
0.396779209 0.066557929 0.490212291
0.551730990 0.085889146 0.471925020
0.628770590 0.099510744 0.454200804
0.659235120 0.130937576 0.437042356
0.022113049 0.147254288 0.350701720
0.029486304 0.152236134 0.395028204
0.049160220 0.137941182 0.459741026
0.124629006 0.094347753 0.511003017
0.341063708 0.105813079 0.526582778
0.543889225 0.134153321 0.499973327
0.628843069 0.138315439 0.480449677
0.675652206 0.192401126 0.486500621
0.019371890 0.224190667 0.378172249
0.026633887 0.243719965 0.419295222
0.044159543 0.250337571 0.477352560
0.094252788 0.229150265 0.466119915
0.270221889 0.191000924 0.588460445
0.533139408 0.213139609 0.578615606
0.663199544 0.231506482 0.559703171
0.758840799 0.344342917 0.610858381
0.026464697 0.324758887 0.437062263
0.044669826 0.362645835 0.485620260
0.070884250 0.403628856 0.567890763
0.117661111 0.375496238 0.568674684
0.242070943 0.386011660 0.625026345
0.592606962 0.401767462 0.709983468
0.764314055 0.418572128 0.690666795
0.847767711 0.562729359 0.742745817
0.072336294 0.463366508 0.527506173
0.095427543 0.507909417 0.582965195
0.133428335 0.556350350 0.664355040
0.202370048 0.558707654 0.672713935
0.343918502 0.587189794 0.706365705
0.561466396 0.612458885 0.752095699
0.801708758 0.625983179 0.754322529
0.868990898 0.680213332 0.765499771
0.146596491 0.634105861 0.623564601
0.160748616 0.653537989 0.651686490
0.219287321 0.720714509 0.726335466
0.329688221 0.761754334 0.772576332
0.457673788 0.785837114 0.791815221
0.603852332 0.791319191 0.780795515
0.786283135 0.799195707 0.777186930
0.844754755 0.772716582 0.712094843
0.174600497 0.722650588 0.675081313
0.185850069 0.724187255 0.689565957
0.280615121 0.764519513 0.742147923
0.462108850 0.845195532 0.822893679
0.619982064 0.884429753 0.846753836
0.679497600 0.884787083 0.813076556
0.740585029 0.862849832 0.735070229
0.876345694 0.889341235 0.766588509
0.024741964 0.078315698 0.382675648
0.036849838 0.072208650 0.416167825
0.071656734 0.056248978 0.453848243
0.183654934 0.048160635 0.479439855
0.344640762 0.052273288 0.483569801
0.501138210 0.064363040 0.474407703
0.603514135 0.084209979 0.478885233
0.648938298 0.101700433 0.468601316
0.025961051 0.104050994 0.401887357
0.034110136 0.101521023 0.459565669
0.056260493 0.076108530 0.533637702
0.180469587 0.057608683 0.568257630
0.381505668 0.064681388 0.555440664
0.553776681 0.089453287 0.539267659
0.633225858 0.104833454 0.513040423
0.651602983 0.130375892 0.483160645
0.022729360 0.154638305 0.404445201
0.030729732 0.155459553 0.442662567
0.044420008 0.133403912 0.540964842
0.107294969 0.090476349 0.594755292
0.321794689 0.095385432 0.593109131
0.523981690 0.121175960 0.569825053
0.634268701 0.142597884 0.553243876
0.670427859 0.194914475 0.546749771
0.019926934 0.238717541 0.433352053
0.028277099 0.250793785 0.466825545
0.042231597 0.253659695 0.546345472
0.081790358 0.217146277 0.550660849
0.225900650 0.179793850 0.651316941
0.530317247 0.230572924 0.654881597
0.689075768 0.282885402 0.659610689
0.779395044 0.378050238 0.692740917
0.033959132 0.348298997 0.486968279
0.047595650 0.372574955 0.523558915
0.070803322 0.409143269 0.619654059
0.144980237 0.412902594 0.665474057
0.331823349 0.460971683 0.744391203
0.653386831 0.502492130 0.813079119
0.791994214 0.545373142 0.800066710
0.860451877 0.613807857 0.822666287
0.079936028 0.494192064 0.590502858
0.092990808 0.509271681 0.626614511
0.145113334 0.543391407 0.695210457
0.291440219 0.603866875 0.754180908
0.503622532 0.691408217 0.841974616
0.673284709 0.704962611 0.858747900
0.800928056 0.691546679 0.850450993
0.876267791 0.745738387 0.861562312
0.144758940 0.634368718 0.689953744
0.157616735 0.642578423 0.705195010
0.236851260 0.674608052 0.743176818
0.370958388 0.725681841 0.798616409
0.508552969 0.775371253 0.848263741
0.633506179 0.792737246 0.867735982
0.752104640 0.779968917 0.870203555
0.874931633 0.787195802 0.863707244
0.177182496 0.718818605 0.728434265
0.189248994 0.721153617 0.730830729
0.292959422 0.764680445 0.776804447
0.465867251 0.846214235 0.853405535
0.610749006 0.882140458 0.882061839
0.689151883 0.891193509 0.886724532
0.768285394 0.894285977 0.888291895
0.879618347 0.894652963 0.886124551
