Desert Affinity Presets/Desert Affinity Preset #21.cube
TITLE "32x32x32 Adobe/IRIDAS cube 3D LUT exported with GrossGrade v0.1.027.1 (beta) 64 bit"
DOMAIN_MIN 0 0 0
DOMAIN_MAX 1 1 1
LUT_3D_SIZE 32
0.002087435 0.001710532 0.002957198
0.028791130 0.005806847 0.008032228
0.054888420 0.009800248 0.013110570
0.080287032 0.013915796 0.017156346
0.105107002 0.017138602 0.021003908
0.131508738 0.019132035 0.023177369
0.159370691 0.020997796 0.025782883
0.191167250 0.022541353 0.028010186
0.225819543 0.023446662 0.029704813
0.263491273 0.022552121 0.030148100
0.303554744 0.020000851 0.029488739
0.343046457 0.015422886 0.027965231
0.381883085 0.010421277 0.025788013
0.417495459 0.006538199 0.022970201
0.448992729 0.004995067 0.019321883
0.478879750 0.005222324 0.015106792
0.509132862 0.005940583 0.010722434
0.543457210 0.003938266 0.006590108
0.581367373 0.001057749 0.002910906
0.619522810 0.000145896 0.000611172
0.657205820 0.000000000 0.000025719
0.693963945 0.000000000 0.000000000
0.729091644 0.000000000 0.000000000
0.763575435 0.000000000 0.000000000
0.797977388 0.000000000 0.000000000
0.832325280 0.000000000 0.000946918
0.867029071 0.000000000 0.011326126
0.901740193 0.000000000 0.030108310
0.934906363 0.017505616 0.055776637
0.961086273 0.080513403 0.087062903
0.972355664 0.163260758 0.145317346
0.980531693 0.234212995 0.216498345
0.009045076 0.024254834 0.008204780
0.025924232 0.025370056 0.012489986
0.047418289 0.027936341 0.016123867
0.071911998 0.029819487 0.018529229
0.097681448 0.031324729 0.020882333
0.123708628 0.032291286 0.022962725
0.150893301 0.033379834 0.025502784
0.181121856 0.034784101 0.028018543
0.215581596 0.035570182 0.029979253
0.253348082 0.034630243 0.030652191
0.294324189 0.031463098 0.030061135
0.334340662 0.025720300 0.028365077
0.373693347 0.019356057 0.025959209
0.410904020 0.013540347 0.022994056
0.443886280 0.010071127 0.019368157
0.474544317 0.008519574 0.015199383
0.504736245 0.008370409 0.010829987
0.538528204 0.006357799 0.006626579
0.576455057 0.003073733 0.003064282
0.614972770 0.001833618 0.000712176
0.652985036 0.001612904 0.000025719
0.689925969 0.001612904 0.000000000
0.725206375 0.001612904 0.000000000
0.759928346 0.001612904 0.000000000
0.794689596 0.001612904 0.000000000
0.829231679 0.001612904 0.000494736
0.863876879 0.001612904 0.010134170
0.898768544 0.001612904 0.028006380
0.932770789 0.014639218 0.053692013
0.959907234 0.076826833 0.084096335
0.971817017 0.158861205 0.140679866
0.980204046 0.232342288 0.212767720
0.015881589 0.046107069 0.013230721
0.029903626 0.045867149 0.017515427
0.048009340 0.047268137 0.020486185
0.069940545 0.048364736 0.022128040
0.092514805 0.048636872 0.023769386
0.116621017 0.049020335 0.024684470
0.141386032 0.049260661 0.026251901
0.169300482 0.050047651 0.028446900
0.201920643 0.051023055 0.030510023
0.238536030 0.050757017 0.031664100
0.279152513 0.047985919 0.031340525
0.320969164 0.042357743 0.029642612
0.360833347 0.035403352 0.027047297
0.398886323 0.028182894 0.023774937
0.433853358 0.023086851 0.020124743
0.466437191 0.020268513 0.015927903
0.498030722 0.019070487 0.011542617
0.531768680 0.016388733 0.007238221
0.569795549 0.010679132 0.003688081
0.608814597 0.006287749 0.000989005
0.647240818 0.003870182 0.000057517
0.684833109 0.003225807 0.000024316
0.720678926 0.003225807 0.000022446
0.755707324 0.003225807 0.000027122
0.790813744 0.003225807 0.000034604
0.825615048 0.003225807 0.000079494
0.860665381 0.003225807 0.009098859
0.895920455 0.003309978 0.026338926
0.930639029 0.011780328 0.051954847
0.958775520 0.073375471 0.081554353
0.971401870 0.155758619 0.137301892
0.979941785 0.231104150 0.209898487
0.021141360 0.065735802 0.017050210
0.033142354 0.065287821 0.021385906
0.049566481 0.066443749 0.024267364
0.070374966 0.068187058 0.025857728
0.092339449 0.069063284 0.027422382
0.116869085 0.070141189 0.027596803
0.141399056 0.071031064 0.028127514
0.166216210 0.071969062 0.029955454
0.194917694 0.073234931 0.031930137
0.227810904 0.073644981 0.033423726
0.264705390 0.072451651 0.033590659
0.302972645 0.068560168 0.031850677
0.342226386 0.062348392 0.029117487
0.380541861 0.055073693 0.025753904
0.417756170 0.047629245 0.021884819
0.453270286 0.041354802 0.017702963
0.487797707 0.037082188 0.013307406
0.522983432 0.033064894 0.008980568
0.560987294 0.026612284 0.005269556
0.600906610 0.018871384 0.002033188
0.640297949 0.010218158 0.000652791
0.678734303 0.005377871 0.000529340
0.715318084 0.004838713 0.000444702
0.751046717 0.004838713 0.000491464
0.786688805 0.004838713 0.000606965
0.821938455 0.004838713 0.000973106
0.857284546 0.004838713 0.008644313
0.893087864 0.006192461 0.025391987
0.928726196 0.011396083 0.050948534
0.957998574 0.072487570 0.080247827
0.971162438 0.154655442 0.135454968
0.979796767 0.231095925 0.208374798
0.026300093 0.084444672 0.020222487
0.036664393 0.083890095 0.024588106
0.051571574 0.084866464 0.027521970
0.072229065 0.087176934 0.029229706
0.093322366 0.089445338 0.030928547
0.117174432 0.091642641 0.031482674
0.143064678 0.093125947 0.031166524
0.169577599 0.094368324 0.031968080
0.196854964 0.095885336 0.033582270
0.226050958 0.096672811 0.035020191
0.259180814 0.096418418 0.035507411
0.293897033 0.094490930 0.034332752
0.328940868 0.090742469 0.031648699
0.365223706 0.085907824 0.028386593
0.400949359 0.080301158 0.024461383
0.436610252 0.074724354 0.020067224
0.472790897 0.069545045 0.015699713
0.510240138 0.064335823 0.011512202
0.549842179 0.057376776 0.007605763
0.590411603 0.048728216 0.004150551
0.630937457 0.034604415 0.002188440
0.671613574 0.016789217 0.001785354
0.709509730 0.007078686 0.001547802
0.745687962 0.006451614 0.001510864
0.781971455 0.006451614 0.001699783
0.817955136 0.006451614 0.002505014
0.853896320 0.006451614 0.008894479
0.890258133 0.010152793 0.025333945
0.926831424 0.019209580 0.050731111
0.957479775 0.076377720 0.079711072
0.971098721 0.156353340 0.134426445
0.979856849 0.233574733 0.208478019
0.029167533 0.103930287 0.022715328
0.039768446 0.103498705 0.026621317
0.054676592 0.104359105 0.029557986
0.074293151 0.106533267 0.031826798
0.095290519 0.109381303 0.033756223
0.118506670 0.113128595 0.035149224
0.143714011 0.115855746 0.035747278
0.171994910 0.117703646 0.035166979
0.201425076 0.119540296 0.034800414
0.230007142 0.120354354 0.035638791
0.259815842 0.119989015 0.035779100
0.290967882 0.118564129 0.034872886
0.322162181 0.115988836 0.032658722
0.355412513 0.113093637 0.029865187
0.389742583 0.109382190 0.026610576
0.424401283 0.105407044 0.022699907
0.460135788 0.101393968 0.018465662
0.497998118 0.097294413 0.014555926
0.539122641 0.092018336 0.010732690
0.580755055 0.084662750 0.007381313
0.621230662 0.072227418 0.004943163
0.661732674 0.050423510 0.003859231
0.701713681 0.023211058 0.003466432
0.739849448 0.012382472 0.003345785
0.776930749 0.011728279 0.003728296
0.813591123 0.011831154 0.005254119
0.850273252 0.012254350 0.010639676
0.887573838 0.019016061 0.026726050
0.925798059 0.043490063 0.052201755
0.957288921 0.090541489 0.080384895
0.971271336 0.162080050 0.133417636
0.980026186 0.237780035 0.208340302
0.031347547 0.124233812 0.025445292
0.041700587 0.124050915 0.029108550
0.057551455 0.124832861 0.031932540
0.076566204 0.126884744 0.034296267
0.097335868 0.130063593 0.036535725
0.120004147 0.134352118 0.038719896
0.144674048 0.138705701 0.040385552
0.172839493 0.142024815 0.040073205
0.203692168 0.143978655 0.038155019
0.233725801 0.144620150 0.036109246
0.263053209 0.144042507 0.035625722
0.292245001 0.142428428 0.034711063
0.321428835 0.140354112 0.033249293
0.351966381 0.138573959 0.031419545
0.384181112 0.136563942 0.029045928
0.417444944 0.134192169 0.026123818
0.452027589 0.131587520 0.022581134
0.489407301 0.128845975 0.019088037
0.530841231 0.125396058 0.015903592
0.573363006 0.119796485 0.012835586
0.614138722 0.110830151 0.010352543
0.654135883 0.095070079 0.008680350
0.694297075 0.071258135 0.007532817
0.734179020 0.050317828 0.006968878
0.772704661 0.041648269 0.007748850
0.810231805 0.040841635 0.010782262
0.847519815 0.043449063 0.016270215
0.885287821 0.049853973 0.031050572
0.924374819 0.076910146 0.054832544
0.956563830 0.114958189 0.081671774
0.971809924 0.174076512 0.131029293
0.980253994 0.243519738 0.205964133
0.031416290 0.146358564 0.027944248
0.042134091 0.146706372 0.031531282
0.059882496 0.147384927 0.033929233
0.079498120 0.149239421 0.036139186
0.099733412 0.152752206 0.038697921
0.121914774 0.157297984 0.041609310
0.146239907 0.162044019 0.043709852
0.173651561 0.167056948 0.045004200
0.203263521 0.170112371 0.043828603
0.233992904 0.169857457 0.039158542
0.264677703 0.168854684 0.035151102
0.293976516 0.167220041 0.033731893
0.323568434 0.165367246 0.032464206
0.353825033 0.164001957 0.031016449
0.384544283 0.162751973 0.029535010
0.415950656 0.161600024 0.027549069
0.449257702 0.160421416 0.025253091
0.486463487 0.159155950 0.022769120
0.527413249 0.156787559 0.020405786
0.569978237 0.152340680 0.017829679
0.610705376 0.145462230 0.015456997
0.650185645 0.134807646 0.013389691
0.689654648 0.119475454 0.011369141
0.729737997 0.103303879 0.010115951
0.769302309 0.092048913 0.010785085
0.807617724 0.088263042 0.014257102
0.845161915 0.090749279 0.021043608
0.883392632 0.100185931 0.035527512
0.922404051 0.119905084 0.057394620
0.955433130 0.146081790 0.082871646
0.972726107 0.191779613 0.128327012
0.980676949 0.252783179 0.201153517
0.029571990 0.170716047 0.030342147
0.040689144 0.171078831 0.033665471
0.060538139 0.171779737 0.035874546
0.081051558 0.173766807 0.037962381
0.101974204 0.177480504 0.040585235
0.123663604 0.182126164 0.043746334
0.146987841 0.186737135 0.046461325
0.173278019 0.191327319 0.048020333
0.201701432 0.195376247 0.048602968
0.231010750 0.196282089 0.045146838
0.263305843 0.195046291 0.037494808
0.294907629 0.193861708 0.032630175
0.325294137 0.192415744 0.031159991
0.356214821 0.191545755 0.029861433
0.387614608 0.190725565 0.028269693
0.418408632 0.190121338 0.026939305
0.450801551 0.189504266 0.025469119
0.487316638 0.188757569 0.024117714
0.527617991 0.187534943 0.022699006
0.569566607 0.184262261 0.020884179
0.610337675 0.178737074 0.018832281
0.649164796 0.170759425 0.016326308
0.687767208 0.160449341 0.013765640
0.727138102 0.151386574 0.012173443
0.766687453 0.145621866 0.012689702
0.805712759 0.143381372 0.016078001
0.843612909 0.144391194 0.024206078
0.881651640 0.149858564 0.039732296
0.920260191 0.162298769 0.060341075
0.954290152 0.180892482 0.084211804
0.973974526 0.214392424 0.124060296
0.981320739 0.266082406 0.194120824
0.028342132 0.197050348 0.032432880
0.039363973 0.197749525 0.035331577
0.060618553 0.198411271 0.037189931
0.081827834 0.200359806 0.039161395
0.102872066 0.204196155 0.041551799
0.124954171 0.208653271 0.044592749
0.147751957 0.213406950 0.047372203
0.171741128 0.217008084 0.049546171
0.198285460 0.220262527 0.051221151
0.226822615 0.222204000 0.049881421
0.257962555 0.222583741 0.044843823
0.292767286 0.222300664 0.035260063
0.326260298 0.221828490 0.029170787
0.358040452 0.221176937 0.027685152
0.390625715 0.220950305 0.025944678
0.422943115 0.220530316 0.024463784
0.455900550 0.219865113 0.023213355
0.491523325 0.218533620 0.022424482
0.529829681 0.217226744 0.021813778
0.570800543 0.215244263 0.020726116
0.611591220 0.211496547 0.019029131
0.650200427 0.205888331 0.016984249
0.687937379 0.198766083 0.014975378
0.726601124 0.193770543 0.014327296
0.765511930 0.191131145 0.015623512
0.804406404 0.190318257 0.019523401
0.842775166 0.191715404 0.027689353
0.880805552 0.196485475 0.043270752
0.918873489 0.205783993 0.063016742
0.953467667 0.219530597 0.085342981
0.975659966 0.243150726 0.119378753
0.982220590 0.284456313 0.185866043
0.025921801 0.225867331 0.034395915
0.037076835 0.226893291 0.036828399
0.058628406 0.227498829 0.038221478
0.080683552 0.229184553 0.039829105
0.101521529 0.232349858 0.041570533
0.123169690 0.236060560 0.044094253
0.146232754 0.240284160 0.046717577
0.169971913 0.243841395 0.049075253
0.195019603 0.246673882 0.051776696
0.222553670 0.248692960 0.052892879
0.253171235 0.250158489 0.050319150
0.287166029 0.251488686 0.044110157
0.323801607 0.252145052 0.032443147
0.358824104 0.252560526 0.025290057
0.393159598 0.252624065 0.022870595
0.427771807 0.252580822 0.020910800
0.462832004 0.252095848 0.019559409
0.498864830 0.250957608 0.018674213
0.535783827 0.249192744 0.018144855
0.574851096 0.247288048 0.017868046
0.614355564 0.244432792 0.017471498
0.652996838 0.240752771 0.016583048
0.690275908 0.235977322 0.015523414
0.728469849 0.233926967 0.016074289
0.766975582 0.233824134 0.018337520
0.805365086 0.234472871 0.022849966
0.843760967 0.236849532 0.031641189
0.881978214 0.241405323 0.046945296
0.919153869 0.249024436 0.065741524
0.953820169 0.259685487 0.087483712
0.977752149 0.276843548 0.117611356
0.983610392 0.309191495 0.179255560
0.025450900 0.255857080 0.035823982
0.035630990 0.257189304 0.037188005
0.055716559 0.257604152 0.038190581
0.076677516 0.259120435 0.039408237
0.097741291 0.261295527 0.040401496
0.119327776 0.263656318 0.042194314
0.142450213 0.267367750 0.044626832
0.166754276 0.271100402 0.047477920
0.192298099 0.274250090 0.050683882
0.219768569 0.276569366 0.053048603
0.249342099 0.278087258 0.053904340
0.282081157 0.280052632 0.050710529
0.318064392 0.282403052 0.043283407
0.356708080 0.283758461 0.029247932
0.394890606 0.285166293 0.020051816
0.432714254 0.285763860 0.017369557
0.469526738 0.285650253 0.015509833
0.506239533 0.284564227 0.014932820
0.543177307 0.282871515 0.014423138
0.581441522 0.280786812 0.013950367
0.619861603 0.277914107 0.014303888
0.657653987 0.275453031 0.015087131
0.694968164 0.273429483 0.016312746
0.732765198 0.273410171 0.018531594
0.771156192 0.275182873 0.022229958
0.809022963 0.277290195 0.027712710
0.846823275 0.280363947 0.036292057
0.884845555 0.285000533 0.051296923
0.921433628 0.291885823 0.069241211
0.955947876 0.300707638 0.090715438
0.980193615 0.314118952 0.118816957
0.985535204 0.340048313 0.176755309
0.024111636 0.286094010 0.036295332
0.034192100 0.287618041 0.036734436
0.052250594 0.287893414 0.037331104
0.070877202 0.288883775 0.037960511
0.091982104 0.290956080 0.038579665
0.114661746 0.293260038 0.040238284
0.138074145 0.296245456 0.042226128
0.163089782 0.299550086 0.045352574
0.189314723 0.302706182 0.048912577
0.217166290 0.305327952 0.051734149
0.246877015 0.307202399 0.053715438
0.278440207 0.308843970 0.054612290
0.313258529 0.311600357 0.051249195
0.352191687 0.315385908 0.042161591
0.394909710 0.318091244 0.025039373
0.437100440 0.320069015 0.014793941
0.475892544 0.320429534 0.011947089
0.513217211 0.319577843 0.011427557
0.550797224 0.318080783 0.011554759
0.589062154 0.316052943 0.011808699
0.627455354 0.313406080 0.012476443
0.665205181 0.311834037 0.013838595
0.702025771 0.311686575 0.016609691
0.739184499 0.313311517 0.020157026
0.776959002 0.315843761 0.024503965
0.814341724 0.319086164 0.031339541
0.851554096 0.322882444 0.040242925
0.888897002 0.327716589 0.055353940
0.925326705 0.334315479 0.073809788
0.959516585 0.341996640 0.094305009
0.982881665 0.353465438 0.121952735
0.987774134 0.374684453 0.177695751
0.019712318 0.314795226 0.035958670
0.029203109 0.316488355 0.035454612
0.044548035 0.317166597 0.035140369
0.062737890 0.318487167 0.035141714
0.085301809 0.320611686 0.035544854
0.108390614 0.323012203 0.037201621
0.132511154 0.326087058 0.039339527
0.158204019 0.329122216 0.042605363
0.185469016 0.331824630 0.046421085
0.214115053 0.334566861 0.049590129
0.244368181 0.337112576 0.052096549
0.276644707 0.339578599 0.054132991
0.310963273 0.341916144 0.055716313
0.349295765 0.345987737 0.051805209
0.392252386 0.351412386 0.040956534
0.438969165 0.354876548 0.021298001
0.481308132 0.356226146 0.010997369
0.519398153 0.355704665 0.009535131
0.557744980 0.354535848 0.010209900
0.596606493 0.352977902 0.010972108
0.635791004 0.350973785 0.012049033
0.674107373 0.350723803 0.013270889
0.711156964 0.351794779 0.015413513
0.747418582 0.353812218 0.018907063
0.784009457 0.356557339 0.023417199
0.820690870 0.360259652 0.031854365
0.857362568 0.364727974 0.043151956
0.894055426 0.369907349 0.058905046
0.930383563 0.376316249 0.078255855
0.964133918 0.383053929 0.097707577
0.985391676 0.393504769 0.126386568
0.989987433 0.411284864 0.182708502
0.014038287 0.341996163 0.035578024
0.021919088 0.344324768 0.034598384
0.033426289 0.346363991 0.033565406
0.052689321 0.348536283 0.032509055
0.078339063 0.350782543 0.032191113
0.103264421 0.353004634 0.033742186
0.126541287 0.356264591 0.035784736
0.152438477 0.358976692 0.039433531
0.180537701 0.361583561 0.043290846
0.210603327 0.364140660 0.046809204
0.242032290 0.367270380 0.049778096
0.275411665 0.370727956 0.052554302
0.311308771 0.374661326 0.055080388
0.349433810 0.378266066 0.057637785
0.391237944 0.383224189 0.052968647
0.436782777 0.389044642 0.039145011
0.482634842 0.391770959 0.020699440
0.524196029 0.392042667 0.011254072
0.563835382 0.391184151 0.009889593
0.603598297 0.390732825 0.009849852
0.643638611 0.390405297 0.009941494
0.683227599 0.391235799 0.009962996
0.720711410 0.392997444 0.011084345
0.756575048 0.395026922 0.014250550
0.792075336 0.397503853 0.019119360
0.827495813 0.400754899 0.028496904
0.863524377 0.405383766 0.042967733
0.899636030 0.410763353 0.061020527
0.935509264 0.416814208 0.080849245
0.968903720 0.423019081 0.100330777
0.987068236 0.432791501 0.130923882
0.991923213 0.448149264 0.190740600
0.006770602 0.368144810 0.035660312
0.010708489 0.371260703 0.035126314
0.017156556 0.374525696 0.034279909
0.038366266 0.377444923 0.032083087
0.069549277 0.380300552 0.029907720
0.098684661 0.382808268 0.030408118
0.121386997 0.386055142 0.032563791
0.146320015 0.388808131 0.036670353
0.174976170 0.391520113 0.040849004
0.206882343 0.394485593 0.044292018
0.240664393 0.398293853 0.047696274
0.275585949 0.402555078 0.050929859
0.312711328 0.407459259 0.054034773
0.351572812 0.412325919 0.056486510
0.392029047 0.416431218 0.059246387
0.435497642 0.421585828 0.052507568
0.480987430 0.426514268 0.037934829
0.525407672 0.428356349 0.021494845
0.568479657 0.428540111 0.011745068
0.610331953 0.429138392 0.006327303
0.651358247 0.430438519 0.005013306
0.691999555 0.432420492 0.004765472
0.729579628 0.434369206 0.005118048
0.765402973 0.436224550 0.007526727
0.800444305 0.438631535 0.012741112
0.834955812 0.441350967 0.022656422
0.869769156 0.445149332 0.040014289
0.904877365 0.450071812 0.060252201
0.939896703 0.455715686 0.081444986
0.972755730 0.461675107 0.102163471
0.988149226 0.470911741 0.135129154
0.993638754 0.484779745 0.201029435
0.001129291 0.397343248 0.035495710
0.002462093 0.401391447 0.035377864
0.005916936 0.405573666 0.034914013
0.028874142 0.408303827 0.032019034
0.062114190 0.411002964 0.028611505
0.093537167 0.413700491 0.028143900
0.117380701 0.416761994 0.030308032
0.141691729 0.419534296 0.034822814
0.170457095 0.422727406 0.039188035
0.204639331 0.426073760 0.042722717
0.240895212 0.430698216 0.046123236
0.277432650 0.435643345 0.049391877
0.315146536 0.440930188 0.052729204
0.354557008 0.446158409 0.055701375
0.395432740 0.451258361 0.057286121
0.436724812 0.455618709 0.058476690
0.479764730 0.460278869 0.051894024
0.524480581 0.464402407 0.037482683
0.569843590 0.466315150 0.022821952
0.615193069 0.468439370 0.008253855
0.658481956 0.470536113 0.002485377
0.699878991 0.472997427 0.001176052
0.737782776 0.475214422 0.001622154
0.773251355 0.477199823 0.002992739
0.808247864 0.479436666 0.007425737
0.842522323 0.481880486 0.018902387
0.876492739 0.484885246 0.037982021
0.909775794 0.488347530 0.057646669
0.943596303 0.493158937 0.079044729
0.975056171 0.499172568 0.102702871
0.989389360 0.507887304 0.138362795
0.994993031 0.520913780 0.212984964
0.000000000 0.430974633 0.034376748
0.001669485 0.435432255 0.034199033
0.005511972 0.440023273 0.033707093
0.029066797 0.443227112 0.030552603
0.059691485 0.445876509 0.027129648
0.088882029 0.447809905 0.026953802
0.115205929 0.449853331 0.028767219
0.141301453 0.452066958 0.033318520
0.169519573 0.455493182 0.037512105
0.204419792 0.459174752 0.041042600
0.242446929 0.463815868 0.044225171
0.280145824 0.469041616 0.047473703
0.318374574 0.474433273 0.050745126
0.357765079 0.479887992 0.053940330
0.398975104 0.485116512 0.056194264
0.440743983 0.490005016 0.057013050
0.482002288 0.494947433 0.057767801
0.524054706 0.499581039 0.053115461
0.569842160 0.504420877 0.038040966
0.616894364 0.507790446 0.023341909
0.663162231 0.510945320 0.005721266
0.706286788 0.513230085 0.001718489
0.745067477 0.515453517 0.001812941
0.780721307 0.517723620 0.002619581
0.815222263 0.520033002 0.008304823
0.849229932 0.522264719 0.019348945
0.882795990 0.524597287 0.038488451
0.915130436 0.526858568 0.056684792
0.947296739 0.530244827 0.075727932
0.976525128 0.535620272 0.100990221
0.990823448 0.543814301 0.139192492
0.995818853 0.556424260 0.225677773
0.000000000 0.465868652 0.033003855
0.001755058 0.470048249 0.032745715
0.007676096 0.474328488 0.031903967
0.029451637 0.477972478 0.028907966
0.057423554 0.481200665 0.025805365
0.087587178 0.483008832 0.025880652
0.117476426 0.484303892 0.027412977
0.143913686 0.485807627 0.031635560
0.171343401 0.488741487 0.035618268
0.205423772 0.492542595 0.038886882
0.244120970 0.497133791 0.041867450
0.283004731 0.502309203 0.044898998
0.322125882 0.507712245 0.048274234
0.361994803 0.513246953 0.051591039
0.402794152 0.518719316 0.054003917
0.444839150 0.523905456 0.055963237
0.486717790 0.529897094 0.058699291
0.527863383 0.536046088 0.060028691
0.570684850 0.541802883 0.055055130
0.617184341 0.547013462 0.041928723
0.664811432 0.550972223 0.022503980
0.710817099 0.553897381 0.004055628
0.751447797 0.555771172 0.002567677
0.787650764 0.557944655 0.005806844
0.821839929 0.560196459 0.011841900
0.855183065 0.562291026 0.023085177
0.887879133 0.564258814 0.040720873
0.920138597 0.566069663 0.059048109
0.951750159 0.568427861 0.076427482
0.978021860 0.572549105 0.099700831
0.992014647 0.579733193 0.139900371
0.996394873 0.591184437 0.237938970
0.000008885 0.498825073 0.031141777
0.001806496 0.502898216 0.030792028
0.009258979 0.507018685 0.029694978
0.027941259 0.510839105 0.027077235
0.053467985 0.514342308 0.024381908
0.087632537 0.516493082 0.024494642
0.121569857 0.518229902 0.025868464
0.148745984 0.519842923 0.029858617
0.175492197 0.522401750 0.033277821
0.207823128 0.525990367 0.036169544
0.246730164 0.530477583 0.038725529
0.286630094 0.535589457 0.041887548
0.326295555 0.541116536 0.045327332
0.366741806 0.546815336 0.048747018
0.408084005 0.553043723 0.052347630
0.450345129 0.559276760 0.055620022
0.492260784 0.565735400 0.059504986
0.533317029 0.572734535 0.064338729
0.574715853 0.579251349 0.064768918
0.618721902 0.585217714 0.059135571
0.664796829 0.589999199 0.047963805
0.711752594 0.593752682 0.027309241
0.756126046 0.596330047 0.009599667
0.793666124 0.597807288 0.011222774
0.827679157 0.599523425 0.016443208
0.860414147 0.601416349 0.027455095
0.892541528 0.603149354 0.044292990
0.924391627 0.604935646 0.063679375
0.955951333 0.607071459 0.080949314
0.979776561 0.609895289 0.100244604
0.992789149 0.615656734 0.144568980
0.996723473 0.625504017 0.249829218
0.000201542 0.530869901 0.028712023
0.002020663 0.535065293 0.028347805
0.009470337 0.539411128 0.027309226
0.023396973 0.543711185 0.025540212
0.045651313 0.547650516 0.023667375
0.087594174 0.550022423 0.023464957
0.125498682 0.552458048 0.024485298
0.154482007 0.554565489 0.027769808
0.181092292 0.556886375 0.030399200
0.211998135 0.560226321 0.032526374
0.250923872 0.564392328 0.034919154
0.291449159 0.569407105 0.038222361
0.331571937 0.575077176 0.042231731
0.372325748 0.581430733 0.046266794
0.413982511 0.588221431 0.050754916
0.456601441 0.595547974 0.055820160
0.498721778 0.602462113 0.061392277
0.539660037 0.609479964 0.067580201
0.579908073 0.616042495 0.072740801
0.621741116 0.622130036 0.072060436
0.666347802 0.627727926 0.066606171
0.712202370 0.632591605 0.057325453
