Desert Affinity Presets/Desert Affinity Preset #17.cube
TITLE "32x32x32 Adobe/IRIDAS cube 3D LUT exported with GrossGrade v0.1.027.1 (beta) 64 bit"
LUT_3D_SIZE 5
DOMAIN_MIN 0.000000 0.000000 0.000000
DOMAIN_MAX 0.903226 0.903226 0.903226
0.137741446 0.062550567 0.000000000
0.212631077 0.079196244 0.000000000
0.390119523 0.067256182 0.000000000
0.686609983 0.022640515 0.000000000
0.991454959 0.000000000 0.000000000
0.199787855 0.188181341 0.000000000
0.265681982 0.215362430 0.000000000
0.490610600 0.200085714 0.000000000
0.805910230 0.157596037 0.000000000
0.995161295 0.126155809 0.000000000
0.155831307 0.366553098 0.000000000
0.265030086 0.392186195 0.000000000
0.435386389 0.409340292 0.000000000
0.736198366 0.397674978 0.000000000
0.995161295 0.380660325 0.000000000
0.114569388 0.606048822 0.000000000
0.247370124 0.643830895 0.000000000
0.427073419 0.671741068 0.000000000
0.684489787 0.680994868 0.000000000
0.961814284 0.684193969 0.000000000
0.130803868 0.872269869 0.000000000
0.271763593 0.908097088 0.000000000
0.450109988 0.929790378 0.000000000
0.689165711 0.931186736 0.000000000
0.917512059 0.935177922 0.000000000
0.144649670 0.070262000 0.011290320
0.164376169 0.098703533 0.011290320
0.351835817 0.074940011 0.022347547
0.658557951 0.022622779 0.071440518
0.966496289 0.000000000 0.106249906
0.194162011 0.198841736 0.011290320
0.265372425 0.210572660 0.013290306
0.491022527 0.188563466 0.019342648
0.789916933 0.150591344 0.022485025
0.995161295 0.122729428 0.044151016
0.176354751 0.365439028 0.011290320
0.271625429 0.388804168 0.016956413
0.439046651 0.407553554 0.015912220
0.761107743 0.389409512 0.011290320
0.995161295 0.371100932 0.014046442
0.137850016 0.606255770 0.011290320
0.257501900 0.643864512 0.017192082
0.437165529 0.671853542 0.019512866
0.690478146 0.681199253 0.014838584
0.978510320 0.679697394 0.011290320
0.153741181 0.871250391 0.011290320
0.281197101 0.906421423 0.030822134
0.458259851 0.926750004 0.036559783
0.694746792 0.927515507 0.022782892
0.919329524 0.931101978 0.014809111
0.134202465 0.076732382 0.022580640
0.146998718 0.104272366 0.041267484
0.302972198 0.087445907 0.187946945
0.599599361 0.030231792 0.319519520
0.909706414 0.000000000 0.402573109
0.091537438 0.229605854 0.022580640
0.178562120 0.231976807 0.181236714
0.422862619 0.197424278 0.291409105
0.725707054 0.154746056 0.358338118
0.994299948 0.124636322 0.399187148
0.150376573 0.386568755 0.022580640
0.269746482 0.398364007 0.129263908
0.439105451 0.402086258 0.290894449
0.760811687 0.379352838 0.318843007
0.995161295 0.365580529 0.355614245
0.162980899 0.617248476 0.022580640
0.281985134 0.643598139 0.202049568
0.444117308 0.667538166 0.307780981
0.692030489 0.676933944 0.296200842
0.992825568 0.666870475 0.271933168
0.183395073 0.874400496 0.126657903
0.301606208 0.900626659 0.281218022
0.462057024 0.919232726 0.337789476
0.696843386 0.919248164 0.323543370
0.916955352 0.922820151 0.296574235
0.107084952 0.085079297 0.054832719
0.113280304 0.109990537 0.233476281
0.276707381 0.088903457 0.398669243
0.554269254 0.037635565 0.530465245
0.842028320 0.000000000 0.664148748
0.000000000 0.258437127 0.194684073
0.085488245 0.253787130 0.400702119
0.354794860 0.208474278 0.557950377
0.655089796 0.169600070 0.614765942
0.939005017 0.138943866 0.711561978
0.031072572 0.425972462 0.132425472
0.147187248 0.439331681 0.314320505
0.342267185 0.432153732 0.526885509
0.695959330 0.393238425 0.638902009
0.992969990 0.374132961 0.726336360
0.116306044 0.649302125 0.099185608
0.259043843 0.670421898 0.282096118
0.444973856 0.680032909 0.457996488
0.692370892 0.671446919 0.618515015
0.992619336 0.654917538 0.652463853
0.196483836 0.891535699 0.181066558
0.326366872 0.908813715 0.375470161
0.483352184 0.914352000 0.556682825
0.698774636 0.909666419 0.636933327
0.913436234 0.913354099 0.619255245
0.066891849 0.100367650 0.174465135
0.066483408 0.122798279 0.392978817
0.237180337 0.095791109 0.595423162
0.523001611 0.042485658 0.727649391
0.797519386 0.000005611 0.845135808
0.000000000 0.289861113 0.353292137
0.011290321 0.280456483 0.575719059
0.262469679 0.233444512 0.764019251
0.601682723 0.183668464 0.837909400
0.881535172 0.158839181 0.912527263
0.000000000 0.469382972 0.281632543
0.031488042 0.480288565 0.484146446
0.248479113 0.466812372 0.716058135
0.631191134 0.415405035 0.879891098
0.940260470 0.397948146 0.954519629
0.004320762 0.699333251 0.215027720
0.140133411 0.721088529 0.409249336
0.321779370 0.730026484 0.602403343
0.594979882 0.707483470 0.812496006
0.932172835 0.670842111 0.929644823
0.137932137 0.930002332 0.234083742
0.280637473 0.942790210 0.415168494
0.460146070 0.941771150 0.583730102
0.699108541 0.922067344 0.735248148
0.913691700 0.907628655 0.894346595
