Desert Affinity Presets/Desert Affinity Preset #15.cube
TITLE "32x32x32 Adobe/IRIDAS cube 3D LUT exported with GrossGrade v0.1.027.1 (beta) 64 bit"
LUT_3D_SIZE 5
DOMAIN_MIN 0.000000 0.000000 0.000000
DOMAIN_MAX 0.903226 0.903226 0.903226
0.082975470 0.082975470 0.082975470
0.260217518 0.073982306 0.073982306
0.444864929 0.061943095 0.061943095
0.663161814 0.040285513 0.040285513
0.861340344 0.024661532 0.024661532
0.105993457 0.219200239 0.058218081
0.262726724 0.213222757 0.076104373
0.450114906 0.203548685 0.067204244
0.674905062 0.188015997 0.052421991
0.883883655 0.182795405 0.047983844
0.099498004 0.383614540 0.004411954
0.247615874 0.392955035 0.060231656
0.449305505 0.397587061 0.065632105
0.688431621 0.396371484 0.065186456
0.909858048 0.403595090 0.073185988
0.096386351 0.610234797 0.000000000
0.240553349 0.632874846 0.044123702
0.444865048 0.646783531 0.060415398
0.688009799 0.649598956 0.063992687
0.908855557 0.656259298 0.071420267
0.128732234 0.855797946 0.000000000
0.264562786 0.876558065 0.042723686
0.449868113 0.888932586 0.064655781
0.688429952 0.887157261 0.063655518
0.906301200 0.890842676 0.068103470
0.051676139 0.097900987 0.170386478
0.263801455 0.077944897 0.165629521
0.448467225 0.065548405 0.153987244
0.667052567 0.043795910 0.133008346
0.865919530 0.028485693 0.118463345
0.029852130 0.270668626 0.011290320
0.266547501 0.217809036 0.167602494
0.454645216 0.209231541 0.159024477
0.680625439 0.195263922 0.145060584
0.891104937 0.191929728 0.141725644
0.132923648 0.408769041 0.011290320
0.276633531 0.398820400 0.129917279
0.459031373 0.408074021 0.163023308
0.699271321 0.407976151 0.163702995
0.921233773 0.415749550 0.172238216
0.158514902 0.629009545 0.011290320
0.287774593 0.639691949 0.093276434
0.456393421 0.659080327 0.159620106
0.699169815 0.661526740 0.162835419
0.919199765 0.667363107 0.169440776
0.194746256 0.870695114 0.011290320
0.316586673 0.881718159 0.074305199
0.465187371 0.898345888 0.159362465
0.698367000 0.897856772 0.161256328
0.916011155 0.901317894 0.165489912
0.013373330 0.105823286 0.351086736
0.259755045 0.074664138 0.349533707
0.444307089 0.062158670 0.337796569
0.663087189 0.040610977 0.317014456
0.862435937 0.025770251 0.302933961
0.000000000 0.323297560 0.100668706
0.228663146 0.226149604 0.348720461
0.452854395 0.207819432 0.345573783
0.680773139 0.195408732 0.333928585
0.893015385 0.193461880 0.332743824
0.000000000 0.487118691 0.022580640
0.198882431 0.448688507 0.083820947
0.462014109 0.411819398 0.353965282
0.702827752 0.412681639 0.354833543
0.925039530 0.421094477 0.363240331
0.089886896 0.686150432 0.022580640
0.318764269 0.662408412 0.034644183
0.481119812 0.660651565 0.325299829
0.702789485 0.665912390 0.354413390
0.922124624 0.671058178 0.360335112
0.196313411 0.906423032 0.022580640
0.370434374 0.892215252 0.046207353
0.503494859 0.896247387 0.299894512
0.700871348 0.901126623 0.351725787
0.918565929 0.904632926 0.356001049
0.000000000 0.107738033 0.605604529
0.243008703 0.067579247 0.607685149
0.434377313 0.052990619 0.595665574
0.653471053 0.031750638 0.575196266
0.853534997 0.017625347 0.561841488
0.000000000 0.325205415 0.429998875
0.185300037 0.229016036 0.604190469
0.445554584 0.201289713 0.606076658
0.675155401 0.190562770 0.596112907
0.888943732 0.190152019 0.596474469
0.000000000 0.555366755 0.040375013
0.015748560 0.501582265 0.351118058
0.424692869 0.420727283 0.615489423
0.701380491 0.411631048 0.621575952
0.924177110 0.420230985 0.630944431
0.000000000 0.768423140 0.033870984
0.131938294 0.739089012 0.080594569
0.399926782 0.707082033 0.355605811
0.700383663 0.664269269 0.619802654
0.918940187 0.669023156 0.624559700
0.049369887 0.974610865 0.033870984
0.294714570 0.942271113 0.034960981
0.526942253 0.911426902 0.312474728
0.718110442 0.895213544 0.589761913
0.915258288 0.902097702 0.620501339
0.000000000 0.109638482 0.858688891
0.215060025 0.063854292 0.864844501
0.424622506 0.044011500 0.852283478
0.644172430 0.023228336 0.832265675
0.844958782 0.009824173 0.819629729
0.000000000 0.320829660 0.726676524
0.142456695 0.232395276 0.858754337
0.432040095 0.197425574 0.866023898
0.670229912 0.186397344 0.857550740
0.885381341 0.187366903 0.859290421
0.000000000 0.590866387 0.346064985
0.011290320 0.509653807 0.685190380
0.387869120 0.430131972 0.876072764
0.699924350 0.410930187 0.886481822
0.922905624 0.419725448 0.896043718
0.000000000 0.845454931 0.045161311
0.011290320 0.811099052 0.296600282
0.209690645 0.761864364 0.623359621
0.663023114 0.673130572 0.879852414
0.916292906 0.666754425 0.888662457
0.000000000 0.995161295 0.045161311
0.075114667 0.994760096 0.086060822
0.338422328 0.986416101 0.356382996
0.635532677 0.940262854 0.617241263
0.912161708 0.899766624 0.883769214
