Desert Affinity Presets/Desert Affinity Preset #7.cube
TITLE "32x32x32 Adobe/IRIDAS cube 3D LUT exported with GrossGrade v0.1.027.1 (beta) 64 bit"
LUT_3D_SIZE 8
DOMAIN_MIN 0.000000 0.000000 0.000000
DOMAIN_MAX 0.903226 0.903226 0.903226
0.137060300 0.045039307 0.000000000
0.235784590 0.043905310 0.000000000
0.335640907 0.043733750 0.000000000
0.463251054 0.036926180 0.000000000
0.604380965 0.024422597 0.000000000
0.745459378 0.011003913 0.000000000
0.877881408 0.000386250 0.000000000
0.993720591 0.000000000 0.000000000
0.125597388 0.148170516 0.000000000
0.235327408 0.145294294 0.000000000
0.344494045 0.139019266 0.000000000
0.460913688 0.130962983 0.000000000
0.599066198 0.118667819 0.000000000
0.741290987 0.106836393 0.000000000
0.876902640 0.098675139 0.000000000
0.993921161 0.093602441 0.000000000
0.106576122 0.248027310 0.000000000
0.223102912 0.239724487 0.000000000
0.328032643 0.244096726 0.000000000
0.480627924 0.232195705 0.000000000
0.625781953 0.222845227 0.000000000
0.763840795 0.218677163 0.000000000
0.899043798 0.218061239 0.000000000
0.995161295 0.218981296 0.000000000
0.069782190 0.366158456 0.000000000
0.199752048 0.360957891 0.000000000
0.304048002 0.370474279 0.000000000
0.450246304 0.374072284 0.000000000
0.627531290 0.364942282 0.000000000
0.793393075 0.357546270 0.000000000
0.931772232 0.357296675 0.000000000
0.995161295 0.361156821 0.000000000
0.039141733 0.510762453 0.000000000
0.176803291 0.508131027 0.000000000
0.293421090 0.515117168 0.000000000
0.424189329 0.525623202 0.000000000
0.593628109 0.526315808 0.000000000
0.774895549 0.519810319 0.000000000
0.941014111 0.515128613 0.000000000
0.995161295 0.514277637 0.000000000
0.017817099 0.666351736 0.000000000
0.159753844 0.664902329 0.000000000
0.284393817 0.670289516 0.000000000
0.418813795 0.677293420 0.000000000
0.568694890 0.684994578 0.000000000
0.741910279 0.684279025 0.000000000
0.913702965 0.679108620 0.000000000
0.995161295 0.673663139 0.000000000
0.008066361 0.823385537 0.000000000
0.151673019 0.821464837 0.000000000
0.279872715 0.824584842 0.000000000
0.420269400 0.826164424 0.000000000
0.563365400 0.830649674 0.000000000
0.716742933 0.835247099 0.000000000
0.880500317 0.833185732 0.000000000
0.995161295 0.827161908 0.000000000
0.000141689 0.976971924 0.000000000
0.141735047 0.972654343 0.000000000
0.270994425 0.972537518 0.000000000
0.415040523 0.969680309 0.000000000
0.560455084 0.969155908 0.000000000
0.703313351 0.973699868 0.000000000
0.851383746 0.977863967 0.000000000
0.994175076 0.975515246 0.000000000
0.113551289 0.042404711 0.006451614
0.233183011 0.040478647 0.006451614
0.332953870 0.041226331 0.006451614
0.459957749 0.033738460 0.006451614
0.600850523 0.020857988 0.006451614
0.741960049 0.007286382 0.006451614
0.874571085 0.000000000 0.006451614
0.993434370 0.000000000 0.006451614
0.052738100 0.167173430 0.006451614
0.229192749 0.139592648 0.006451614
0.327280462 0.137639284 0.006451614
0.452727765 0.128678113 0.006451614
0.593886375 0.116192326 0.006451614
0.736875772 0.104684390 0.006451614
0.873264849 0.097373739 0.006451614
0.993640602 0.093277931 0.006451614
0.041566789 0.267225415 0.006451614
0.211046055 0.240322143 0.006451614
0.323019266 0.239515662 0.006451614
0.463837713 0.230506122 0.006451614
0.602338195 0.225300729 0.006451614
0.749372125 0.221024811 0.006451614
0.891183734 0.219590947 0.006451614
0.995161295 0.220160618 0.006451614
0.016703250 0.384404361 0.006451614
0.182696864 0.366891235 0.006451614
0.307523847 0.366732389 0.006451614
0.447744578 0.371995002 0.006451614
0.622613788 0.363152474 0.006451614
0.774100602 0.359266639 0.006451614
0.907911837 0.361658573 0.006451614
0.995161295 0.365375012 0.006451614
0.000000000 0.528591812 0.006451614
0.157199815 0.516641617 0.006451614
0.292277038 0.516373575 0.006451614
0.427533269 0.522472680 0.006451614
0.592075109 0.525188923 0.006451614
0.772548497 0.518395543 0.006451614
0.931627631 0.515012681 0.006451614
0.995161295 0.516646683 0.006451614
0.000000000 0.683711827 0.006451614
0.138477057 0.674835920 0.006451614
0.278465182 0.674360752 0.006451614
0.423641890 0.675522506 0.006451614
0.570046902 0.682436347 0.006451614
0.739956558 0.682744622 0.006451614
0.911500156 0.677336752 0.006451614
0.995161295 0.671751082 0.006451614
0.000000000 0.840259969 0.006451614
0.128716916 0.831847966 0.006451614
0.270106405 0.829677045 0.006451614
0.420583218 0.826512218 0.006451614
0.567764938 0.827056944 0.006451614
0.715910733 0.832166970 0.006451614
0.877907097 0.831029534 0.006451614
0.995161295 0.824651241 0.006451614
0.000000000 0.991840720 0.006451614
0.116934098 0.982756257 0.006451614
0.257827908 0.977951765 0.006451614
0.410804302 0.971463978 0.006451614
0.563944995 0.966564775 0.006451614
0.706235349 0.969381452 0.006451614
0.849678993 0.974852979 0.006451614
0.993912697 0.973061085 0.006451614
0.085260265 0.034985069 0.110691391
0.237484723 0.025159603 0.044786129
0.326629370 0.033060394 0.018739065
0.451611072 0.025593031 0.016034374
0.592108965 0.012517563 0.012903227
0.733134151 0.000452651 0.012903227
0.865810812 0.000000000 0.012903227
0.992620707 0.000000000 0.012903227
0.004656984 0.165102497 0.041275278
0.200708359 0.131970301 0.053989787
0.319491655 0.129025325 0.016524440
0.444254279 0.120383851 0.013969387
0.585845590 0.108259134 0.012903227
0.729456782 0.097230725 0.012903227
0.866535246 0.090433888 0.012903227
0.993089259 0.087213896 0.012903227
0.000000000 0.281147689 0.012903227
0.133770302 0.254921973 0.012903227
0.313464433 0.230383918 0.014867209
0.444027156 0.226529226 0.014175142
0.591931343 0.220800549 0.012981789
0.742091894 0.216462970 0.012903227
0.884710610 0.215380609 0.012903227
0.995096743 0.216094062 0.012903227
0.000000000 0.406617701 0.012903227
0.115785755 0.384212226 0.012903227
0.293555617 0.365406305 0.012903227
0.440487623 0.365174949 0.012903227
0.603129089 0.358753413 0.012903227
0.747300863 0.358378053 0.012903227
0.889783859 0.360346764 0.012903227
0.995161295 0.363148183 0.013224953
0.000000000 0.551465392 0.012903227
0.100656427 0.531976223 0.012903227
0.271861047 0.518960953 0.012903227
0.427426606 0.515147746 0.012903227
0.585699856 0.519246817 0.012903227
0.763465166 0.512432277 0.012903227
0.907858908 0.512265265 0.012903227
0.995161295 0.516286016 0.012903227
0.000000000 0.705257654 0.012903227
0.087840922 0.688734889 0.012903227
0.254621863 0.678633571 0.012903227
0.417913795 0.672195256 0.012903227
0.568597794 0.674503505 0.012903227
0.733200014 0.676426947 0.012903227
0.903883815 0.670635521 0.012903227
0.995161295 0.666000903 0.012903227
0.000000000 0.859767854 0.012903227
0.081172287 0.844306409 0.012903227
0.243595824 0.834379852 0.012903227
0.408998281 0.824934304 0.012903227
0.566991091 0.819685638 0.012903227
0.711401343 0.823747158 0.012903227
0.870444953 0.823989391 0.012903227
0.995161295 0.817236304 0.012903227
0.000000000 0.993459642 0.012903227
0.070732795 0.991996467 0.012903227
0.229151517 0.982623816 0.012903227
0.395232648 0.970757365 0.012903227
0.558832049 0.961495638 0.012903227
0.705164254 0.960331023 0.012903227
0.843784034 0.966714680 0.012903227
0.993165016 0.965633035 0.012903227
0.060172737 0.030761600 0.321726471
0.230767146 0.015601038 0.261239856
0.336868495 0.021207303 0.195620492
0.448559612 0.019750217 0.160231352
0.586945355 0.007295717 0.145149067
0.727700472 0.000000000 0.131770596
0.860461295 0.000000000 0.121218644
0.990476847 0.000000000 0.112509526
0.000000000 0.161016285 0.264260471
0.175301909 0.127433121 0.264708042
0.326508850 0.116421379 0.197604418
0.440647602 0.114936650 0.151884332
0.581103921 0.103705689 0.138942569
0.725219309 0.093401432 0.128923148
0.863048434 0.087489307 0.123408467
0.992775023 0.084805690 0.121156588
0.000000000 0.284875959 0.160472512
0.087041840 0.256756991 0.190179631
0.289639384 0.227428198 0.206712052
0.441751659 0.223428637 0.152550772
0.589533091 0.218587428 0.146993428
0.739946902 0.214428663 0.143252954
0.883043706 0.213675439 0.142940849
0.994966328 0.214650303 0.144360125
0.000000000 0.423064411 0.050058439
0.036070842 0.404019088 0.083759949
0.222283810 0.386011511 0.118498541
0.436392695 0.361510277 0.146749541
0.588375449 0.359859824 0.145099103
0.741560400 0.358541101 0.143780395
0.886864543 0.360149264 0.145394415
0.995161295 0.363045305 0.148284599
0.000000000 0.576459646 0.019354852
0.019040750 0.558824599 0.024867089
0.209400058 0.540717602 0.068538584
0.417640984 0.518005908 0.126025826
0.582393408 0.516374111 0.108465388
0.747706175 0.511767447 0.119165435
0.884633541 0.514942110 0.135704190
0.995161295 0.518187940 0.141436353
0.000000000 0.733345568 0.019354852
0.014312687 0.715424418 0.019354852
0.201679841 0.697567940 0.051316798
0.400799096 0.678077996 0.107200027
0.571586907 0.670265734 0.127277568
0.729575574 0.673226953 0.070495576
0.897301614 0.667187691 0.065773100
0.995161295 0.665611625 0.093696788
0.000000000 0.887582362 0.019354852
0.014369733 0.868650854 0.019354852
0.195632696 0.850947022 0.040316135
0.387505054 0.831559539 0.091927148
0.563594401 0.818698108 0.118010290
0.712206602 0.818067551 0.097297348
0.866035402 0.820020974 0.034875449
0.995161295 0.813078523 0.029191606
0.000000000 0.995161295 0.019354852
0.010412785 0.994026363 0.019354852
0.184006140 0.992393494 0.029932298
0.371083230 0.977822602 0.073519185
0.549975455 0.962638378 0.101863362
0.707090378 0.955655098 0.107426703
0.842219651 0.961243212 0.054513905
0.992738605 0.961472631 0.019433403
0.035499919 0.026956182 0.528670788
0.215756282 0.009254107 0.474326789
0.341851503 0.008921177 0.398360968
0.458501130 0.008071498 0.338300854
0.584574699 0.001795644 0.302360207
0.723050475 0.000000000 0.286456138
0.855791926 0.000000000 0.275846869
0.986079693 0.000000000 0.267445177
0.000000000 0.156328902 0.478607714
0.150155619 0.123165555 0.471178561
0.319421202 0.106481925 0.409159422
0.451002359 0.103192106 0.334651381
0.579068482 0.098882787 0.296419054
0.721858680 0.089975141 0.284883469
0.860423386 0.085056864 0.280119419
0.992553353 0.083010055 0.278404683
0.000000000 0.284104079 0.382412463
0.057544671 0.253914177 0.409907937
0.266383529 0.225049213 0.415073127
0.451533228 0.213591591 0.347527057
0.588993311 0.216193482 0.305897355
0.738395393 0.213060305 0.301048636
0.881528497 0.212572157 0.300850511
0.994834483 0.213958859 0.302641779
0.000000000 0.430710495 0.267114460
0.006797649 0.410776377 0.303068399
0.178372130 0.390672207 0.340795726
0.415209264 0.361194164 0.357177407
0.588020563 0.358666509 0.304498702
0.740808249 0.357972145 0.303087771
0.886125445 0.359517664 0.305050552
0.995161295 0.362501919 0.308473110
0.000000000 0.592963934 0.163593829
0.006451614 0.577235222 0.200611502
0.131163046 0.562002540 0.238132238
0.347670168 0.539910316 0.268781841
0.579366088 0.513773441 0.295403332
0.733798563 0.513700485 0.295331270
0.879310966 0.515522540 0.297152668
0.994967699 0.518159032 0.299789011
0.000000000 0.756835043 0.087672889
0.006451614 0.741402566 0.129838333
0.118377589 0.725139916 0.175320163
0.338772476 0.700270832 0.222812712
0.561826766 0.673147559 0.275881141
0.726196826 0.670276284 0.257082045
0.881001234 0.665965021 0.268078595
0.994162500 0.667771935 0.283249408
0.000000000 0.914593995 0.043833498
0.006451614 0.896778941 0.093792990
0.118161216 0.877394795 0.150846720
0.334145874 0.850079656 0.208694056
0.545775592 0.823877335 0.257854879
0.714774430 0.813411653 0.275282115
0.861869216 0.816276670 0.218408450
0.995161295 0.809433401 0.212890759
0.000000000 0.995161295 0.026666857
0.006451614 0.995161295 0.071170241
0.113341182 0.994635224 0.134328231
0.322824478 0.992143750 0.192409799
0.528185070 0.968966365 0.238282770
0.703742683 0.954707265 0.262973338
0.842930079 0.955455840 0.243631735
0.992166638 0.957668900 0.179213598
0.011831613 0.024170058 0.724690795
0.197415397 0.004834674 0.674747944
0.339096010 0.000190320 0.598141193
0.468234658 0.000000000 0.521594822
0.594989777 0.000000000 0.466955781
0.722154677 0.000000000 0.433267951
0.852403820 0.000000000 0.419906557
0.982859313 0.000000000 0.411607265
0.000000000 0.152445763 0.679213881
0.126006529 0.119878970 0.666705668
0.304327309 0.100061230 0.610258937
0.456967831 0.091889575 0.526438594
0.590869427 0.089068517 0.464418143
0.722158492 0.086644344 0.432833016
0.859064758 0.083449624 0.426164955
0.992435575 0.082075238 0.424811870
0.000000000 0.282339334 0.592126191
0.033690210 0.251431435 0.614533961
0.244296685 0.223829582 0.612669766
0.448031783 0.207236379 0.550746024
0.602919757 0.208018988 0.480312139
0.739892602 0.211764365 0.450123906
0.881319106 0.212302461 0.448032588
0.994800746 0.213918820 0.449804813
0.000000000 0.435120851 0.479750216
0.006451614 0.413804412 0.516889513
0.152430460 0.391379982 0.552145839
0.394971848 0.361824691 0.556628525
0.600260556 0.351289541 0.489996195
0.742309213 0.357630402 0.452107280
0.886440039 0.360018760 0.452775866
0.995161295 0.362997442 0.456048429
0.000000000 0.603442490 0.369457304
0.006451614 0.587227762 0.408086509
0.081630461 0.570851922 0.447602510
0.305634677 0.546441674 0.481026351
0.559727669 0.515009642 0.495446354
0.734666467 0.513744831 0.444023818
0.879523098 0.515918136 0.445489645
0.994942486 0.518227756 0.448214352
0.000000000 0.773898482 0.274555296
0.006451614 0.759485424 0.312888205
0.045052692 0.744695425 0.350850463
0.261469215 0.722502232 0.381408930
0.492429852 0.695635259 0.407295525
0.723458469 0.667966723 0.432384521
0.867158592 0.667970061 0.432388514
0.993656039 0.668297887 0.432707101
0.000000000 0.936900735 0.204941332
0.006451614 0.920853496 0.244625166
0.033892605 0.903542340 0.284912050
0.250961691 0.877768397 0.320879996
0.483723879 0.846035540 0.361509055
0.705057979 0.816337287 0.411999404
0.858654678 0.813491762 0.393234134
0.993817389 0.808562934 0.403598130
0.000000000 0.995161295 0.151464328
0.006451614 0.995161295 0.195497766
0.030065633 0.995161295 0.243440941
0.245698914 0.994647861 0.291356951
0.475154370 0.987502933 0.343440294
0.686604500 0.960572004 0.391571581
0.845999718 0.951306760 0.410200924
0.989010870 0.954721689 0.353864223
0.000000000 0.023106756 0.902979732
0.178279266 0.002317968 0.855726004
0.331177711 0.000000000 0.781718791
0.473710448 0.000000000 0.697194397
0.607586980 0.000000000 0.626723051
0.733988583 0.000000000 0.578631878
0.853891253 0.000000000 0.549670160
0.981621027 0.000000000 0.538382113
0.000000000 0.149943992 0.860089719
0.103269398 0.118004933 0.844184101
0.286926359 0.096577905 0.792142093
0.456056714 0.083972357 0.708607316
0.603268981 0.079535201 0.630905926
0.736234307 0.079685241 0.581616700
0.862342000 0.082304880 0.557687759
0.992483258 0.082393229 0.553501189
0.000000000 0.281284988 0.781489253
0.015033297 0.250561744 0.798694909
0.223860890 0.224254340 0.792451978
0.437252671 0.205131754 0.736684263
0.613227069 0.201070026 0.656985641
0.755592346 0.205854371 0.602567315
0.885234296 0.212581247 0.580131054
0.994908750 0.215331316 0.579406261
0.000000000 0.438698590 0.675268710
0.006451614 0.416242570 0.711340547
0.132390410 0.392705977 0.741119504
0.376074374 0.363799363 0.737952292
0.599661469 0.347840488 0.676657915
0.758859217 0.352073580 0.609680116
0.890299201 0.361096412 0.584763646
0.995161295 0.364838779 0.585888982
0.000000000 0.611544549 0.563929677
0.006451614 0.594233274 0.603864789
0.048274577 0.576385736 0.644456506
0.281838953 0.549304426 0.675065279
0.541502893 0.517644882 0.677434266
0.748603582 0.508066952 0.611762524
0.882579386 0.517132938 0.576602042
0.995071471 0.519824564 0.577577710
0.000000000 0.786756158 0.461814880
0.006451614 0.771665335 0.500991940
0.015649060 0.756274223 0.540453494
0.213187650 0.732589126 0.572665095
0.451455772 0.703233957 0.601135790
0.704496980 0.669879615 0.613642395
0.868773937 0.668756843 0.562359631
0.993709326 0.669142246 0.562028348
0.000000000 0.954591215 0.375963748
0.006451614 0.938721716 0.412841380
0.012903227 0.922265589 0.449134678
0.178049356 0.897731364 0.477358073
0.407010049 0.868854880 0.501239479
0.636196673 0.839350879 0.524479747
0.856845438 0.812105596 0.549983621
0.992561817 0.811435759 0.549316347
0.000000000 0.995161295 0.301532835
0.006451614 0.995161295 0.338198811
0.012903227 0.995161295 0.375471473
0.162173763 0.995161295 0.406694531
0.393015742 0.994263470 0.437212884
0.625507236 0.983698845 0.476719797
0.837578237 0.955529273 0.528751791
0.986833870 0.952977061 0.510266781
0.000000000 0.022970615 0.995161295
0.158739254 0.000935699 0.994877934
0.319540501 0.000000000 0.954634368
0.474070102 0.000000000 0.867640018
0.617736220 0.000000000 0.786555827
0.748021364 0.000000000 0.724683166
0.866783261 0.000000000 0.684182644
0.985261858 0.000000000 0.659200609
0.000000000 0.148399293 0.995161295
0.081329904 0.116935045 0.993552208
0.268390834 0.094530247 0.962579906
0.449667811 0.078797758 0.882577121
0.611091137 0.071791962 0.797737300
0.751907110 0.072150156 0.733339369
0.877864897 0.077231720 0.695610583
0.992927969 0.082407363 0.675846279
0.000000000 0.280628532 0.958239138
0.008086398 0.250761777 0.971151471
0.204477564 0.225742698 0.962155342
0.423255891 0.205047488 0.910852373
0.615920305 0.196751207 0.831621349
0.771311998 0.199637637 0.761245131
0.901956737 0.208273187 0.720441103
0.995161295 0.216481939 0.702097774
0.000000000 0.441819251 0.859492719
0.006451614 0.418399036 0.892778397
0.114472337 0.394895166 0.917221189
0.358171850 0.366761208 0.909142256
0.590955734 0.347795844 0.853536844
0.771046042 0.347000033 0.777094245
0.907598257 0.356780320 0.727672815
0.995161295 0.366507620 0.708242297
0.000000000 0.618365943 0.750156343
0.006451614 0.599871933 0.790307045
0.026749320 0.580599427 0.829559267
0.263363779 0.552197635 0.854477406
0.523907363 0.520924628 0.848946929
0.748991847 0.505597651 0.788280606
0.899691999 0.512147665 0.723616481
0.995161295 0.521305561 0.698844433
0.000000000 0.797031939 0.645346165
0.006451614 0.780984998 0.685545802
0.012903227 0.764312506 0.726133108
0.180387497 0.738685071 0.758953571
0.427994162 0.706416130 0.784370363
0.686314583 0.672558784 0.784545541
0.882527590 0.662893116 0.718788385
0.993984342 0.670269489 0.681935012
0.000000000 0.968279362 0.551759601
0.006451614 0.951780260 0.589172482
0.012903227 0.934636056 0.626302898
0.126600415 0.909176111 0.655689716
0.358797252 0.879016697 0.681423903
0.595265210 0.846993864 0.707240045
0.838142812 0.814286053 0.720390618
0.992741346 0.812569022 0.668515563
0.000000000 0.995161295 0.463110387
0.006451614 0.995161295 0.498007983
0.012903227 0.995161295 0.532885671
0.092467763 0.995161295 0.560017288
0.320673078 0.995161295 0.583131135
0.549196064 0.993333280 0.605720162
0.769372582 0.979199052 0.630752206
0.985621333 0.952186048 0.656497180
