Desert Affinity Presets/Desert Affinity Preset #25.cube
TITLE "32x32x32 Adobe/IRIDAS cube 3D LUT exported with GrossGrade v0.1.027.1 (beta) 64 bit"
DOMAIN_MIN 0 0 0
DOMAIN_MAX 1 1 1
LUT_3D_SIZE 32
0.002087435 0.001710532 0.002957198
0.026917430 0.004440477 0.010963690
0.051513638 0.007425722 0.018884158
0.075631432 0.011206353 0.025032800
0.099703014 0.014844412 0.030631104
0.124871328 0.016581146 0.035518669
0.152703449 0.016979577 0.040655896
0.184086025 0.017060928 0.046790492
0.218982026 0.016252877 0.053075250
0.256745130 0.013269071 0.058136724
0.296106011 0.008915573 0.062198449
0.332807213 0.005030141 0.065133661
0.368185431 0.002181427 0.067419343
0.400838614 0.000635021 0.069503531
0.431141436 0.000158989 0.071624599
0.460331947 0.000042085 0.073630668
0.490054071 0.000042085 0.076062277
0.522756279 0.000000000 0.079849504
0.558813035 0.000000000 0.084965222
0.596276641 0.000000000 0.090646736
0.633284509 0.000000000 0.096119732
0.669004500 0.000000000 0.101834111
0.703509986 0.000000000 0.108669512
0.737855911 0.000000000 0.117933773
0.772212803 0.000000000 0.129246235
0.806411386 0.000000000 0.141608968
0.840667367 0.000000000 0.155218557
0.875564456 0.000000000 0.171158537
0.910655081 0.000052373 0.190953448
0.943952918 0.015747825 0.213291526
0.969489634 0.054552384 0.237694010
0.975197375 0.123622544 0.266350567
0.032127526 0.019659150 0.008765916
0.042818662 0.022034565 0.017435478
0.066313669 0.023197120 0.023464890
0.091572948 0.025495846 0.028697545
0.116402641 0.026703218 0.034063917
0.143227011 0.026969770 0.039125327
0.173103735 0.026546609 0.045214210
0.207326204 0.025162455 0.051629856
0.244328022 0.022437658 0.057186965
0.283859968 0.016966132 0.061412361
0.322086573 0.011008230 0.064367250
0.358470231 0.006243229 0.066898920
0.391758680 0.003356175 0.069093868
0.422911108 0.002006636 0.071205162
0.452334732 0.001698945 0.073337965
0.481702149 0.001659666 0.075801827
0.513523102 0.001613839 0.079388447
0.548586667 0.001612904 0.084347025
0.585782349 0.001612904 0.090145446
0.622946739 0.001612904 0.095837340
0.659053683 0.001612904 0.101642489
0.693807840 0.001612904 0.108464889
0.728249311 0.001612904 0.117546067
0.762622118 0.001612904 0.128635466
0.796891868 0.001612904 0.141312554
0.831207395 0.001612904 0.154853344
0.866219640 0.001612904 0.170653895
0.901379108 0.001798079 0.190042987
0.935416639 0.011524443 0.211886033
0.963644445 0.045013167 0.236129776
0.972800910 0.108636782 0.263970852
0.980270684 0.198394582 0.312922150
0.061420806 0.035376228 0.013145613
0.070167609 0.036081821 0.021145113
0.084145144 0.037818071 0.026483849
0.105668522 0.038795430 0.031467684
0.131039947 0.038495213 0.036376745
0.159797534 0.038042575 0.042033918
0.194205105 0.036467642 0.048606724
0.231560603 0.034107544 0.054485142
0.271760464 0.028981546 0.059019115
0.311631501 0.022582723 0.062259693
0.348829329 0.015938886 0.064642653
0.383352101 0.010750672 0.066718392
0.415664107 0.007764484 0.068962932
0.446119010 0.006461703 0.071129426
0.475455850 0.005793949 0.073547922
0.506865442 0.004505202 0.076911934
0.541520834 0.003491411 0.081715301
0.578621745 0.003238900 0.087506212
0.615684688 0.003225807 0.093431719
0.652032375 0.003225807 0.099324524
0.687028110 0.003225807 0.105911389
0.721334577 0.003225807 0.114574797
0.755649507 0.003225807 0.125644147
0.790214539 0.003225807 0.138200045
0.824588895 0.003225807 0.151691943
0.859320939 0.003225807 0.167527750
0.894690096 0.003429687 0.186523095
0.929334462 0.010057662 0.208339065
0.958927929 0.040950131 0.232839420
0.970514715 0.101222672 0.260559142
0.977724552 0.186735004 0.305915415
0.984185338 0.252008885 0.345443040
0.089753091 0.047719527 0.015627235
0.098766491 0.048747748 0.022850987
0.110479854 0.050785601 0.028876623
0.126426831 0.052280106 0.033782829
0.148841649 0.052485440 0.038930833
0.177357912 0.052045412 0.045755181
0.211556703 0.050331611 0.052179787
0.251303643 0.046328310 0.057089284
0.294098288 0.040000137 0.060566921
0.333348304 0.032182056 0.062878773
0.370346636 0.024866186 0.064817049
0.405510217 0.018242909 0.066612281
0.438009918 0.014146130 0.068652920
0.468651593 0.012635256 0.070882469
0.500576735 0.010584295 0.073908426
0.535223067 0.007744935 0.078365274
0.572662413 0.005385819 0.084061749
0.610240400 0.004838713 0.089978941
0.646735251 0.004838713 0.096091338
0.681987882 0.004838713 0.102801338
0.716579616 0.004838713 0.111161180
0.750989437 0.004838713 0.121804781
0.785439253 0.004838713 0.134535342
0.820137858 0.004838713 0.148367688
0.855087340 0.004838713 0.164190874
0.890245974 0.005080001 0.183205411
0.925081968 0.010407064 0.205141693
0.955329299 0.040648684 0.229947641
0.968481183 0.099775322 0.258664101
0.975674272 0.181937873 0.302056909
0.982395768 0.251322359 0.343697369
0.984196723 0.251757473 0.352994621
0.118489146 0.061140649 0.017810091
0.129060879 0.062527128 0.023713659
0.141121089 0.064715527 0.030057872
0.154827476 0.067118578 0.036336049
0.174825832 0.069155969 0.042381398
0.201467186 0.069720000 0.048987355
0.233700737 0.068347976 0.054907408
0.272336632 0.064122610 0.059406761
0.309903771 0.057678822 0.061836503
0.348434180 0.049526453 0.063871108
0.385828316 0.041166414 0.065626480
0.422366887 0.033448424 0.067399725
0.457328200 0.027365701 0.069148615
0.490196645 0.023259116 0.071640976
0.525865674 0.017542977 0.075368822
0.564445734 0.010762563 0.080765121
0.603093803 0.007397602 0.086726278
0.640741229 0.006451614 0.092675291
0.676838756 0.006451614 0.099220999
0.711797237 0.006451614 0.107392967
0.746833503 0.006451614 0.117850557
0.781722546 0.006451614 0.130502552
0.816561222 0.006451614 0.144660249
0.851753592 0.006451614 0.160780326
0.887515903 0.006734053 0.179899946
0.922667682 0.012792468 0.202442229
0.952684462 0.042790893 0.227804855
0.966664433 0.102557808 0.257564932
0.974049985 0.183550477 0.300596595
0.980592787 0.250654399 0.341919720
0.982583761 0.253442824 0.352768213
0.984168291 0.251125693 0.361520708
0.149390772 0.076018386 0.020000352
0.161489815 0.077725627 0.025446218
0.175320640 0.079993524 0.031585962
0.190527961 0.082531251 0.038726959
0.208716094 0.084689818 0.046040431
0.232520327 0.085566558 0.051423661
0.263163656 0.084724434 0.056238227
0.295334429 0.081221029 0.059551280
0.329737961 0.075842045 0.062200289
0.364866853 0.069539040 0.064725861
0.400809139 0.062508464 0.066791780
0.437387496 0.055444706 0.068688899
0.474324733 0.048537090 0.070780545
0.511924922 0.040482420 0.073847629
0.551345527 0.029843699 0.078344680
0.591929913 0.016764518 0.083961703
0.631566286 0.009585206 0.089866854
0.669135392 0.008110345 0.096321344
0.705240130 0.008064517 0.104216062
0.740945280 0.008064517 0.114215806
0.776650548 0.008064517 0.126583800
0.812427580 0.008064517 0.140966758
0.848320901 0.008064517 0.157397956
0.884420395 0.008534468 0.176715344
0.920244932 0.015746962 0.199422628
0.950359464 0.047646157 0.225629240
0.964993060 0.107645117 0.257079452
0.972593367 0.187340647 0.300342828
0.978822231 0.250536889 0.339983165
0.980971873 0.255375654 0.352176964
0.982572019 0.252985597 0.361086518
0.984148860 0.250435531 0.370222956
0.185245246 0.091337979 0.021522937
0.199124366 0.093287960 0.026452025
0.214262292 0.095457144 0.032087285
0.230751216 0.097221479 0.039054293
0.248113632 0.098713115 0.046962563
0.269784719 0.099966355 0.052471131
0.293576986 0.099125281 0.055689260
0.321729600 0.096641704 0.058398139
0.353131801 0.092998065 0.061578829
0.386086255 0.088307872 0.064700626
0.420421302 0.082618810 0.067328639
0.456693172 0.077032216 0.069974847
0.495514363 0.069856226 0.073155597
0.535653412 0.059735596 0.077127509
0.576757371 0.045063715 0.082310542
0.618454874 0.025553428 0.088064566
0.658278525 0.011980424 0.094208293
0.695928872 0.009791520 0.101678394
0.732815325 0.009677423 0.111388750
0.769563556 0.009677423 0.123509310
0.806109905 0.009677423 0.137789398
0.842850268 0.009683035 0.154228389
0.879940271 0.010342374 0.173827946
0.916598380 0.020783734 0.197019607
0.947543800 0.052931316 0.223615050
0.963213682 0.112756282 0.255733013
0.971113086 0.191379398 0.299465328
0.977110326 0.251152754 0.338056177
0.979400337 0.257993639 0.351523787
0.980997086 0.255451918 0.360517681
0.982583225 0.252766818 0.369688392
0.984117925 0.249662861 0.379550368
0.225610405 0.106415510 0.021774465
0.240042269 0.107956164 0.025285821
0.256835967 0.109604776 0.030152760
0.273416400 0.110823080 0.036550239
0.288792044 0.111445911 0.044398669
0.306164980 0.112166747 0.050116174
0.326909125 0.112514690 0.054092765
0.351713270 0.111615710 0.057456825
0.379867762 0.109689236 0.060622562
0.410672188 0.106409796 0.063825235
0.444528282 0.102775440 0.067417957
0.482100248 0.097947389 0.071346879
0.521772504 0.090546869 0.075721420
0.562422454 0.078953788 0.080981612
0.603184998 0.059266262 0.086968482
0.644736409 0.035377648 0.093259849
0.684766829 0.017635396 0.100346014
0.722765446 0.012565044 0.109468363
0.760539234 0.011721930 0.121294312
0.798021972 0.012363963 0.135511309
0.835587740 0.012766579 0.151773214
0.873534679 0.015525971 0.171149269
0.910986066 0.025579693 0.194287717
0.943321168 0.062465653 0.221057549
0.960943103 0.118676752 0.253128052
0.969514310 0.194267333 0.297028631
0.975453377 0.253053129 0.335847020
0.977940202 0.262518704 0.350784481
0.979547918 0.259880126 0.359949857
0.981130719 0.257060647 0.369236678
0.982667863 0.253884882 0.378985345
0.984177470 0.250314683 0.389334589
0.267969131 0.119808771 0.020038676
0.281833500 0.120713182 0.021853985
0.296466082 0.121544547 0.025433576
0.312110931 0.122381032 0.030846268
0.328090429 0.123301536 0.039051015
0.344644070 0.124605171 0.046279889
0.363423973 0.125839919 0.051852912
0.385029554 0.126561135 0.056076411
0.410943985 0.126194462 0.059794854
0.440398216 0.124945030 0.063434348
0.474753886 0.122372739 0.067456767
0.512727261 0.118077628 0.072609410
0.552869976 0.110463433 0.078475215
0.592312098 0.096541338 0.084926419
0.632127643 0.074713066 0.091793768
0.672580063 0.048011314 0.099301405
0.712129474 0.027829044 0.108365610
0.750379324 0.018402383 0.119815506
0.788380980 0.016569328 0.133641213
0.826649547 0.020323342 0.149739742
0.865407944 0.029208019 0.168943569
0.904012978 0.042845510 0.191921651
0.938036084 0.074892156 0.218274787
0.958142638 0.126286402 0.249327838
0.967776000 0.195908815 0.292292058
0.973815084 0.255782932 0.333099812
0.976578474 0.268922150 0.350255609
0.978181779 0.266202390 0.359220237
0.979777813 0.263347834 0.368638009
0.981344759 0.260196149 0.378421962
0.982874274 0.256709099 0.388850451
0.984382689 0.253057271 0.399319023
0.306440175 0.130962685 0.015717467
0.321427286 0.132158890 0.016366964
0.336215228 0.133458436 0.019556150
0.351712078 0.134633586 0.024393154
0.367975831 0.135869011 0.032559615
0.384542227 0.137890488 0.041030906
0.402499497 0.139896885 0.048177935
0.423097283 0.141727343 0.054132517
0.447424501 0.142614841 0.059008848
0.477737665 0.142536715 0.063674659
0.511680245 0.140522718 0.068685181
0.549273729 0.135834500 0.074330255
0.587040126 0.127126127 0.081129812
0.624858975 0.112858273 0.088607572
0.663786232 0.093011901 0.096883282
0.703016579 0.068056658 0.106156394
0.741631567 0.049349256 0.117693894
0.779280722 0.038425758 0.131770119
0.817417145 0.037884708 0.147822976
0.856193304 0.046537951 0.166630894
0.895463467 0.068118475 0.189091265
0.931734562 0.099088117 0.214969695
0.954737842 0.139123842 0.244154632
0.966083169 0.199005529 0.285859346
0.971995533 0.256431609 0.327725112
0.975258589 0.276325494 0.348969728
0.976966918 0.275107622 0.358788818
0.978554726 0.272266805 0.368026942
0.980133474 0.269175410 0.377878904
0.981689334 0.265740633 0.388105839
0.983232737 0.262041658 0.398696840
0.984745800 0.258047163 0.409487128
0.346018285 0.142923847 0.010497054
0.361200184 0.144505575 0.010247774
0.376260430 0.146262094 0.013031961
0.392346770 0.148029819 0.017405597
0.409241229 0.149743959 0.025661331
0.426587999 0.152308121 0.035073966
0.445304036 0.154896930 0.043720596
0.466861993 0.157121107 0.051616311
0.492200762 0.158853814 0.058402821
0.521251559 0.158597961 0.064670272
0.553930402 0.156389117 0.070317611
0.588229060 0.150994524 0.076665528
0.623049021 0.141713396 0.083841532
0.659407377 0.130401403 0.092494167
0.697430491 0.116289005 0.102161855
0.735579550 0.102803677 0.113754302
0.773130536 0.092430115 0.127847031
0.810487509 0.089168139 0.144401193
0.848519325 0.092243180 0.163578451
0.887344003 0.104790188 0.185890153
0.924285054 0.126825437 0.211051702
0.950534761 0.157648325 0.238726243
0.964268446 0.204858556 0.277563870
0.970249712 0.258428514 0.320395589
0.973990142 0.284928173 0.346709847
0.975880504 0.286485255 0.358137786
0.977461696 0.283571064 0.367342353
0.979040027 0.280454427 0.377107978
0.980605662 0.277118564 0.387356192
0.982160211 0.273425579 0.397938758
0.983713269 0.269538313 0.408700198
0.985232353 0.265373379 0.419775844
0.386702359 0.155954614 0.005394882
0.402191848 0.158023357 0.004528390
0.417979836 0.160324633 0.006574673
0.434770882 0.163039118 0.010130438
0.453017592 0.165497363 0.018425930
0.473558694 0.168089867 0.029056691
0.495143980 0.170809150 0.039309576
0.517769098 0.172489971 0.049284786
0.542398095 0.173232436 0.057939358
0.568996489 0.172904506 0.065186009
0.597949028 0.170060515 0.072188102
0.628255963 0.165025279 0.079223841
0.660993993 0.158797473 0.087202303
0.695983231 0.150524169 0.096583568
0.732218981 0.144359767 0.107764743
0.769272208 0.140151292 0.121643476
0.806078732 0.138728097 0.138298959
0.843036532 0.141422778 0.157839522
0.880881608 0.149310604 0.180251181
0.918307722 0.162917644 0.205494106
0.945848644 0.183098972 0.232945397
0.961887717 0.217502013 0.269071281
0.968776584 0.265412569 0.312753588
0.972791195 0.295027018 0.342995465
0.974946141 0.300773412 0.357171535
0.976547301 0.297934264 0.366371214
0.978123546 0.294944227 0.375965297
0.979692221 0.291729659 0.386110157
0.981247246 0.288347214 0.396643400
0.982800305 0.284588903 0.407497406
0.984342992 0.280578107 0.418634444
0.985852361 0.276321352 0.429981917
0.428422689 0.170739427 0.001567916
0.445165992 0.173534051 0.000943180
0.463325262 0.176294625 0.001845211
0.483002990 0.179282129 0.004335265
0.503581882 0.181652993 0.012083172
0.525759161 0.183345422 0.022969728
0.548076868 0.184752941 0.034372527
0.570366383 0.185584709 0.045918383
0.592941642 0.185911074 0.056605760
0.616790593 0.185176179 0.065738283
0.642390907 0.183576927 0.073880836
0.670751154 0.181435615 0.082444273
0.701359987 0.178364113 0.091443621
0.734427631 0.176601589 0.101892047
0.769079924 0.175842255 0.114801668
0.804358304 0.176727012 0.130496249
0.840161443 0.180140629 0.149868637
0.876618743 0.186618358 0.172419995
0.913127720 0.197183102 0.197734863
0.941989779 0.212422192 0.225489333
0.959928036 0.237280175 0.259776562
0.967678905 0.278637618 0.304491282
0.971684277 0.307276219 0.336980134
0.974197567 0.317807883 0.355562925
0.975765288 0.315065771 0.364705473
0.977343142 0.312129945 0.374408662
0.978922546 0.309060961 0.384458542
0.980490863 0.305882186 0.394841433
0.982045889 0.302344531 0.405772209
0.983598948 0.298531950 0.416862011
0.985123575 0.294494152 0.428187668
0.986632347 0.290077209 0.439753056
0.475978851 0.186777607 0.000126256
0.495077878 0.189530462 0.000042085
0.515021443 0.191976070 0.000246901
0.535868049 0.194155514 0.001599246
0.556899011 0.195690662 0.007583785
0.578266025 0.196569145 0.016532980
0.599773169 0.197160959 0.027780095
0.620641708 0.197387993 0.041265130
0.641835093 0.198019743 0.054288231
0.664278030 0.199318543 0.065915518
0.688575327 0.199989170 0.076055296
0.715061307 0.201142028 0.086198241
0.744028866 0.203748584 0.097097546
0.775103450 0.206749842 0.109452985
0.807957768 0.209921598 0.124221593
0.841647625 0.214814201 0.142302662
0.875906467 0.221533626 0.164022282
0.910796583 0.230697602 0.188765749
0.939047337 0.243601233 0.217078060
0.957821310 0.263423145 0.250694156
0.966913998 0.296667665 0.295295298
0.970759332 0.322719753 0.329458624
0.973581851 0.337299526 0.352839977
0.975169241 0.334692806 0.362233996
0.976739287 0.331911504 0.371933192
0.978292406 0.328906447 0.382180154
0.979864180 0.325821102 0.392663598
0.981440485 0.322662026 0.403457046
0.982995331 0.319125146 0.414696038
0.984542489 0.315391749 0.425970346
0.986073017 0.311353177 0.437436700
0.987582445 0.307003647 0.449231088
0.528584599 0.201853067 0.000000000
0.548517227 0.203827828 0.000000000
0.568169415 0.205479249 0.000021510
0.588232100 0.206988022 0.000745379
0.608161747 0.208032757 0.004290839
0.628214836 0.208856329 0.010079909
0.649011850 0.209970623 0.020426366
0.670019209 0.211625099 0.036310315
0.691205323 0.213943824 0.052089494
0.713173687 0.217576474 0.066358343
0.736599684 0.222557724 0.079319194
0.761741936 0.227779478 0.091947123
0.788836300 0.233246312 0.105076708
0.817898214 0.239143401 0.119831830
0.848510265 0.245921567 0.136922330
0.880465925 0.253626972 0.157889098
0.912494421 0.262507886 0.181571364
0.938042939 0.274174839 0.208876267
0.956637681 0.291460931 0.242733419
0.966525733 0.319888145 0.287297308
0.970008969 0.341225147 0.320846826
0.972977936 0.356884539 0.347968727
0.974675059 0.356138110 0.358817756
0.976264298 0.353733867 0.368615925
0.977836192 0.351028264 0.378980160
0.979398906 0.348115683 0.389641523
0.980957985 0.345123172 0.400530338
0.982538283 0.342036664 0.411841184
0.984088600 0.338610828 0.423363626
0.985628366 0.335011572 0.434926867
0.987165809 0.331046104 0.446602196
0.988682091 0.326801121 0.458593845
0.580998540 0.215172186 0.000000000
0.599910319 0.216690600 0.000000000
0.618685484 0.217966169 0.000001870
0.637529254 0.219370127 0.000212765
0.657012761 0.221360579 0.001512736
0.677286923 0.224050432 0.004240803
0.698061466 0.227017686 0.013963455
0.719657838 0.231319040 0.032616165
0.741359234 0.236773372 0.051919300
0.763187230 0.243253052 0.069056928
0.785716832 0.250228196 0.084589109
0.809623718 0.257648349 0.099975653
0.834984481 0.265698552 0.116121337
0.862041771 0.273939013 0.133785114
0.890237689 0.282882810 0.154198840
0.918632925 0.292413503 0.177483261
0.939787328 0.304144055 0.204314679
0.956967831 0.320531547 0.238984734
0.966142058 0.345232606 0.282251596
0.969440222 0.362125456 0.313485712
0.972427070 0.377743393 0.342356741
0.974243820 0.378627181 0.354491502
0.975865066 0.376740068 0.364552081
0.977456152 0.374554783 0.374900818
0.979031563 0.372055471 0.385658503
0.980606437 0.369271994 0.396709681
0.982176602 0.366396070 0.408077240
0.983740568 0.363309145 0.419865012
0.985291421 0.360007137 0.431651056
0.986829340 0.356473804 0.443573684
0.988360345 0.352723151 0.455506116
0.989884019 0.348618537 0.467684597
0.630513251 0.227933064 0.000000000
0.648690283 0.229545578 0.000000000
0.667473018 0.232478127 0.000000000
0.686470330 0.235597923 0.000021043
0.706279218 0.239564776 0.000225858
0.726526558 0.245022997 0.001560432
0.747686803 0.250705749 0.011213879
0.769580245 0.257248938 0.032343533
0.791341543 0.264419466 0.054885823
0.813167453 0.272589326 0.074942335
0.835156322 0.281326711 0.093580402
0.857771933 0.290495396 0.112082884
0.881631494 0.300138235 0.131405056
0.906094551 0.310058236 0.152638569
0.928811312 0.320630640 0.176235393
0.944589734 0.332905650 0.203851268
0.959300995 0.351112694 0.242021948
0.966099918 0.372812390 0.283022791
0.969087362 0.385255635 0.309727311
0.972002864 0.399915010 0.338188887
0.973821461 0.401269257 0.349890679
0.975461125 0.400150925 0.359700859
0.977106094 0.398671716 0.369870514
0.978716731 0.396768808 0.380777597
0.980295777 0.394568980 0.391925514
0.981882930 0.392147422 0.403434157
0.983458400 0.389348239 0.415281713
0.985016227 0.386336982 0.427298188
0.986561954 0.383117914 0.439407825
0.988108635 0.379662424 0.451554984
0.989640534 0.376062661 0.463852912
0.991155863 0.372145444 0.476288766
0.679386675 0.244261220 0.000000000
0.698036790 0.247751951 0.000000000
0.716963887 0.252837420 0.000000000
0.736325502 0.258286476 0.000046294
0.756119728 0.264585674 0.000564411
0.776391864 0.271463692 0.003176033
0.797419131 0.278646022 0.014532519
0.819370270 0.286561519 0.038800824
0.841057956 0.295161158 0.064153977
0.862109482 0.304734230 0.086223602
0.883479416 0.314875573 0.107398197
0.904867351 0.325275123 0.128211811
0.924632192 0.336481780 0.152129740
0.939703941 0.348530799 0.179495156
0.952390850 0.362623781 0.211097717
0.962565005 0.381832212 0.251057029
0.965948164 0.397111148 0.283586651
0.968821347 0.409523219 0.310346186
0.971575081 0.422722340 0.337226599
0.973289013 0.423228234 0.345873803
0.974983394 0.423086137 0.355047584
0.976668537 0.422509044 0.364726633
0.978318751 0.421487480 0.375117987
0.979964197 0.420052081 0.386098683
0.981570423 0.418232083 0.397602975
0.983189166 0.416147828 0.409610748
0.984786630 0.413698196 0.421775550
0.986357689 0.410902202 0.434017807
0.987905622 0.407846332 0.446336865
0.989449501 0.404529542 0.458730251
0.990980506 0.401002049 0.471416503
0.992489457 0.397262990 0.484025031
0.729075313 0.266985446 0.000000000
0.748072207 0.272688240 0.000000000
0.767016351 0.279134899 0.000000000
0.786458731 0.285922766 0.000378768
0.806176126 0.293371648 0.003833035
0.826609492 0.301394165 0.012285165
0.847436249 0.309864908 0.028713429
0.868435502 0.318980396 0.054813374
0.889365673 0.328705817 0.080883414
0.909448266 0.339074522 0.103546888
0.927142262 0.350432128 0.126490980
0.939884245 0.362985045 0.154672295
0.950317442 0.376929641 0.187833875
0.958989918 0.394150615 0.227817237
0.963087201 0.411603481 0.266827792
0.965856433 0.422495246 0.291325867
0.968581796 0.434845448 0.317159325
0.970748365 0.441967309 0.334372848
0.972511172 0.443479240 0.342465520
0.974242806 0.444506466 0.350948423
0.975953817 0.444897473 0.360186785
0.977656960 0.444864452 0.369834691
0.979345441 0.444426566 0.380201459
0.981019795 0.443562359 0.391348749
0.982669294 0.442272544 0.402938306
0.984314203 0.440513074 0.415095985
0.985941112 0.438408732 0.427457064
0.987545490 0.435973167 0.439982027
0.989127576 0.433178246 0.452578276
0.990701020 0.430075854 0.465238482
0.992258310 0.426774323 0.478140771
0.993792117 0.423293978 0.490907907
0.779272020 0.294539481 0.000000000
0.798069894 0.301317990 0.000000000
0.817028403 0.308804303 0.000031798
0.836217284 0.316676497 0.001636181
0.855841219 0.325157464 0.013289139
0.875929475 0.334057748 0.032594156
0.895560384 0.343522459 0.054553404
0.914242804 0.353553236 0.079271629
0.930127084 0.364921629 0.106202543
0.941115797 0.377773076 0.135300711
0.950590909 0.392245978 0.170703903
0.957333744 0.408727467 0.211140960
0.960437298 0.425054997 0.250869483
0.963089883 0.436381370 0.278408200
0.965650916 0.447205424 0.302407593
0.967945755 0.456595093 0.322807610
0.969777405 0.459576637 0.330912858
0.971559107 0.462147832 0.338991016
0.973328531 0.464148432 0.347465932
0.975090504 0.465677798 0.356078386
0.976831913 0.466690302 0.365199029
0.978548288 0.467123151 0.375100642
0.980241179 0.467226714 0.385438621
0.981937289 0.466937751 0.396455437
0.983620763 0.466145039 0.408053696
0.985269368 0.464859545 0.420135051
0.986920774 0.463173360 0.432535231
0.988544762 0.461018652 0.445377141
0.990153491 0.458570808 0.458203435
0.991760433 0.455763996 0.471161842
0.993344486 0.452680677 0.484127939
0.994907260 0.449462265 0.497005790
0.829148114 0.325086057 0.000000000
0.847715735 0.332894772 0.005211565
0.866541207 0.341194570 0.012808912
0.885108531 0.349893123 0.021897459
0.903240442 0.358932912 0.039346509
0.920555353 0.368423104 0.063406780
0.933322251 0.379806757 0.090942442
0.941994905 0.392985284 0.122066811
0.949905217 0.407752097 0.160131752
0.954748213 0.424365938 0.203660995
0.957742035 0.439003199 0.240431815
0.960349917 0.449921548 0.267496288
0.962766230 0.459775031 0.290386766
0.964955091 0.468118429 0.308504522
0.966840863 0.472176790 0.317558974
0.968687713 0.475890160 0.326352507
0.970518470 0.479366750 0.334872365
0.972324789 0.482333899 0.343513161
0.974103808 0.484855980 0.352149397
0.975875795 0.486803889 0.361168325
0.977629662 0.488365084 0.370338529
0.979367137 0.489530444 0.380191892
