Desert Affinity Presets/Desert Affinity Preset #11.cube
TITLE "32x32x32 Adobe/IRIDAS cube 3D LUT exported with GrossGrade v0.1.027.1 (beta) 64 bit"
DOMAIN_MIN 0 0 0
DOMAIN_MAX 1 1 1
LUT_3D_SIZE 32
0.000000000 0.030717203 0.158441946
0.001612904 0.033389602 0.160201743
0.003225807 0.035333041 0.161232218
0.004838713 0.035907242 0.160893768
0.006451614 0.033860944 0.157935053
0.008064517 0.026109768 0.149270564
0.009677423 0.009066120 0.131313965
0.016413046 0.003198019 0.124533050
0.045794830 0.000440961 0.120492794
0.087588891 0.000000000 0.117577821
0.127392828 0.000000000 0.114993148
0.166312233 0.000000000 0.112644777
0.205006763 0.000000000 0.110366367
0.243745953 0.000000000 0.108106963
0.282834709 0.000000000 0.105860427
0.322404653 0.000000000 0.103462659
0.362503946 0.000000000 0.100799233
0.403133094 0.000000000 0.097997256
0.444454134 0.000000000 0.095004559
0.486714393 0.000000000 0.091942497
0.529638171 0.000000000 0.088633642
0.573162854 0.000000000 0.085044228
0.617365837 0.000000000 0.081279956
0.662205458 0.000000000 0.077335134
0.707672775 0.000000000 0.073317356
0.753738165 0.000000000 0.069210283
0.800219953 0.000000000 0.064861506
0.846844316 0.000000000 0.060436904
0.893770814 0.000000000 0.055929121
0.940372348 0.000000000 0.051518537
0.987119079 0.000000000 0.047231507
1.000000000 0.000000000 0.042995382
0.000000000 0.054031633 0.178511336
0.001612904 0.057305440 0.181866154
0.003225807 0.059006628 0.181647822
0.004838713 0.058855083 0.179563046
0.006451614 0.056289271 0.175076842
0.008064517 0.048050370 0.164906561
0.013674122 0.030540066 0.145478189
0.038231004 0.024363294 0.137387052
0.085809670 0.020683667 0.131800815
0.129505828 0.018058939 0.127268001
0.171315014 0.015935466 0.123254307
0.212219983 0.014068302 0.119492278
0.252940953 0.012347946 0.115897857
0.293543190 0.010732336 0.112427451
0.334168941 0.008925468 0.108773224
0.375125945 0.007027886 0.105044909
0.416613638 0.004986749 0.101189114
0.458621502 0.002995645 0.097250134
0.501285136 0.002104835 0.093270123
0.544526756 0.002022534 0.089092374
0.588217795 0.001938364 0.084715523
0.632406950 0.001851855 0.080237202
0.677029490 0.001772828 0.075670414
0.722072065 0.001684916 0.071084015
0.767454326 0.001612904 0.066532783
0.812905014 0.001612904 0.061860386
0.858427346 0.001612904 0.057180941
0.903393567 0.001612904 0.052699275
0.948094726 0.001612904 0.048346702
0.991721332 0.001612904 0.044444021
0.998307168 0.001612904 0.042511795
1.000000000 0.001612904 0.041949783
0.000000000 0.080388881 0.193228304
0.001612904 0.083803862 0.197437644
0.003225807 0.084818572 0.195546761
0.004838713 0.084205069 0.191908270
0.006451614 0.081204847 0.185869083
0.008719176 0.072506286 0.174147606
0.020124871 0.054695733 0.153332293
0.069461122 0.047898032 0.143549904
0.119017698 0.043775506 0.136465847
0.164674714 0.040731341 0.130467549
0.208295316 0.038215559 0.125054941
0.250954121 0.036043957 0.120002657
0.293312013 0.034057532 0.115178920
0.335332334 0.031961687 0.110272110
0.377403438 0.029853685 0.105379000
0.419699281 0.027706398 0.100491539
0.462356418 0.025436601 0.095532686
0.505439878 0.023185991 0.090635046
0.548873663 0.020819847 0.085679285
0.592618048 0.018231578 0.080564953
0.636623681 0.015570858 0.075438924
0.680854738 0.012861031 0.070322774
0.725280643 0.010263887 0.065426871
0.769506991 0.007604558 0.060574882
0.813166797 0.005302955 0.055917446
0.856489420 0.004793251 0.051451232
0.899216413 0.004795120 0.047249254
0.934605956 0.004816633 0.045798261
0.968024433 0.004826918 0.045176286
0.995205760 0.004852169 0.044691823
0.998387098 0.004873682 0.044172831
1.000000000 0.004900803 0.043737024
0.000000000 0.108885556 0.202141941
0.001612904 0.112301178 0.206926584
0.003225807 0.112865902 0.203751311
0.004838713 0.111804575 0.198689938
0.006451614 0.108335599 0.191191822
0.011369149 0.099384613 0.178200334
0.033321425 0.080934666 0.155734420
0.094790876 0.073698290 0.144545257
0.146187782 0.069187239 0.136137694
0.193592831 0.065804064 0.128896430
0.239047378 0.063062862 0.122353479
0.283249855 0.060499877 0.116047837
0.326906055 0.058042083 0.109909423
0.370248854 0.055661496 0.103920415
0.413512200 0.053327631 0.098046750
0.456873924 0.051052660 0.092320092
0.500435829 0.048746832 0.086652800
0.543963611 0.046282966 0.080934383
0.587587476 0.043792453 0.075300097
0.631354392 0.041247230 0.069722854
0.674577415 0.038850229 0.064565994
0.717522562 0.036666498 0.059804741
0.760078669 0.034487866 0.055204332
0.800432861 0.032762840 0.051511087
0.836263537 0.032193754 0.049788844
0.870338917 0.032101132 0.048809681
0.904043317 0.032107189 0.047946472
0.937379181 0.032385457 0.047368035
0.970364988 0.032575272 0.046718020
0.995355368 0.032956842 0.046261631
0.998387098 0.033307593 0.045774415
1.000000000 0.033761166 0.045376904
0.000000000 0.139593214 0.205324873
0.001612904 0.142956138 0.210387871
0.003225807 0.143163472 0.206310600
0.004838713 0.141747326 0.200094745
0.006451614 0.137899294 0.191350281
0.014069159 0.128289789 0.176872358
0.050852388 0.109425880 0.153163657
0.114140846 0.101811968 0.140776038
0.167256549 0.096911266 0.131184444
0.216370210 0.093251809 0.122905418
0.263222069 0.090069152 0.115199625
0.308748096 0.087173253 0.107900530
0.353628546 0.084476039 0.100904964
0.398008347 0.081883989 0.094145477
0.442122549 0.079422489 0.087656796
0.486075222 0.077065744 0.081430539
0.529745340 0.074617282 0.075323477
0.572654605 0.072319411 0.069792986
0.615263522 0.070120692 0.064543523
0.657555461 0.067963570 0.059538178
0.697299480 0.066571921 0.056135833
0.733837485 0.065912619 0.054348584
0.769089043 0.065463737 0.053004626
0.803812981 0.065169141 0.051829085
0.838102937 0.065026976 0.050804079
0.872130752 0.065116256 0.050035782
0.905740619 0.065166771 0.049233351
0.938835859 0.065308027 0.048510868
0.971733928 0.065500639 0.047859978
0.995443285 0.065886892 0.047410138
0.998387098 0.066292800 0.046978012
1.000000000 0.066928715 0.046776041
0.000000000 0.172320858 0.203454047
0.001612904 0.175387725 0.207947716
0.003225807 0.175517425 0.204153463
0.004838713 0.173611641 0.196803585
0.006451614 0.169228882 0.186842382
0.015681962 0.159192190 0.171256259
0.063153863 0.139925584 0.146515280
0.128104270 0.131904617 0.133101791
0.182931125 0.126811877 0.122752987
0.233322933 0.122661814 0.113491260
0.281386614 0.119136892 0.105024360
0.328005731 0.116004430 0.097134262
0.373759806 0.113129400 0.089705914
0.418633580 0.110532098 0.082968019
0.462539136 0.108076930 0.076812349
0.505781054 0.105712347 0.070985854
0.548373044 0.103495829 0.065625139
0.588639319 0.101841420 0.061908554
0.626327217 0.100867949 0.059953440
0.663315773 0.100087427 0.058256928
0.699572206 0.099393509 0.056662813
0.735225677 0.098848194 0.055224415
0.770357370 0.098431118 0.053934727
0.805049717 0.098187052 0.052825093
0.839394569 0.098179549 0.051940855
0.873260379 0.098173119 0.051084172
0.906789064 0.098188937 0.050252263
0.939853370 0.098334774 0.049545221
0.972747147 0.098573774 0.048931263
0.995509744 0.098977715 0.048507143
0.998387098 0.099541724 0.048236374
1.000000000 0.099998146 0.047852498
0.000000000 0.207006261 0.196922272
0.001612904 0.209838077 0.200781092
0.003225807 0.209738433 0.197484896
0.004838713 0.207257107 0.189118281
0.006451614 0.202406377 0.178298324
0.016261799 0.191955492 0.161900327
0.070454344 0.172329158 0.136453837
0.137010857 0.164019257 0.122500204
0.193012550 0.158392936 0.111432835
0.244563818 0.153948247 0.101782307
0.293387026 0.150228590 0.093571439
0.340302587 0.146951988 0.086241342
0.386070192 0.144072071 0.079542257
0.430394083 0.141482159 0.073680237
0.472428501 0.139310524 0.069550276
0.512420356 0.137625769 0.066876478
0.551494777 0.136187151 0.064500980
0.589724302 0.135018036 0.062417291
0.627245426 0.134093493 0.060600147
0.664081454 0.133257911 0.058872279
0.700273693 0.132561117 0.057293635
0.735919774 0.132046521 0.055904325
0.771032453 0.131662220 0.054647371
0.805786610 0.131516233 0.053644329
0.840018630 0.131426498 0.052693196
0.873803973 0.131380111 0.051787414
0.907307029 0.131398678 0.050971016
0.940374434 0.131593853 0.050313067
0.973378062 0.131962761 0.049834181
0.995554566 0.132406861 0.049439531
0.998387098 0.132788822 0.048994359
1.000000000 0.133249894 0.048606254
0.000000000 0.243317366 0.186582729
0.001612904 0.245589644 0.189546600
0.003225807 0.245320708 0.187187061
0.004838713 0.242398322 0.178328216
0.006451614 0.237088010 0.167012408
0.016254796 0.226198241 0.150236920
0.073570944 0.206189767 0.124699146
0.141299263 0.197324499 0.111193888
0.198219791 0.191362262 0.100843929
0.250362605 0.186708957 0.092074357
0.299471915 0.182797417 0.084601440
0.345676899 0.179660991 0.079972975
0.389669478 0.176868364 0.076190896
0.432037741 0.174512729 0.072875015
0.473082662 0.172528356 0.069962695
0.513041377 0.170902818 0.067411885
0.552139640 0.169541731 0.065148592
0.590344787 0.168385848 0.063093878
0.627730787 0.167364255 0.061181374
0.664520919 0.166501850 0.059450738
0.700720608 0.165840849 0.057916023
0.736406505 0.165398881 0.056601077
0.771568418 0.165091455 0.055428732
0.806200981 0.164846644 0.054327041
0.840349197 0.164696842 0.053324480
0.874112546 0.164655745 0.052428544
0.907662153 0.164736465 0.051683184
0.940781891 0.165023386 0.051118325
0.973654032 0.165288165 0.050551057
0.995577037 0.165708318 0.050134879
0.998387098 0.166097164 0.049695358
1.000000000 0.166601151 0.049358208
0.000000000 0.280715734 0.172947094
0.001612904 0.282515645 0.175445452
0.003225807 0.281917006 0.174094141
0.004838713 0.278608412 0.165821195
0.006451614 0.272799283 0.155327305
0.016210359 0.261249363 0.139531568
0.073550440 0.240626946 0.114886381
0.142225534 0.231385753 0.102342702
0.199650571 0.225041687 0.094958320
0.251562655 0.220154151 0.089117207
0.300069273 0.216312528 0.084323160
0.345891804 0.213017374 0.080096409
0.389848351 0.210235775 0.076387249
0.432251751 0.207937330 0.073179878
0.473279148 0.205954701 0.070291907
0.513236046 0.204351127 0.067785978
0.552306890 0.202978238 0.065518975
0.590426207 0.201759398 0.063421234
0.627815366 0.200757712 0.061544236
0.664631188 0.199951380 0.059860386
0.700836420 0.199317276 0.058365870
0.736507535 0.198875949 0.057056542
0.771598101 0.198516116 0.055842597
0.806186020 0.198253781 0.054727342
0.840345025 0.198134124 0.053758439
0.874121904 0.198125392 0.052912995
0.907728434 0.198299214 0.052259240
0.940748215 0.198501855 0.051623333
0.973538101 0.198720053 0.051011659
0.995570540 0.199148059 0.050605312
0.998387098 0.199568242 0.050229318
1.000000000 0.200195104 0.050016612
0.000000000 0.318679661 0.157896236
0.001612904 0.319646597 0.161424056
0.003225807 0.318250686 0.162001967
0.004838713 0.314632624 0.156205952
0.006451614 0.307877690 0.147490472
0.016208030 0.295546114 0.134462148
0.073389493 0.274407089 0.112583466
0.142404586 0.264870346 0.102243654
0.199800327 0.258467555 0.095004290
0.251801372 0.253686011 0.089360341
0.300163686 0.249710262 0.084499486
0.345970184 0.246413723 0.080313355
0.389978558 0.243696481 0.076702461
0.432336986 0.241374895 0.073491804
0.473464906 0.239519969 0.070749678
0.513330698 0.237827599 0.068178736
0.552303970 0.236383304 0.065848619
0.590420663 0.235184520 0.063771933
0.627855241 0.234243765 0.061971631
0.664692342 0.233473301 0.060334522
0.700893402 0.232855737 0.058862478
0.736460328 0.232325599 0.057483040
0.771498680 0.231939405 0.056245226
0.806088865 0.231706277 0.055172037
0.840298116 0.231660068 0.054284047
0.874116123 0.231719896 0.053502645
0.907578945 0.231785879 0.052747909
0.940541625 0.231957301 0.052094214
0.973302543 0.232177600 0.051503122
0.995559335 0.232677296 0.051189356
0.998387098 0.233172327 0.050881185
1.000000000 0.233714774 0.050620295
0.000000000 0.355279833 0.146483600
0.001612904 0.355122864 0.152666539
0.003225807 0.352791727 0.156393781
0.004838713 0.348494381 0.154309422
0.006451614 0.341404289 0.146962762
0.016196340 0.329084128 0.134139761
0.073308118 0.307927966 0.112353131
0.142462909 0.298524439 0.102242254
0.199840292 0.292103738 0.095054515
0.251669258 0.287164629 0.089314014
0.300011039 0.283188343 0.084496215
0.345887333 0.279971212 0.080430269
0.389827549 0.277198464 0.076797836
0.432282209 0.275001019 0.073723756
0.473258436 0.273005277 0.070864737
0.513100505 0.271325201 0.068317153
0.552132905 0.269956261 0.066086620
0.590231597 0.268754184 0.064017884
0.627643049 0.267814457 0.062229730
0.664463401 0.267048419 0.060611308
0.700577140 0.266368806 0.059077550
0.736133099 0.265847892 0.057723340
0.771224737 0.265531868 0.056568332
0.805801928 0.265309930 0.055519972
0.839989901 0.265274048 0.054650202
0.873723507 0.265275657 0.053830013
0.907131970 0.265321493 0.053062193
0.940095067 0.265518308 0.052448671
0.972888052 0.265799731 0.051922098
0.995534956 0.266379178 0.051711224
0.998387098 0.266801953 0.051317465
1.000000000 0.267282784 0.050999992
0.000000000 0.388705909 0.143357471
0.001612904 0.388291508 0.149918735
0.003225807 0.386033028 0.154056877
0.004838713 0.382020026 0.153395310
0.006451614 0.375046819 0.146425992
0.016161263 0.362699181 0.133688569
0.073176324 0.341639817 0.112098686
0.142156154 0.332087576 0.101902276
0.199514195 0.325655133 0.094775483
0.251405418 0.320787311 0.089151770
0.299748927 0.316829562 0.084402643
0.345520556 0.313534439 0.080300756
0.389575154 0.310909659 0.076838061
0.431872427 0.308557689 0.073656358
0.472832620 0.306575418 0.070817970
0.512741804 0.304980248 0.068373285
0.551716268 0.303580970 0.066121265
0.589901984 0.302486718 0.064191401
0.627220988 0.301478684 0.062338680
0.663940609 0.300633848 0.060666040
0.700034320 0.299958467 0.059153777
0.735646605 0.299530208 0.057892166
0.770740211 0.299235463 0.056779683
0.805321813 0.299040407 0.055772461
0.839394569 0.298916936 0.054828830
0.873068035 0.298890799 0.053988062
0.906476796 0.298952103 0.053253453
0.939502776 0.299235195 0.052740898
0.972321928 0.299573630 0.052276559
0.995505095 0.300024956 0.051936626
0.998387098 0.300436854 0.051552679
1.000000000 0.300922275 0.051245954
0.000000000 0.421830624 0.140589356
0.001612904 0.421396315 0.147245795
0.003225807 0.419247270 0.151646331
0.004838713 0.415426254 0.152080163
0.006451614 0.408730626 0.145952821
0.016107485 0.396420747 0.133355916
0.072904192 0.375211388 0.111693367
0.141859382 0.365637481 0.101562046
0.199247211 0.359264284 0.094541967
0.251093239 0.354366541 0.088955820
0.299524277 0.350519598 0.084360600
0.345306009 0.347254932 0.080316640
0.389185131 0.344472319 0.076750614
0.431452662 0.342133701 0.073591881
0.472481757 0.340234607 0.070888117
0.512315512 0.338581920 0.068414479
0.551354170 0.337270409 0.066270925
0.589394271 0.336066723 0.064242862
0.626699984 0.335065126 0.062421020
0.663482428 0.334310293 0.060845610
0.699560583 0.333646029 0.059369825
0.735133231 0.333197892 0.058104463
0.770188332 0.332895666 0.056995280
0.804685771 0.332647473 0.055944551
0.838745594 0.332524031 0.055018675
0.872490048 0.332600147 0.054291978
0.905879438 0.332673997 0.053569999
0.938885689 0.332952589 0.053073861
0.971596897 0.333218336 0.052553855
0.995462060 0.333661109 0.052206904
0.998387098 0.334094077 0.051859889
1.000000000 0.334660500 0.051663060
0.000000000 0.454939097 0.137722179
0.001612904 0.454530656 0.144496679
0.003225807 0.452557117 0.149125695
0.004838713 0.448844880 0.150332406
0.006451614 0.442368686 0.145282030
0.016039683 0.430023015 0.132758617
0.072543122 0.408836186 0.111197099
0.141535386 0.399318427 0.101191178
0.198881105 0.392912447 0.094210014
0.250775874 0.388092041 0.088749170
0.299092442 0.384139806 0.084107615
0.344825238 0.380848348 0.080092184
0.388743758 0.378136247 0.076625302
0.431036443 0.375839859 0.073549308
0.471952468 0.373860478 0.070788965
0.511861503 0.372323602 0.068458870
0.550759256 0.370880961 0.066226512
0.588784695 0.369684160 0.064226940
0.626138210 0.368773818 0.062508434
0.662880957 0.367992014 0.060930733
0.699021757 0.367419243 0.059555944
0.734506011 0.366913944 0.058255039
0.769461215 0.366538316 0.057081763
0.803934574 0.366297334 0.056053504
0.838063955 0.366281033 0.055244062
0.871793151 0.366356939 0.054538868
0.905179679 0.366465300 0.053866446
0.938057065 0.366647154 0.053286634
0.970719099 0.366894096 0.052763369
0.995409608 0.367344350 0.052455183
0.998387098 0.367885619 0.052231189
1.000000000 0.368510216 0.052104503
0.000000000 0.488130659 0.134740517
0.001612904 0.487818152 0.141677603
0.003225807 0.485979140 0.146459699
0.004838713 0.482247055 0.148232728
0.006451614 0.475997686 0.144338280
0.015950840 0.463701189 0.132004127
0.072050244 0.442553997 0.110567652
0.141068578 0.433080971 0.100672603
0.198440731 0.426718116 0.093799286
0.250204772 0.421789497 0.088286668
0.298480630 0.417805910 0.083683945
0.344238013 0.414565980 0.079764888
0.388123274 0.411839634 0.076334432
0.430431336 0.409600973 0.073357128
0.471370757 0.407668442 0.070668839
0.511128247 0.405991495 0.068240918
0.549995303 0.404568642 0.066032849
0.588098526 0.403476506 0.064168990
0.625385761 0.402509391 0.062426612
0.662123859 0.401769400 0.060902674
0.698166013 0.401120037 0.059472695
0.733626008 0.400616854 0.058192402
0.768633246 0.400323868 0.057124350
0.803110898 0.400124282 0.056142323
0.837191761 0.400087744 0.055342726
0.870848477 0.400130630 0.054622121
0.904162169 0.400197625 0.053926300
0.937002242 0.400386363 0.053377338
0.969738603 0.400739491 0.052989215
0.995350718 0.401210278 0.052717082
0.998387098 0.401767135 0.052538414
1.000000000 0.402280807 0.052331749
0.000000000 0.521455824 0.131784245
0.001612904 0.521159708 0.138808519
0.003225807 0.519288838 0.143529758
0.004838713 0.515598655 0.145838484
0.006451614 0.509620726 0.143099770
0.015890041 0.497488678 0.131237775
0.071529336 0.476348490 0.109890483
0.140489489 0.466849387 0.100046493
0.197771162 0.460418344 0.093167149
0.249545589 0.455502450 0.087733023
0.297855616 0.451598883 0.083246708
0.343579769 0.448337883 0.079371594
0.387457639 0.445633143 0.075997330
0.429713488 0.443344504 0.073023252
0.470567703 0.441372424 0.070333555
0.510351419 0.439766258 0.067987539
0.549264252 0.438399941 0.065886974
0.587247491 0.437219083 0.063957132
0.624586105 0.436344683 0.062326089
0.661213040 0.435514331 0.060746949
0.697207749 0.434861094 0.059328202
0.732710123 0.434430927 0.058150750
0.767701089 0.434152752 0.057116423
0.802187264 0.433989614 0.056207363
0.836168408 0.433898956 0.055372667
0.869746983 0.433891475 0.054633830
0.903020084 0.433966935 0.053977288
0.935920835 0.434263229 0.053555012
0.968624771 0.434636921 0.053217873
0.995286167 0.435137510 0.053007465
0.998387098 0.435576111 0.052747931
1.000000000 0.436089158 0.052571665
0.000000000 0.554739594 0.128844276
0.001612904 0.554349244 0.135845989
0.003225807 0.552581787 0.140600771
0.004838713 0.548945069 0.143388778
0.006451614 0.543160498 0.141514078
0.015798859 0.531280935 0.130508572
0.071037315 0.510098934 0.109216228
0.139884353 0.500529647 0.099371575
0.197153598 0.494109839 0.092572339
0.248946518 0.489250422 0.087249026
0.297243774 0.485349983 0.082823060
0.342998594 0.482152730 0.079050347
0.386785895 0.479378849 0.075660601
0.428954661 0.477039307 0.072674923
0.469837368 0.475113064 0.070070714
0.509617388 0.473527670 0.067790642
0.548490405 0.472167015 0.065720528
0.586504579 0.471040547 0.063884214
0.623707950 0.470055550 0.062179249
0.660304070 0.469239324 0.060638446
0.696395040 0.468707800 0.059385262
0.731812239 0.468236417 0.058187209
0.766757846 0.467943460 0.057178114
0.801162004 0.467748106 0.056263458
0.835096657 0.467643410 0.055459183
0.868702352 0.467713654 0.054822735
0.902001858 0.467848927 0.054267220
0.934828699 0.468131870 0.053861793
0.967419863 0.468438685 0.053495180
0.995213270 0.468923360 0.053312350
0.998387098 0.469368458 0.053098179
1.000000000 0.469986379 0.053065468
0.000000000 0.587933660 0.125768483
0.001612904 0.587553024 0.132837832
0.003225807 0.585890651 0.137634605
0.004838713 0.582388222 0.140901029
0.006451614 0.576675892 0.139640152
0.015705343 0.564960003 0.129571587
0.070431903 0.543794692 0.108407848
0.139284924 0.534288168 0.098698184
0.196590677 0.527937174 0.092025265
0.248310506 0.523031235 0.086708955
0.296596229 0.519145370 0.082355447
0.342238992 0.515863538 0.078553274
0.386014074 0.513100684 0.075223826
0.428260505 0.510858357 0.072387286
0.469096303 0.508918822 0.069818228
0.508815885 0.507303476 0.067554958
0.547669351 0.505955458 0.065536723
0.585581422 0.504767001 0.063677043
0.622800052 0.503828526 0.062065169
0.659461141 0.503108680 0.060652014
0.695418060 0.502485812 0.059349716
0.730865777 0.502072871 0.058257360
0.765704095 0.501724780 0.057229560
0.800054193 0.501507282 0.056332678
0.834001482 0.501470029 0.055638280
0.867605627 0.501581907 0.055089295
0.900862157 0.501727283 0.054582383
0.933586478 0.501970172 0.054175552
0.966092527 0.502243876 0.053825792
0.995132804 0.502729893 0.053700477
0.998387098 0.503278077 0.053628910
1.000000000 0.503940105 0.053693909
0.000000000 0.621143460 0.122668780
0.001612904 0.620891333 0.129927546
0.003225807 0.619296968 0.134778097
0.004838713 0.615824699 0.138266012
0.006451614 0.610077083 0.137490705
0.015607141 0.598626018 0.128518388
0.069852911 0.577555060 0.107591636
0.138684243 0.568094015 0.098005109
0.195976362 0.561766505 0.091426730
0.247656390 0.556841433 0.086150616
0.295830220 0.552870512 0.081767187
0.341453880 0.549593747 0.078026719
0.385285258 0.546912849 0.074837580
0.427465349 0.544637799 0.072017409
0.468339533 0.542757094 0.069566622
0.507989228 0.541103065 0.067312278
0.546754062 0.539688528 0.065288909
0.584667981 0.538538635 0.063516185
0.621902406 0.537671626 0.062017918
0.658481359 0.536892831 0.060613673
0.694451392 0.536323011 0.059396949
0.729772747 0.535836577 0.058277026
0.764569104 0.535490632 0.057297837
0.799013138 0.535420358 0.056602966
0.832886040 0.535350263 0.055922136
0.866390586 0.535421371 0.055386674
0.899567664 0.535536826 0.054913476
0.932226419 0.535776556 0.054549627
0.964720190 0.536116302 0.054312114
0.995046794 0.536695957 0.054341111
0.998387098 0.537233174 0.054313950
1.000000000 0.537819266 0.054364450
0.000000000 0.654510915 0.119574256
0.001612904 0.654260695 0.126880318
0.003225807 0.652708411 0.131827429
0.004838713 0.649201632 0.135334641
0.006451614 0.643500686 0.135066554
0.015527649 0.632288694 0.127059817
0.069233872 0.611404181 0.106695175
0.138000622 0.601955712 0.097204089
0.195153132 0.595535815 0.090599500
0.246797651 0.590610385 0.085400559
0.295021594 0.586710036 0.081153668
0.340691030 0.583496511 0.077543214
0.384411603 0.580731750 0.074329764
0.426605612 0.578495681 0.071610108
0.467360973 0.576532841 0.069132723
0.506979465 0.574878395 0.066940039
0.545833468 0.573583901 0.065099522
0.583713233 0.572432637 0.063380562
0.620845079 0.571485698 0.061863638
0.657391548 0.570753455 0.060554754
0.693268478 0.570108652 0.059337083
0.728575587 0.569646180 0.058300402
0.763450325 0.569437861 0.057514336
0.797743142 0.569265187 0.056774549
0.831609905 0.569248319 0.056205481
0.865006804 0.569269896 0.055688314
0.898103535 0.569381416 0.055258069
0.930752039 0.569660783 0.055011664
0.963262200 0.570096850 0.054926097
0.994587541 0.570654511 0.054992948
0.998387098 0.571154833 0.054999467
1.000000000 0.571714878 0.055085529
0.000000000 0.687868834 0.116454706
0.001612904 0.687535584 0.123728834
0.003225807 0.685998261 0.128783196
0.004838713 0.682601154 0.132388219
0.006451614 0.677019894 0.132642537
0.015434120 0.665908813 0.125287816
0.068646438 0.645237744 0.105764851
0.137227461 0.635706961 0.096304663
0.194333673 0.629298627 0.089785881
0.246009275 0.624431729 0.084717385
0.294213653 0.620542169 0.080558866
0.339877009 0.617352128 0.077038236
0.383573890 0.614587426 0.073897719
0.425650775 0.612255633 0.071153738
0.466380656 0.610295057 0.068750188
0.506087661 0.608759642 0.066741310
0.544823110 0.607385278 0.064882517
0.582730412 0.606293797 0.063306697
0.619800329 0.605330825 0.061831839
0.656262457 0.604530454 0.060526256
0.692072630 0.603910029 0.059391368
0.727471650 0.603574872 0.058559474
