Desert Affinity Presets/Desert Affinity Preset #5.cube
TITLE "32x32x32 Adobe/IRIDAS cube 3D LUT exported with GrossGrade v0.1.027.1 (beta) 64 bit"
LUT_3D_SIZE 8
DOMAIN_MIN 0.000000 0.000000 0.000000
DOMAIN_MAX 0.903226 0.903226 0.903226
0.112329900 0.023686539 0.000000000
0.168501601 0.022605026 0.000000000
0.248859659 0.013658586 0.000000000
0.374716341 0.000000000 0.000000000
0.515908003 0.000000000 0.000000000
0.653216422 0.000000000 0.000000000
0.770852983 0.000000000 0.000000000
0.876660407 0.000000000 0.000000000
0.116188981 0.069626391 0.000000000
0.161587775 0.070027635 0.000000000
0.240417734 0.062875487 0.000000000
0.369799942 0.044322826 0.000000000
0.517902553 0.024956094 0.000000000
0.666370273 0.011879224 0.000000000
0.798756242 0.009824049 0.000000000
0.918661118 0.013634641 0.000000000
0.094678648 0.132327095 0.000000000
0.147838578 0.141174704 0.000000000
0.232548863 0.148117870 0.000000000
0.372584850 0.145710334 0.000000000
0.532835007 0.139916644 0.000000000
0.690589905 0.136335701 0.000000000
0.828708053 0.139803886 0.000000000
0.953506768 0.148543715 0.000000000
0.068291433 0.253463268 0.000000000
0.132987395 0.273800224 0.000000000
0.224427834 0.288875073 0.000000000
0.365301371 0.292778105 0.000000000
0.526295960 0.292942643 0.000000000
0.686361849 0.294321090 0.000000000
0.827479005 0.301806688 0.000000000
0.955135286 0.313729286 0.000000000
0.052091844 0.407444596 0.000000000
0.121233799 0.432216853 0.000000000
0.216600642 0.451263905 0.000000000
0.359401494 0.458830833 0.000000000
0.519763768 0.462372959 0.000000000
0.678453028 0.466692239 0.000000000
0.818209648 0.475830257 0.000000000
0.944590271 0.488140434 0.000000000
0.051366139 0.573458076 0.000000000
0.122840397 0.600557745 0.000000000
0.219629034 0.620966375 0.000000000
0.362525523 0.629023135 0.000000000
0.520873427 0.632300735 0.000000000
0.675448239 0.635641873 0.000000000
0.810247719 0.643348634 0.000000000
0.931253791 0.653204918 0.000000000
0.072673045 0.736538529 0.000000000
0.143227860 0.762714148 0.000000000
0.238298386 0.781387746 0.000000000
0.378427684 0.786680520 0.000000000
0.532728910 0.786556661 0.000000000
0.681877375 0.786134958 0.000000000
0.810199857 0.789941072 0.000000000
0.924565792 0.796085417 0.000000000
0.099669494 0.888343632 0.000000000
0.166506469 0.910809040 0.000000000
0.257372677 0.925257385 0.000000000
0.393008918 0.925984561 0.000000000
0.542769551 0.921531081 0.000000000
0.687461853 0.917426109 0.000000000
0.811334729 0.918329298 0.000000000
0.921381116 0.922320247 0.000000000
0.111805804 0.023162398 0.006451614
0.158333749 0.024526427 0.006451614
0.245573834 0.012274398 0.006451614
0.373583406 0.000000000 0.006451614
0.515284002 0.000000000 0.006451614
0.653218985 0.000000000 0.006451614
0.771854579 0.000000000 0.006451614
0.879209936 0.000000000 0.006451614
0.115471728 0.068535045 0.006451614
0.160550654 0.068989076 0.006451614
0.242190287 0.061322015 0.006451614
0.372529805 0.043774802 0.006451614
0.522189200 0.026146619 0.006451614
0.672250688 0.014802746 0.006451614
0.805447340 0.013525218 0.006451614
0.925815105 0.018024622 0.006451614
0.096354768 0.133495346 0.006451614
0.151350856 0.143987074 0.006451614
0.237228215 0.152786925 0.006451614
0.379489154 0.150512487 0.006451614
0.541040838 0.144727707 0.006451614
0.699284554 0.141375557 0.006451614
0.837793052 0.145272046 0.006451614
0.962946057 0.154455617 0.006451614
0.074460268 0.259091109 0.006451614
0.139577717 0.279759735 0.006451614
0.231438115 0.295233101 0.006451614
0.372179240 0.299656153 0.006451614
0.534186959 0.299807131 0.006451614
0.695767283 0.301218003 0.006451614
0.837672830 0.308719844 0.006451614
0.965619802 0.320630312 0.006451614
0.059818715 0.414605767 0.006451614
0.129166543 0.439520419 0.006451614
0.224967778 0.458883286 0.006451614
0.367661983 0.466652781 0.006451614
0.527663410 0.470270813 0.006451614
0.686764538 0.474434137 0.006451614
0.827382803 0.483292937 0.006451614
0.954235852 0.495117426 0.006451614
0.059911329 0.581430376 0.006451614
0.131385028 0.608480453 0.006451614
0.228302836 0.628949165 0.006451614
0.370965064 0.636738896 0.006451614
0.528634965 0.639770389 0.006451614
0.682714641 0.642903209 0.006451614
0.817439735 0.650188625 0.006451614
0.938617527 0.659374654 0.006451614
0.081048951 0.744346321 0.006451614
0.151314989 0.770192623 0.006451614
0.246098638 0.788516641 0.006451614
0.385803729 0.793288946 0.006451614
0.539460719 0.792697608 0.006451614
0.687909901 0.791956782 0.006451614
0.815593839 0.795340180 0.006451614
0.929713011 0.800975859 0.006451614
0.106734984 0.894841313 0.006451614
0.173247591 0.916923821 0.006662976
0.263709396 0.930938125 0.007861941
0.398944914 0.931216598 0.007585112
0.548231065 0.926246762 0.006627438
0.692514896 0.922001779 0.006451614
0.815868437 0.922703564 0.006451614
0.925629556 0.926579654 0.006451614
0.108453162 0.019809619 0.069655828
0.154030070 0.020880884 0.070685461
0.224804297 0.013755860 0.064889908
0.356882632 0.000000000 0.053993948
0.506659448 0.000000000 0.033411883
0.648134291 0.000000000 0.018937325
0.768902361 0.000000000 0.015491934
0.878406584 0.000000000 0.013961904
0.111628003 0.064629920 0.072888859
0.157005578 0.065456226 0.073686160
0.229742721 0.060939547 0.069824159
0.368370384 0.041522760 0.061500140
0.522052288 0.024937395 0.046246044
0.674324214 0.015363883 0.036698297
0.808444560 0.014812107 0.036112361
0.929430604 0.019790329 0.041061141
0.095438659 0.132324800 0.056837060
0.152137443 0.144398585 0.068910874
0.239078581 0.154637262 0.079149276
0.384214729 0.151899233 0.076411895
0.546022594 0.146423474 0.070935689
0.704574764 0.143577516 0.068084128
0.843430698 0.147953063 0.072465710
0.968836486 0.157499731 0.082012169
0.077475414 0.261732936 0.039019067
0.143279761 0.282955021 0.060183294
0.235772163 0.298877090 0.075855449
0.376273870 0.303741753 0.077318594
0.540119052 0.303639024 0.071743265
0.702762187 0.304826856 0.071223713
0.845044315 0.312442333 0.078216903
0.972980261 0.324374259 0.089852914
0.064402804 0.418746650 0.026051633
0.134357542 0.444166750 0.051324800
0.230439857 0.463714123 0.070514798
0.373172015 0.471502721 0.076917432
0.532622516 0.475231767 0.075219944
0.692494988 0.479135871 0.072382465
0.834060788 0.487466395 0.076492809
0.961031437 0.498643428 0.085473478
0.065402552 0.586444676 0.027135087
0.137056008 0.613590777 0.054065034
0.233928382 0.633945584 0.074004628
0.376314461 0.641352177 0.080435134
0.533408225 0.644106030 0.080100432
0.686824739 0.647018373 0.076860808
0.821579874 0.653764963 0.076549850
0.943088293 0.662120521 0.079267144
0.086176813 0.748968363 0.047967330
0.156390578 0.774694681 0.073428527
0.250796914 0.792594612 0.090878636
0.389965802 0.796764433 0.094201446
0.543079197 0.795593679 0.091095470
0.690778852 0.794538021 0.085660800
0.817841053 0.797593236 0.082244903
0.931839347 0.802762151 0.080255248
0.110695221 0.898281217 0.072531201
0.176827788 0.919934869 0.093880139
0.266843826 0.933457434 0.106914900
0.401635528 0.933243990 0.105937488
0.550748289 0.928008258 0.099272266
0.694604456 0.923500597 0.091683418
0.817376435 0.924009919 0.087081417
0.926722765 0.927663028 0.084090985
0.100169592 0.011526261 0.228348672
0.145237148 0.012082242 0.228875265
0.214958802 0.005228873 0.222007304
0.332267314 0.000000000 0.204181686
0.477994114 0.000000000 0.190130383
0.627824187 0.000000000 0.177026331
0.755437672 0.000000000 0.166944310
0.869857728 0.000000000 0.163071334
0.102937192 0.055926725 0.231176406
0.148835808 0.057275739 0.232493937
0.222010076 0.053865459 0.229054749
0.345679045 0.041076660 0.217590213
0.504934311 0.023769271 0.214466438
0.666701615 0.012987466 0.211768314
0.804497659 0.011991911 0.212886944
0.927073598 0.017102946 0.218502790
0.090288989 0.127080947 0.218628660
0.148660943 0.140849069 0.232390150
0.236541882 0.152111158 0.243612349
0.372651547 0.152415872 0.244570166
0.542047381 0.144362316 0.247600123
0.703516781 0.141448826 0.246022731
0.843157470 0.146174833 0.250780433
0.969040096 0.155980527 0.260551363
0.075774223 0.259810537 0.204253659
0.142151073 0.281562001 0.226005509
0.235200807 0.297920436 0.242372662
0.375517309 0.302984923 0.247437164
0.541921854 0.302108943 0.246554896
0.704765677 0.303542674 0.247989893
0.847001672 0.311307520 0.255748719
0.974721432 0.323162556 0.267615348
0.064283527 0.418315798 0.192913979
0.134670511 0.444094956 0.218673244
0.231064752 0.463836193 0.238362178
0.373827785 0.471471101 0.245742157
0.532719016 0.475328356 0.246187687
0.694142818 0.478672832 0.244072288
0.836334229 0.486348212 0.250035226
0.963049114 0.497002810 0.260072947
0.065996841 0.586650968 0.194750413
0.137780070 0.613865316 0.221893653
0.234587669 0.634067953 0.241957441
0.376741081 0.641132474 0.248661309
0.533481300 0.643526316 0.249654591
0.686025560 0.646219194 0.246938542
0.821009696 0.652159452 0.246132001
0.943121195 0.659652650 0.249404550
0.086469054 0.748830795 0.215337187
0.156411693 0.774237096 0.240611956
0.250464827 0.791703761 0.257868975
0.389105290 0.795272291 0.261021912
0.541865349 0.793643475 0.258421183
0.688755870 0.792077363 0.253754765
0.814975917 0.794717014 0.250246227
0.929191589 0.799544394 0.248020038
0.109743595 0.896866679 0.238689169
0.175425991 0.918028593 0.259681016
0.264914691 0.930960417 0.272353232
0.399329185 0.930309534 0.271249056
0.548271835 0.924846351 0.264939994
0.691868007 0.920038462 0.258193523
0.814040005 0.920381784 0.254161537
0.923091531 0.924030542 0.251339406
0.089934558 0.001291086 0.409356058
0.134692237 0.001541259 0.409564674
0.204315379 0.000000000 0.402601272
0.320357323 0.000000000 0.383498400
0.454620361 0.000000000 0.363206357
0.596420765 0.000000000 0.352513015
0.729107380 0.000000000 0.351670593
0.851342857 0.000000000 0.355055660
0.092535891 0.045508716 0.412002832
0.139035970 0.047481101 0.413935632
0.213318169 0.045173898 0.411600560
0.337714612 0.034441669 0.400857359
0.483874142 0.024063397 0.392460138
0.642210007 0.014947716 0.396903902
0.788194597 0.011324621 0.406881064
0.916954756 0.014730269 0.416554183
0.083777003 0.120525233 0.403328747
0.144044608 0.136227086 0.418998301
0.232528180 0.148101136 0.430831939
0.368561625 0.148993045 0.431700796
0.522214234 0.146777615 0.430803418
0.688174188 0.142050683 0.440267503
0.836019874 0.144281611 0.450575233
0.965201914 0.153280422 0.461684108
0.072526649 0.256452322 0.392197073
0.139369413 0.278687537 0.414417535
0.232768208 0.295420706 0.431136161
0.373241216 0.300717562 0.436395139
0.530632973 0.302896202 0.439226449
0.700928152 0.301622510 0.449047327
0.845486701 0.308723390 0.457482994
0.973508298 0.320438504 0.469228059
0.062483229 0.416312218 0.382296324
0.133184835 0.442395538 0.408372730
0.229777277 0.462300509 0.428284883
0.372602314 0.469870538 0.435854316
0.531061769 0.473664135 0.439648181
0.694630563 0.475831270 0.441815853
0.836452007 0.483183563 0.449164450
0.962679744 0.493549556 0.459528595
0.064868502 0.585254192 0.384832472
0.136650175 0.612425029 0.411988974
0.233215854 0.632313430 0.431859791
0.375237733 0.639127672 0.438617378
0.531806529 0.641159773 0.440395325
0.683319211 0.643513024 0.439343750
0.819329679 0.648375332 0.438739717
0.941846013 0.654987633 0.443639010
0.084850669 0.746880591 0.404947132
0.154468834 0.771900833 0.429939985
0.248038352 0.788831055 0.446799338
0.386423558 0.792053819 0.449876666
0.538776875 0.789909959 0.447370470
0.685076118 0.787734151 0.443803489
0.810316086 0.790064633 0.440712571
0.925041974 0.794359028 0.438264012
0.106746189 0.893492401 0.426976889
0.172034562 0.914206564 0.447610795
0.261076421 0.926632106 0.459915668
0.395291150 0.925718904 0.458786547
0.543986738 0.919931948 0.452579945
0.687322676 0.914751649 0.446431369
0.809028089 0.914943993 0.443515927
0.917674005 0.918612957 0.441041112
0.079643287 0.000000000 0.587885618
0.124260508 0.000000000 0.587953329
0.193911836 0.000000000 0.581003845
0.310158342 0.000000000 0.562102616
0.443062425 0.000000000 0.540459871
0.576222181 0.000000000 0.524951220
0.700844228 0.000000000 0.524797916
0.824334621 0.000000000 0.535583973
0.082589246 0.035556905 0.590869486
0.129722327 0.038165722 0.593444467
0.205029666 0.036890566 0.592136085
0.331227481 0.027947426 0.583177030
0.477955401 0.020136353 0.575354695
0.625027955 0.015884817 0.573758841
0.762464404 0.015217524 0.585626781
0.895311832 0.017239489 0.603562057
0.077985600 0.114713527 0.586341739
0.139768526 0.131940544 0.603536308
0.228780940 0.144345179 0.615902066
0.365296692 0.145724833 0.617255151
0.518593252 0.144475460 0.615996361
0.670078933 0.145309746 0.618807912
0.813767791 0.148470536 0.635529816
0.951040268 0.154758126 0.655415475
0.069567129 0.253434509 0.578028500
0.136894792 0.276180387 0.600749195
0.230661854 0.293299705 0.617841303
0.371464610 0.298941553 0.623444855
0.528672218 0.301601291 0.626079321
0.682896554 0.305834144 0.631628990
0.831417143 0.310602427 0.650593102
0.967470944 0.319651514 0.667709947
0.060956005 0.414672315 0.569546580
0.131875142 0.440980643 0.595853031
0.228505984 0.460931242 0.615789056
0.371501654 0.468696862 0.623539984
0.529883325 0.472492158 0.627304256
0.683709383 0.476989269 0.632452607
0.832277358 0.480916083 0.647468567
0.960685015 0.490479469 0.658368528
0.063858002 0.584052801 0.572597384
0.135583758 0.611162603 0.599699259
0.231822938 0.630704701 0.619248927
0.373754948 0.637381256 0.625930309
0.530033290 0.639001369 0.627545893
0.680513442 0.640702069 0.629251659
0.818322539 0.644043207 0.632578850
0.940321565 0.650176167 0.638715506
0.083282702 0.745058656 0.592172623
0.152456552 0.769614577 0.616718769
0.245560423 0.786037624 0.633129597
0.383608043 0.788860679 0.635927439
0.535592556 0.786220908 0.633229733
0.681555510 0.783533394 0.630295157
0.805761576 0.785515130 0.628862202
0.921834767 0.789048374 0.626941621
0.103725098 0.890162408 0.612751007
0.168422371 0.910267293 0.632824302
0.257235736 0.922408998 0.644937277
0.391263425 0.921233654 0.643689156
0.539761007 0.915163815 0.637472570
0.682835221 0.909617782 0.631563604
0.804373622 0.909624994 0.630185485
0.912402570 0.913341641 0.628478289
0.071061589 0.000000000 0.743912458
0.115524054 0.000000000 0.743832350
0.185289428 0.000000000 0.736990213
0.301927567 0.000000000 0.718470871
0.435510874 0.000000000 0.697511554
0.567369103 0.000000000 0.680712461
0.685547650 0.000000000 0.677143753
0.802007735 0.000000000 0.687929511
0.074594423 0.027567210 0.747488558
0.122665785 0.031113651 0.750996232
0.199278757 0.031132348 0.750992060
0.327093124 0.023811352 0.743641913
0.475405544 0.017584592 0.737404346
0.621128261 0.014651237 0.734459937
0.749390423 0.017860483 0.740986645
0.873013675 0.023526080 0.758444130
0.074751087 0.111470386 0.747706831
0.137434706 0.129604653 0.765807211
0.226886302 0.142455578 0.778619707
0.363960326 0.144387320 0.780518591
0.517813265 0.143697590 0.779814124
0.668248951 0.145469189 0.781580567
0.800382018 0.153216377 0.791978061
0.929018140 0.162349701 0.813655555
0.068461642 0.252289563 0.741506457
0.136128977 0.275387287 0.764575541
0.230289862 0.292927384 0.782073677
0.371607453 0.299072772 0.788185120
0.529060960 0.301984489 0.791068733
0.682372153 0.306635588 0.795707703
0.816105366 0.316648573 0.807710290
0.947810888 0.326433510 0.831053197
0.061230011 0.414870918 0.734385431
0.132312268 0.441350579 0.760858595
0.228984669 0.461373568 0.780856371
0.372108012 0.469292670 0.788744509
0.530387700 0.472996682 0.792417526
0.683474243 0.477421701 0.796805859
0.815635324 0.486518532 0.807230830
0.947708905 0.493453324 0.828354299
0.064541623 0.584613681 0.737833500
0.136090130 0.611548722 0.764768720
0.232176811 0.630948246 0.784164011
0.373838663 0.637375891 0.790581346
0.529700816 0.638608456 0.791792572
0.679522336 0.639716089 0.792870939
0.807451367 0.645249069 0.799047649
0.936185002 0.647956729 0.812847495
0.083272450 0.744870067 0.756725192
0.151945576 0.768916667 0.780772865
0.244733527 0.785022616 0.796869636
0.382326365 0.787352741 0.799205184
0.533822596 0.784196973 0.796041071
0.679316401 0.780909896 0.792764723
0.802872658 0.782624781 0.794472098
0.920960128 0.784848034 0.796691298
0.102318950 0.888516724 0.775909543
0.166475639 0.908062696 0.795451581
0.254996985 0.919896007 0.807276249
0.388769716 0.918430090 0.805799127
0.537067592 0.912084103 0.799427867
0.680073738 0.906359971 0.793648541
0.801605403 0.906169176 0.793204188
0.908871472 0.909812331 0.793446600
0.063619018 0.000000000 0.884703279
0.107988417 0.000000000 0.884522855
0.177889347 0.000000000 0.877813458
0.295046061 0.000000000 0.859821379
0.429549336 0.000000000 0.839769244
0.562851191 0.000000000 0.824407220
0.679945111 0.000000000 0.819788992
0.791070461 0.000000000 0.827771246
0.067914985 0.020887848 0.889042258
0.117068902 0.025506925 0.893630445
0.195439428 0.027293233 0.895387769
0.325056344 0.021772552 0.889839947
0.474276453 0.016444543 0.884498000
0.620465577 0.013983489 0.882021964
0.746844053 0.018612873 0.886662304
0.863018692 0.027700022 0.899719417
0.073267817 0.109980181 0.894447327
0.136431202 0.128601760 0.913038850
0.226459652 0.142028898 0.926427901
0.363997698 0.144428074 0.928793848
0.518261671 0.144142136 0.928488851
0.669036865 0.146259591 0.930589497
0.799719930 0.155213639 0.939545691
0.919066131 0.168114126 0.955756247
0.068742253 0.252561033 0.890011430
0.136747614 0.276004076 0.913429022
0.231247112 0.293879092 0.931269705
0.372971952 0.300440937 0.937790036
0.530567229 0.303488374 0.940806627
0.684050143 0.308308452 0.945606470
0.816470027 0.318997622 0.956293941
0.936179936 0.332926929 0.972880602
0.062724940 0.416329294 0.884099364
0.133845240 0.442856342 0.910610437
0.230740800 0.463109434 0.930832505
0.373887092 0.471066087 0.938752592
0.531930745 0.474539608 0.942199290
0.684892654 0.478832990 0.946456015
0.815882742 0.488088459 0.955699205
0.932710588 0.499809593 0.969411314
0.066266201 0.586262047 0.887760460
0.137511730 0.612892270 0.914385140
0.233563274 0.632276177 0.933754683
0.374898523 0.638394415 0.939853013
0.530312538 0.639201880 0.940624297
0.679749131 0.639942884 0.941330254
0.806764603 0.645223737 0.946584284
0.918680847 0.652691603 0.955381632
0.084218904 0.745681345 0.905848265
0.152453884 0.769307017 0.929471314
0.244884670 0.785055041 0.945208371
0.382005841 0.786929846 0.947081864
0.532933772 0.783208370 0.943351150
0.678157806 0.779688179 0.939811587
0.801353395 0.781105578 0.941187441
0.909632444 0.785595953 0.946333230
0.101806253 0.887835562 0.923584402
0.165600389 0.907006741 0.942768395
0.253827631 0.918540657 0.954293132
0.387329936 0.916792512 0.952545404
0.535270154 0.910080135 0.945827603
0.678316236 0.904344976 0.940093815
0.799845397 0.904021502 0.939770341
0.906502545 0.907441616 0.943203449
