Desert Affinity Presets/Desert Affinity Preset #9.cube
TITLE "32x32x32 Adobe/IRIDAS cube 3D LUT exported with GrossGrade v0.1.027.1 (beta) 64 bit"
DOMAIN_MIN 0 0 0
DOMAIN_MAX 1 1 1
LUT_3D_SIZE 32
0.301097721 0.000000000 0.000000000
0.306146413 0.000000000 0.000000000
0.312460452 0.000000000 0.000000000
0.319808960 0.000000000 0.000000000
0.328224719 0.000000000 0.000000000
0.337984920 0.000000000 0.000000000
0.349337548 0.000000000 0.000000000
0.362657338 0.000000000 0.000000000
0.378395677 0.000000000 0.000000000
0.396995157 0.000000000 0.000000000
0.418402940 0.000000000 0.000000000
0.442253977 0.000000000 0.000000000
0.468222320 0.000000000 0.000000000
0.496083796 0.000000000 0.000000000
0.525728285 0.000000000 0.000000000
0.556986153 0.000000000 0.000000000
0.589626253 0.000000000 0.000000000
0.623529017 0.000000000 0.000000000
0.658510923 0.000000000 0.000000000
0.694516361 0.000000000 0.000000000
0.731196344 0.000000000 0.000000000
0.768229961 0.000000000 0.000000000
0.805552185 0.000000000 0.000000000
0.843216658 0.000000000 0.000000000
0.881486475 0.000000000 0.000000000
0.920462370 0.000000000 0.000000000
0.960075736 0.000000000 0.000000000
0.990205824 0.000000000 0.000000000
0.995161295 0.000000000 0.000000000
0.996774197 0.000000000 0.000000000
0.998387098 0.000000000 0.000000000
1.000000000 0.000000000 0.000000000
0.292251438 0.002116057 0.000000000
0.304082334 0.002313859 0.000000000
0.305914521 0.002588347 0.000000000
0.311983377 0.007052672 0.000000000
0.320225030 0.010988124 0.000000000
0.329920173 0.014536418 0.000000000
0.341269225 0.017648807 0.000000000
0.354696363 0.020297863 0.000000000
0.370356023 0.022183325 0.000000000
0.388826519 0.023306999 0.000000000
0.410238922 0.023646010 0.000000000
0.434115648 0.023320528 0.000000000
0.460172057 0.022473708 0.000000000
0.488156229 0.021142857 0.000000000
0.517779171 0.019242952 0.000000000
0.549026906 0.016900193 0.000000000
0.581743360 0.014164179 0.000000000
0.615750372 0.011108782 0.000000000
0.650887311 0.007836863 0.000000000
0.686938822 0.004299349 0.000000000
0.723665476 0.002483602 0.000000000
0.760816753 0.002181524 0.000000000
0.798297882 0.002069764 0.000000000
0.836152136 0.001952393 0.000000000
0.874597609 0.001831747 0.000000000
0.913650215 0.001705959 0.000000000
0.953457415 0.001612904 0.000000000
0.989308476 0.001612904 0.000000000
0.995161295 0.001612904 0.000000000
0.996774197 0.001612904 0.000000000
0.998387098 0.001612904 0.000000000
1.000000000 0.001612904 0.000000000
0.281138837 0.020461161 0.000000000
0.290449530 0.024824951 0.000000000
0.305737078 0.026780069 0.000000000
0.309202522 0.031068992 0.000000000
0.311790943 0.036586907 0.000000000
0.319841743 0.040642984 0.000000000
0.330791235 0.043966781 0.000000000
0.343995452 0.046514817 0.000000000
0.359638780 0.048398379 0.000000000
0.378115118 0.049533274 0.000000000
0.399534106 0.049882118 0.000000000
0.423460394 0.049608540 0.000000000
0.449592412 0.048822027 0.000000000
0.477526248 0.047456160 0.000000000
0.507216454 0.045625906 0.000000000
0.538550019 0.043361217 0.000000000
0.571325004 0.040689230 0.000000000
0.605453372 0.037756849 0.000000000
0.640673637 0.034561198 0.000000000
0.676787972 0.031094285 0.000000000
0.713628292 0.027460886 0.000000000
0.750893593 0.023757866 0.000000000
0.788587928 0.020129193 0.000000000
0.826625109 0.016433166 0.000000000
0.865182340 0.012612727 0.000000000
0.904396653 0.008642203 0.000000000
0.944346786 0.005412847 0.000000000
0.985268593 0.004703473 0.000000000
0.994910240 0.004446280 0.000000000
0.996774197 0.004186287 0.000000000
0.998387098 0.003917878 0.000000000
1.000000000 0.003643855 0.000000000
0.264401346 0.048481740 0.000000000
0.273828417 0.052895527 0.000000000
0.286878407 0.056633629 0.000000000
0.302929521 0.057839595 0.000000000
0.309881240 0.060952533 0.000000000
0.311652184 0.066431150 0.000000000
0.318226129 0.070929073 0.000000000
0.329627156 0.074131772 0.000000000
0.344507456 0.076340795 0.000000000
0.362720370 0.077656202 0.000000000
0.384191543 0.078174807 0.000000000
0.408145219 0.077960178 0.000000000
0.434240341 0.077156335 0.000000000
0.462249905 0.075854093 0.000000000
0.492030561 0.074123397 0.000000000
0.523531854 0.072026603 0.000000000
0.556524992 0.069566965 0.000000000
0.590701520 0.066687852 0.000000000
0.625963926 0.063540772 0.000000000
0.662213683 0.060202479 0.000000000
0.699251473 0.056766946 0.000000000
0.736805975 0.053353790 0.000000000
0.774623156 0.049854644 0.000000000
0.812779665 0.046275020 0.000000000
0.851552129 0.042664573 0.000000000
0.891072631 0.039000351 0.000000000
0.931325734 0.035200063 0.000000000
0.972548068 0.031325411 0.000000000
0.993778110 0.027263183 0.000000000
0.996774197 0.023132740 0.000000000
0.998387098 0.018881673 0.000000000
1.000000000 0.014564638 0.000000000
0.241398335 0.077906504 0.000000000
0.251868069 0.082624726 0.000000000
0.262187093 0.087647319 0.000000000
0.279096901 0.089861542 0.000000000
0.295869201 0.090786487 0.000000000
0.305915743 0.093054853 0.000000000
0.309567153 0.097522445 0.000000000
0.315683246 0.102097526 0.000000000
0.327243060 0.105417401 0.000000000
0.343849838 0.107479632 0.000000000
0.364352494 0.108384952 0.000000000
0.387840927 0.108451419 0.000000000
0.413814932 0.107899569 0.000000000
0.441877037 0.106786661 0.000000000
0.471786112 0.105229400 0.000000000
0.503416896 0.103286289 0.000000000
0.536494851 0.100912720 0.000000000
0.570874810 0.098230876 0.000000000
0.606360018 0.095305473 0.000000000
0.642789125 0.092146769 0.000000000
0.680071771 0.088950165 0.000000000
0.717822790 0.085740454 0.000000000
0.755891740 0.082480252 0.000000000
0.794318140 0.079182632 0.000000000
0.833351731 0.075830720 0.000000000
0.873238146 0.072528906 0.000000000
0.913870275 0.069117218 0.000000000
0.955378473 0.065542310 0.000000000
0.992038488 0.061799452 0.000000000
0.996774197 0.057968784 0.000000000
0.998387098 0.054109987 0.000000000
1.000000000 0.050408877 0.000000000
0.227076590 0.102947339 0.000000000
0.238692448 0.108248048 0.000000000
0.248643696 0.113893874 0.000000000
0.263008207 0.117935501 0.000000000
0.281828910 0.119069681 0.000000000
0.299633384 0.119703487 0.000000000
0.312545151 0.121337458 0.000000000
0.319648236 0.124757729 0.000000000
0.327238739 0.128954977 0.000000000
0.339583158 0.132177606 0.000000000
0.357363433 0.134054825 0.000000000
0.379374355 0.134823292 0.000000000
0.404498398 0.134790465 0.000000000
0.432127684 0.134185284 0.000000000
0.461827159 0.133001059 0.000000000
0.493358195 0.131281376 0.000000000
0.526506007 0.129132509 0.000000000
0.561068535 0.126686811 0.000000000
0.596848667 0.124073185 0.000000000
0.633643210 0.121283486 0.000000000
0.671123683 0.118292615 0.000000000
0.709060967 0.115258843 0.000000000
0.747410893 0.112276942 0.000000000
0.786245644 0.109391659 0.000000000
0.825775027 0.106541939 0.000000000
0.865923703 0.103502914 0.000000000
0.906837344 0.100361943 0.000000000
0.948722541 0.097161561 0.000000000
0.991035938 0.093925200 0.000000000
0.996774197 0.090529360 0.000000000
0.998387098 0.087098479 0.000000000
1.000000000 0.083457656 0.000000000
0.214639455 0.126429573 0.000000000
0.227460593 0.132622242 0.000000000
0.238160685 0.138750151 0.000000000
0.250597268 0.144122958 0.000000000
0.268494040 0.146649495 0.000000000
0.288665682 0.147302479 0.000000000
0.308020830 0.147750542 0.000000000
0.323925018 0.148882881 0.000000000
0.335046560 0.151298702 0.000000000
0.345505625 0.154534563 0.000000000
0.359624892 0.157443404 0.000000000
0.378296822 0.159384876 0.000000000
0.401240170 0.160322115 0.000000000
0.427502722 0.160375237 0.000000000
0.456405580 0.159733355 0.000000000
0.487553120 0.158584073 0.000000000
0.520529032 0.156968996 0.000000000
0.555042386 0.154969469 0.000000000
0.590871453 0.152703509 0.000000000
0.627810895 0.150215507 0.000000000
0.665632427 0.147628322 0.000000000
0.703971565 0.145024791 0.000000000
0.742662609 0.142396212 0.000000000
0.781901181 0.139899269 0.000000000
0.821755707 0.137378529 0.000000000
0.862323046 0.134761557 0.000000000
0.903634071 0.132012069 0.000000000
0.945833862 0.129129097 0.000000000
0.989023268 0.126220629 0.000000000
0.996644199 0.123112231 0.000000000
0.998387098 0.119795144 0.000000000
1.000000000 0.116371788 0.000000000
0.202661261 0.149119943 0.000000000
0.216510758 0.156134516 0.000000000
0.228488028 0.162931129 0.000000000
0.240444988 0.169321656 0.000000000
0.256584316 0.173660889 0.000000000
0.277082354 0.175164685 0.000000000
0.298780710 0.175569892 0.000000000
0.320105284 0.175698608 0.000000000
0.339112341 0.176260039 0.000000000
0.354704618 0.177785307 0.000000000
0.368999451 0.180116415 0.000000000
0.385240912 0.182715535 0.000000000
0.404981464 0.184693605 0.000000000
0.428547829 0.185820550 0.000000000
0.455570549 0.186095893 0.000000000
0.485596180 0.185706586 0.000000000
0.518027127 0.184837729 0.000000000
0.552282512 0.183519408 0.000000000
0.587901771 0.181783363 0.000000000
0.624736428 0.179769665 0.000000000
0.662607372 0.177660793 0.000000000
0.701217592 0.175602734 0.000000000
0.740307093 0.173534662 0.000000000
0.779780388 0.171339348 0.000000000
0.819815636 0.169033527 0.000000000
0.860593677 0.166646793 0.000000000
0.902221680 0.164199099 0.000000000
0.944763184 0.161659449 0.000000000
0.988066375 0.158873245 0.000000000
0.996573091 0.155900925 0.000000000
0.998387098 0.152767286 0.000000000
1.000000000 0.149609029 0.000000000
0.190327197 0.171412691 0.000000000
0.205327094 0.179408565 0.000000000
0.218671635 0.187007546 0.000000000
0.231033310 0.194290027 0.000000000
0.246235073 0.200308070 0.000000000
0.265697390 0.203334704 0.000000000
0.288316816 0.204198271 0.000000000
0.311853647 0.204262525 0.000000000
0.335731357 0.204129934 0.000000000
0.358333468 0.204210863 0.000000000
0.378450662 0.205064505 0.000000000
0.396454602 0.206678465 0.000000000
0.414961696 0.208794191 0.000000000
0.436164916 0.210837662 0.000000000
0.460637361 0.212280855 0.000000000
0.488499403 0.212997675 0.000000000
0.519306362 0.213001356 0.000000000
0.552526712 0.212416485 0.000000000
0.587680876 0.211443886 0.000000000
0.624321461 0.210163400 0.000000000
0.662026763 0.208616450 0.000000000
0.700449824 0.206970036 0.000000000
0.739378333 0.205226153 0.000000000
0.778826237 0.203388304 0.000000000
0.818962991 0.201435104 0.000000000
0.859859407 0.199324265 0.000000000
0.901674449 0.197150111 0.000000000
0.944308639 0.194737077 0.000000000
0.987765372 0.192137137 0.000000000
0.996554375 0.189357340 0.000000000
0.998387098 0.186416864 0.000000000
1.000000000 0.183520958 0.000000000
0.177214995 0.193835884 0.000000000
0.193428844 0.202921286 0.000000000
0.208193973 0.211461902 0.000000000
0.221598551 0.219689593 0.000000000
0.236327201 0.226768196 0.000000000
0.254772961 0.231695101 0.000000000
0.277258009 0.233802751 0.000000000
0.302197963 0.234327346 0.000000000
0.328177303 0.234156758 0.000000000
0.355203062 0.233755618 0.000000000
0.381480128 0.233390763 0.000000000
0.405394226 0.233730033 0.000000000
0.427033812 0.234956950 0.000000000
0.448252201 0.236768126 0.000000000
0.471207112 0.238832548 0.000000000
0.496794939 0.240473315 0.000000000
0.525343955 0.241507530 0.000000000
0.556639433 0.241858095 0.000000000
0.590334058 0.241682366 0.000000000
0.625993967 0.241071790 0.000000000
0.663109660 0.240121037 0.000000000
0.701046348 0.238888294 0.000000000
0.739604294 0.237502098 0.000000000
0.778812110 0.236029401 0.000000000
0.818860173 0.234491438 0.000000000
0.859738588 0.232783362 0.000000000
0.901403129 0.230792731 0.000000000
0.943980813 0.228566810 0.000000000
0.987489462 0.226160347 0.000000000
0.996539414 0.223680332 0.000000000
0.998387098 0.221013024 0.000000000
1.000000000 0.218193278 0.000000000
0.163370803 0.216868296 0.000000000
0.180731669 0.227006719 0.000000000
0.196913794 0.236574322 0.000000000
0.211542219 0.245689496 0.000000000
0.226559192 0.253892511 0.000000000
0.244519979 0.260500252 0.000000000
0.266232371 0.264247596 0.000000000
0.291783422 0.265849888 0.000000000
0.319366395 0.266135633 0.000000000
0.348390162 0.265727788 0.000000000
0.378584832 0.264908344 0.000000000
0.408093244 0.264356673 0.000000000
0.435427755 0.264412463 0.000000000
0.460475504 0.265374571 0.000000000
0.484385461 0.266825140 0.000000000
0.509027541 0.268564701 0.000000000
0.535814941 0.270222664 0.000000000
0.564950824 0.271393150 0.000000000
0.596555591 0.272048771 0.000000000
0.630396426 0.272167772 0.000000000
0.666030347 0.271799356 0.000000000
0.703005612 0.271160007 0.000000000
0.741008520 0.270361453 0.000000000
0.779773355 0.269322127 0.000000000
0.819460571 0.268131495 0.000000000
0.860019565 0.266692668 0.000000000
0.901480615 0.265024215 0.000000000
0.943958461 0.263133258 0.000000000
0.987421274 0.261040807 0.000000000
0.996518850 0.258852184 0.000000000
0.998387098 0.256322622 0.000000000
1.000000000 0.253653020 0.000000000
0.149495587 0.240800738 0.000000000
0.167822018 0.251812726 0.000000000
0.185246229 0.262329847 0.000000000
0.201285496 0.272437185 0.000000000
0.217192039 0.281864762 0.000000000
0.235159039 0.289873421 0.000000000
0.256537169 0.295685858 0.000000000
0.281538695 0.298403233 0.000000000
0.309945643 0.299415141 0.000000000
0.340633690 0.299459785 0.000000000
0.372883648 0.298801661 0.000000000
0.405859709 0.297759086 0.000000000
0.438123375 0.297005862 0.000000000
0.468280971 0.296673954 0.000000000
0.496118814 0.297061056 0.000000000
0.522687078 0.298146129 0.000000000
0.549227297 0.299568266 0.000000000
0.577136934 0.301104516 0.000000000
0.606836319 0.302296281 0.000000000
0.638603151 0.303086787 0.000000000
0.672325373 0.303436279 0.000000000
0.707726657 0.303532779 0.000000000
0.744460285 0.303341091 0.000000000
0.782338202 0.302883178 0.000000000
0.821296394 0.302068323 0.000000000
0.861350060 0.300967932 0.000000000
0.902454972 0.299643695 0.000000000
0.944750667 0.298159987 0.000000000
0.988069713 0.296435565 0.000000000
0.996548831 0.294378042 0.000000000
0.998387098 0.292050153 0.000000000
1.000000000 0.289586037 0.000000000
0.135962933 0.265736580 0.000000000
0.155276999 0.277653635 0.000000000
0.173937246 0.289177924 0.000000000
0.191367939 0.300258875 0.000000000
0.208361953 0.310750902 0.000000000
0.226682365 0.320035100 0.000000000
0.247861877 0.327528059 0.000000000
0.272419959 0.331928760 0.000000000
0.300775021 0.333864212 0.000000000
0.332312971 0.334307551 0.000000000
0.366060585 0.333928615 0.000000000
0.400892019 0.332952112 0.000000000
0.436219841 0.331645250 0.000000000
0.470657438 0.330452383 0.000000000
0.503398716 0.329840750 0.000000000
0.533929765 0.329809785 0.000000000
0.562922895 0.330505818 0.000000000
0.591275811 0.331513464 0.000000000
0.620173216 0.332741469 0.000000000
0.650600672 0.334004283 0.000000000
0.682557821 0.334971219 0.000000000
0.716079235 0.335725218 0.000000000
0.751060128 0.336163819 0.000000000
0.787369609 0.336224884 0.000000000
0.825142682 0.335965008 0.000000000
0.864395201 0.335466325 0.000000000
0.904854536 0.334548712 0.000000000
0.946656823 0.333394438 0.000000000
0.989511788 0.331894666 0.000000000
0.996610522 0.330117464 0.000000000
0.998387098 0.328062862 0.000000000
1.000000000 0.325909257 0.000000000
0.123465531 0.292152941 0.000000000
0.143512636 0.304756939 0.000000000
0.163289472 0.317223191 0.000000000
0.182039574 0.329207480 0.000000000
0.200057194 0.340527773 0.000000000
0.218725726 0.350741446 0.000000000
0.239844710 0.359439641 0.000000000
0.264280379 0.365784198 0.000000000
0.292138994 0.368888676 0.000000000
0.323968619 0.370035589 0.000000000
0.358547151 0.369840264 0.000000000
0.394648999 0.368944019 0.000000000
0.431757092 0.367711425 0.000000000
0.469192266 0.366195500 0.000000000
0.505728602 0.364729732 0.000000000
0.540781319 0.363802284 0.000000000
0.573670447 0.363342255 0.000000000
0.604723454 0.363513619 0.000000000
0.634901345 0.364279360 0.000000000
0.665026844 0.365360111 0.000000000
0.696007729 0.366597950 0.000000000
0.728016853 0.367720932 0.000000000
0.761199236 0.368667483 0.000000000
0.795776725 0.369324654 0.000000000
0.832051218 0.369733959 0.000000000
0.869939506 0.369763345 0.000000000
0.909279048 0.369378269 0.000000000
0.950084388 0.368554354 0.000000000
0.991010368 0.367373198 0.000000000
0.996740520 0.365893155 0.000000000
0.998387098 0.364224583 0.000000000
1.000000000 0.362376541 0.000000000
0.112348996 0.320320487 0.000000000
0.132885873 0.333351582 0.000000000
0.153322682 0.346347719 0.000000000
0.172956660 0.358857870 0.000000000
0.191932067 0.370847225 0.000000000
0.211198628 0.381922036 0.000000000
0.232433915 0.391618073 0.000000000
0.256738961 0.399490833 0.000000000
0.284335136 0.404219955 0.000000000
0.315793186 0.406172603 0.000000000
0.350810736 0.406451195 0.000000000
0.387905270 0.405785829 0.000000000
0.426201612 0.404587924 0.000000000
0.465298206 0.403118700 0.000000000
0.504632294 0.401363462 0.000000000
0.543122172 0.399623960 0.000000000
0.580041707 0.398240626 0.000000000
0.615104496 0.397538483 0.000000000
0.648111224 0.397385329 0.000000000
0.679912925 0.397874057 0.000000000
0.711105168 0.398714900 0.000000000
0.742405236 0.399830639 0.000000000
0.774526477 0.401115924 0.000000000
0.807635009 0.402251095 0.000000000
0.842242897 0.403159976 0.000000000
0.878471732 0.403669745 0.000000000
0.916275084 0.403743595 0.000000000
0.955798924 0.403382868 0.000000000
0.991679370 0.402751595 0.000000000
0.996774197 0.401648700 0.000000000
0.998387098 0.400294453 0.000000000
1.000000000 0.398571521 0.000000000
0.102590896 0.350139320 0.000000000
0.123261698 0.363256037 0.000000000
0.143954709 0.376396716 0.000000000
0.164261997 0.389273167 0.000000000
0.184059724 0.401779205 0.000000000
0.204062730 0.413601071 0.000000000
0.225487486 0.424152493 0.000000000
0.249666318 0.433068246 0.000000000
0.277136624 0.439450055 0.000000000
0.308121353 0.442532539 0.000000000
0.343210578 0.443590164 0.000000000
0.380902767 0.443315715 0.000000000
0.420166343 0.442275733 0.000000000
0.460345119 0.440755844 0.000000000
0.501125336 0.438916415 0.000000000
0.542224407 0.436912864 0.000000000
0.582508981 0.434988171 0.000000000
0.621193588 0.433345824 0.000000000
0.658021212 0.432342559 0.000000000
0.692708969 0.431857973 0.000000000
0.725807667 0.432000190 0.000000000
0.757973433 0.432741642 0.000000000
0.789765120 0.433882415 0.000000000
0.822015703 0.435151011 0.000000000
0.855356991 0.436269820 0.000000000
0.889986157 0.437156677 0.000000000
0.926226735 0.437683493 0.000000000
0.964333355 0.437886775 0.000000000
0.992337406 0.437712044 0.000000000
0.996774197 0.437025785 0.000000000
0.998387098 0.435910076 0.000000000
1.000000000 0.434487224 0.000000000
0.094129056 0.381395638 0.000000000
0.114695758 0.394368261 0.000000000
0.135540828 0.407566637 0.000000000
0.156305552 0.420637220 0.000000000
0.176785424 0.433501005 0.000000000
0.197375521 0.445802033 0.000000000
0.219002649 0.456971139 0.000000000
0.243109956 0.466663539 0.000000000
0.270503789 0.474443346 0.000000000
0.301374406 0.479060739 0.000000000
0.336013138 0.480931729 0.000000000
0.373925805 0.481249869 0.000000000
0.413810521 0.480452448 0.000000000
0.454872847 0.478992760 0.000000000
0.496759921 0.477164358 0.000000000
0.539271772 0.475106686 0.000000000
0.581920147 0.472852767 0.000000000
0.623698235 0.470703363 0.000000000
0.663866103 0.468826473 0.000000000
0.702115417 0.467446327 0.000000000
0.738345206 0.466832399 0.000000000
0.772530258 0.466790110 0.000000000
0.805479944 0.467349321 0.000000000
0.837734938 0.468299985 0.000000000
0.870389581 0.469362497 0.000000000
0.904121041 0.470447719 0.000000000
0.939095616 0.471320301 0.000000000
0.975690722 0.471877396 0.000000000
0.993266046 0.472015679 0.000000000
0.996774197 0.471695274 0.000000000
0.998387098 0.470955223 0.000000000
1.000000000 0.469948053 0.000000000
0.086526126 0.413476288 0.000000000
0.107223645 0.426532865 0.000000000
0.128204539 0.439783126 0.000000000
0.149353728 0.453023612 0.000000000
0.170306608 0.466053754 0.000000000
0.191254005 0.478512108 0.000000000
0.213119626 0.490123242 0.000000000
0.237233669 0.500497162 0.000000000
0.264520526 0.509243488 0.000000000
0.295381129 0.515456319 0.000000000
0.329621524 0.518381476 0.000000000
0.367194504 0.519242167 0.000000000
0.407372564 0.518842101 0.000000000
0.449237525 0.517707884 0.000000000
0.492019445 0.515938342 0.000000000
0.535517156 0.513812423 0.000000000
0.579483569 0.511465847 0.000000000
0.623392880 0.508904397 0.000000000
0.666392028 0.506538868 0.000000000
0.707932889 0.504554093 0.000000000
0.747432828 0.502985179 0.000000000
0.784634113 0.502125382 0.000000000
0.819694996 0.501838446 0.000000000
0.853328407 0.502127171 0.000000000
0.886477888 0.502851427 0.000000000
0.919878781 0.503801167 0.000000000
0.954047740 0.504677951 0.000000000
0.985844016 0.505315900 0.000000000
0.994434655 0.505665064 0.000000000
0.996774197 0.505670846 0.000000000
0.998387098 0.505367756 0.000000000
1.000000000 0.504731119 0.000000000
0.079651244 0.446028471 0.000000000
0.100692667 0.459397674 0.000000000
0.121887028 0.472773850 0.000000000
0.143295318 0.486106724 0.000000000
0.164538145 0.499137282 0.000000000
0.185908437 0.511775374 0.000000000
0.208096445 0.523756266 0.000000000
0.232233077 0.534632683 0.000000000
0.259332746 0.544005692 0.000000000
0.289999425 0.551344156 0.000000000
0.324061751 0.555616677 0.000000000
0.361171484 0.557231903 0.000000000
0.401375026 0.557417870 0.000000000
0.443563551 0.556520879 0.000000000
0.487091571 0.554966986 0.000000000
0.531413555 0.552827597 0.000000000
0.576282322 0.550366223 0.000000000
0.621459186 0.547723353 0.000000000
0.666578472 0.545066297 0.000000000
0.710612416 0.542486548 0.000000000
0.753100216 0.540282249 0.000000000
0.793380260 0.538527846 0.000000000
0.831323087 0.537385166 0.000000000
0.867390394 0.537014306 0.000000000
0.902022600 0.537007093 0.000000000
0.936141551 0.537363231 0.000000000
0.970196903 0.537920773 0.000000000
0.990202188 0.538437426 0.000000000
0.995161295 0.538859069 0.000000000
0.996774197 0.539103031 0.000000000
0.998387098 0.538993776 0.000000000
1.000000000 0.538550496 0.000000000
0.073692441 0.479106545 0.000000000
0.094913840 0.492629409 0.000000000
0.116295077 0.506106734 0.000000000
0.137871981 0.519480526 0.000000000
0.159498751 0.532615066 0.000000000
0.181291670 0.545429289 0.000000000
0.203857422 0.557708681 0.000000000
0.228049457 0.568966031 0.000000000
0.254881740 0.578713179 0.000000000
0.285218477 0.586750269 0.000000000
0.319343805 0.592494369 0.000000000
0.356158167 0.595176876 0.000000000
0.395911545 0.595874608 0.000000000
0.438221782 0.595406413 0.000000000
0.482080638 0.593945324 0.000000000
0.527045310 0.591881454 0.000000000
0.572849631 0.589536130 0.000000000
0.618937254 0.586818218 0.000000000
0.665126264 0.583934784 0.000000000
0.711101472 0.581017911 0.000000000
0.755879343 0.578198850 0.000000000
0.798887789 0.575789273 0.000000000
0.839914083 0.574007094 0.000000000
0.878691316 0.572679043 0.000000000
0.915675581 0.571887076 0.000000000
0.951341748 0.571463585 0.000000000
0.982972324 0.571355164 0.000000000
0.992259681 0.571527660 0.000000000
0.995161295 0.571826339 0.000000000
0.996774197 0.571962297 0.000000000
0.998387098 0.571820438 0.000000000
1.000000000 0.571451664 0.000000000
0.068673953 0.512483418 0.000000000
0.089963198 0.526042819 0.000000000
0.111443587 0.539559901 0.000000000
0.133257955 0.553058445 0.000000000
0.155355647 0.566407263 0.000000000
0.177527875 0.579342425 0.000000000
0.200352952 0.591758013 0.000000000
0.224560514 0.603193760 0.000000000
0.251279473 0.613350749 0.000000000
0.281448811 0.621968508 0.000000000
0.315352172 0.628718138 0.000000000
0.352105021 0.632690132 0.000000000
0.391325533 0.634051204 0.000000000
0.433316827 0.633952200 0.000000000
0.477343887 0.632788897 0.000000000
0.522886515 0.630973399 0.000000000
0.569215596 0.628550589 0.000000000
0.616099238 0.625833690 0.000000000
0.663115799 0.622815669 0.000000000
0.710114479 0.619663477 0.000000000
0.756664455 0.616473198 0.000000000
0.802028239 0.613667548 0.000000000
