Desert Affinity Presets/Desert Affinity Preset #13.cube
TITLE "32x32x32 Adobe/IRIDAS cube 3D LUT exported with GrossGrade v0.1.027.1 (beta) 64 bit"
LUT_3D_SIZE 8
DOMAIN_MIN 0.000000 0.000000 0.000000
DOMAIN_MAX 0.903226 0.903226 0.903226
0.274657339 0.131784007 0.060970426
0.303120881 0.140265077 0.066691257
0.342562437 0.145417511 0.069177575
0.405767560 0.143876642 0.065259881
0.494304419 0.135119960 0.054319125
0.613686323 0.118028827 0.034952357
0.761242390 0.093257412 0.007658603
0.924504995 0.064726867 0.000000000
0.248058051 0.197330907 0.035485465
0.292809278 0.202360123 0.034271505
0.320337802 0.209137857 0.049063135
0.379784733 0.208880886 0.043632716
0.465302020 0.201734409 0.034069959
0.579256177 0.187380672 0.017399983
0.724271059 0.165347829 0.000000000
0.892133296 0.138614833 0.000000000
0.223574191 0.252510399 0.012257112
0.268955082 0.266869605 0.015266239
0.331623852 0.267040908 0.014690599
0.386808932 0.267909616 0.037127703
0.459890574 0.267911553 0.031290475
0.571832478 0.258655250 0.015271816
0.719540417 0.240499720 0.000000000
0.892380536 0.216539890 0.000000000
0.193637401 0.309221387 0.000000000
0.248608992 0.333219349 0.006943151
0.312553734 0.345375866 0.000000000
0.403863311 0.342053831 0.000000000
0.496549964 0.337869734 0.020443205
0.596185625 0.334449679 0.021528104
0.733830154 0.323187828 0.002348369
0.903423548 0.304396689 0.000000000
0.167558119 0.380076200 0.000000000
0.228172660 0.409669608 0.000000000
0.291756272 0.434975177 0.000000000
0.387708098 0.438526809 0.000000000
0.512811959 0.430489630 0.000000000
0.655267000 0.417775333 0.000276828
0.790945828 0.409372568 0.002237543
0.939551651 0.401031494 0.000000000
0.145005763 0.464606404 0.000000000
0.206270859 0.499203622 0.000000000
0.268498629 0.533642054 0.000000000
0.361362875 0.551695108 0.000000000
0.495322764 0.548424304 0.000000000
0.673223615 0.532310426 0.000000000
0.859754324 0.514981687 0.000000000
0.992884517 0.507965147 0.000000000
0.120400824 0.560220242 0.000000000
0.179320931 0.602772892 0.000000000
0.240980357 0.647494376 0.000000000
0.331658721 0.681837022 0.000000000
0.466474384 0.689637661 0.000000000
0.658003986 0.676874220 0.000000000
0.879242897 0.655753970 0.000000000
0.995161295 0.640017092 0.000000000
0.087192863 0.669454515 0.000000000
0.146108508 0.720918655 0.000000000
0.213458985 0.775415719 0.000000000
0.307349503 0.821193457 0.000000000
0.441165209 0.845040679 0.000000000
0.633889019 0.838449538 0.000000000
0.868795276 0.818428338 0.000000000
0.995161295 0.798231661 0.000000000
0.273214340 0.128283665 0.155583993
0.303806603 0.138575420 0.139306039
0.343262792 0.143507764 0.141669318
0.406485409 0.141806617 0.137996852
0.495329708 0.133068219 0.127291635
0.614982307 0.115822226 0.107917830
0.763215542 0.091079183 0.080880061
0.926703691 0.062526695 0.050156344
0.216305017 0.200479031 0.115189008
0.279207408 0.203440785 0.116091087
0.317945063 0.208111212 0.118442513
0.379876703 0.207185477 0.115049325
0.465622336 0.200307652 0.105641782
0.580084503 0.186202064 0.088951133
0.725806892 0.164479479 0.064724408
0.894077241 0.138019815 0.035808038
0.183862686 0.251684278 0.067042872
0.259469092 0.263241529 0.097696416
0.318223178 0.268624574 0.096925318
0.370534033 0.271924645 0.108195238
0.455893785 0.269203544 0.100302428
0.573154390 0.258813679 0.087459914
0.723468900 0.240222916 0.066536911
0.897136331 0.216462940 0.040440239
0.151715159 0.298989594 0.027528431
0.234619200 0.325035781 0.074081853
0.299805015 0.346515834 0.083710097
0.390777588 0.345147699 0.081640907
0.474580348 0.344379663 0.102377236
0.579404414 0.341427028 0.093428984
0.728524566 0.327508330 0.072802477
0.904825389 0.307058871 0.048626289
0.122808404 0.361758024 0.007332601
0.206794024 0.394648314 0.047647569
0.281642795 0.429430634 0.077864923
0.373929799 0.442659974 0.059689105
0.498506814 0.436048180 0.065548815
0.630884588 0.427039713 0.083527729
0.762627542 0.421455115 0.081833936
0.923923552 0.410482287 0.062530801
0.104174607 0.443927437 0.006451614
0.181639850 0.478071988 0.024311684
0.258375347 0.521136165 0.059802309
0.349931270 0.553867340 0.053394124
0.480478913 0.555940151 0.038394406
0.655988276 0.541562974 0.043551270
0.836074114 0.526582658 0.058043603
0.984980762 0.522536218 0.068782821
0.084617294 0.536410511 0.006451614
0.156907678 0.577913523 0.009433128
0.230886430 0.629129529 0.035576556
0.322651356 0.675585568 0.042081092
0.451905578 0.697523832 0.021528004
0.639502466 0.688119590 0.015370911
0.861043394 0.667586505 0.020559559
0.995161295 0.653007686 0.039220717
0.054718442 0.640752196 0.006451614
0.123656183 0.690871119 0.006451614
0.200311393 0.751109362 0.010906110
0.299040318 0.808241665 0.028322933
0.429787815 0.848480463 0.020175183
0.614862263 0.850222826 0.009569671
0.849453807 0.831305683 0.009004796
0.995161295 0.811184883 0.010220586
0.266559958 0.119159237 0.316549927
0.301746786 0.129913583 0.286425501
0.338532269 0.136418924 0.282265812
0.401349932 0.134704202 0.278569102
0.489228696 0.126169011 0.268200219
0.607165754 0.109393328 0.249500334
0.754462600 0.085040487 0.223387673
0.918472707 0.056616034 0.193180427
0.204228371 0.185204357 0.287023634
0.270887673 0.192754611 0.276839823
0.312941730 0.200933367 0.259511560
0.374748141 0.200025707 0.256514162
0.460138321 0.193412483 0.247915506
0.573986828 0.179834843 0.232430324
0.719428360 0.158678368 0.209325224
0.888384998 0.132502943 0.181211874
0.141732022 0.242825463 0.230637208
0.219514161 0.258180827 0.243884817
0.299771518 0.265005678 0.248599350
0.363307416 0.266659766 0.247934878
0.450942576 0.263545156 0.242460087
0.567549229 0.253831506 0.230381116
0.717380524 0.236026302 0.210170373
0.891190588 0.212555408 0.184423700
0.089620620 0.291864067 0.164898962
0.185000107 0.314277053 0.194923103
0.284818292 0.337131649 0.235829547
0.372389168 0.342932314 0.235262960
0.451158553 0.345033050 0.244818524
0.568297327 0.339356065 0.234126493
0.722676396 0.324447721 0.217028767
0.901263237 0.303830922 0.194367960
0.054841440 0.347014010 0.113845631
0.153559238 0.371334642 0.155695602
0.260597050 0.411813974 0.213538527
0.356282413 0.439355075 0.225568309
0.478260338 0.435624510 0.221760184
0.596467555 0.431871086 0.238671795
0.735038280 0.426665723 0.226916343
0.911227286 0.412073314 0.205921873
0.039007075 0.422554702 0.087988205
0.126224712 0.442834556 0.126642555
0.230505958 0.491285205 0.185147002
0.335912257 0.539975405 0.218097731
0.460737288 0.556618392 0.200966656
0.631825268 0.545126557 0.204339460
0.801628232 0.534390867 0.220763281
0.951388597 0.532110870 0.221365526
0.026538547 0.509204686 0.070097730
0.109783553 0.537474215 0.110356107
0.202452809 0.587288737 0.158830300
0.308882445 0.648541033 0.196869954
0.436663002 0.694301903 0.195583165
0.615750849 0.693033338 0.180516511
0.836185336 0.673953056 0.185015738
0.994123161 0.661031246 0.204520226
0.005719875 0.606475115 0.044846974
0.082718246 0.644357026 0.084317453
0.171827883 0.702718496 0.130217195
0.282456130 0.772232711 0.173854709
0.415271670 0.832327485 0.191234410
0.592281699 0.854435802 0.172769129
0.823772728 0.838102043 0.162201881
0.995161295 0.817982435 0.170700967
0.263765246 0.114107259 0.416714579
0.303688020 0.124500141 0.378611714
0.340572894 0.133648023 0.359949559
0.401689589 0.132749617 0.353079289
0.489398271 0.124215320 0.342051893
0.607610285 0.107448615 0.323112279
0.755204916 0.083173767 0.296754599
0.919491172 0.054898482 0.266546875
0.199684814 0.174665660 0.387136966
0.265090108 0.184698284 0.369427890
0.315310717 0.197074875 0.339587331
0.375283509 0.198387221 0.330345541
0.460924953 0.191882893 0.321617156
0.575368643 0.178454280 0.306131482
0.721792161 0.157529250 0.283172280
0.891507566 0.131699711 0.255348623
0.127387926 0.229025155 0.332618237
0.207743272 0.243696108 0.343817115
0.295624137 0.258749336 0.341310292
0.364863813 0.265814602 0.322583944
0.452978939 0.262773424 0.317266196
0.570825696 0.253185779 0.305569202
0.722231746 0.235573560 0.285761148
0.896717668 0.212204188 0.260265261
0.058559448 0.283934921 0.265057653
0.145444512 0.307832479 0.286656469
0.248424649 0.335500449 0.311851293
0.360182017 0.346270502 0.320200801
0.450676680 0.346153319 0.317663491
0.571500778 0.339761287 0.308892012
0.727410078 0.325244278 0.292059690
0.906497180 0.305104971 0.269526273
0.007226050 0.344287336 0.200816363
0.092628881 0.364963233 0.222013161
0.211846843 0.400155216 0.260747284
0.345700353 0.434152633 0.308366686
0.464570522 0.440560281 0.307635188
0.575672150 0.440400511 0.314575523
0.732288718 0.431125522 0.300084263
0.916565955 0.415336370 0.282161057
0.000000000 0.418082803 0.155426145
0.057994038 0.425545335 0.171861112
0.177100316 0.461310327 0.219282672
0.317095429 0.520765960 0.282452255
0.447084308 0.560699105 0.297963232
0.614517629 0.553144932 0.292430639
0.770900905 0.547599137 0.307917714
0.933664262 0.544447422 0.297544777
0.000000000 0.499377102 0.124667682
0.045162208 0.509925306 0.148664027
0.148311272 0.538401306 0.189207688
0.281050831 0.608708918 0.248792917
0.423837155 0.682020962 0.289057165
0.596685052 0.702585936 0.273495615
0.817057729 0.685145795 0.275310785
0.991724253 0.675776899 0.295786202
0.000000000 0.589221776 0.093521424
0.025387222 0.607955813 0.123422168
0.123820588 0.646315753 0.164826632
0.247518316 0.715338051 0.217397943
0.396654069 0.802084923 0.269465029
0.575765610 0.858629346 0.275025964
0.803204179 0.850741625 0.255572259
0.995043457 0.830875039 0.262072414
0.260223091 0.108309686 0.529389143
0.303054899 0.118275978 0.480507612
0.343532175 0.128522471 0.447357029
0.403006315 0.130265772 0.429724902
0.489735872 0.122190811 0.416231483
0.608421922 0.105582699 0.396392018
0.756455660 0.081357546 0.369165838
0.921067238 0.053288959 0.338301599
0.195958957 0.166126579 0.494968832
0.258676022 0.175843313 0.467382252
0.315531880 0.189823806 0.430152029
0.377436876 0.195911840 0.406564146
0.462125242 0.190569788 0.394674242
0.577195525 0.177331552 0.378664672
0.724654973 0.156582072 0.355266333
0.895209968 0.131009847 0.327217311
0.121449381 0.217737138 0.437859029
0.198624432 0.229038030 0.440234303
0.287001878 0.248196185 0.432219625
0.368218869 0.262790501 0.402651191
0.455454975 0.262589753 0.391134590
0.574217856 0.253062159 0.379116803
0.726811647 0.235491008 0.358939022
0.901722312 0.212297544 0.333304107
0.047835629 0.274882048 0.368712366
0.127612710 0.290455580 0.382995546
0.233015835 0.316764504 0.407824874
0.355467021 0.339469373 0.412944287
0.454107761 0.346707255 0.392433017
0.576081157 0.340195239 0.383577794
0.733608902 0.325746387 0.366815180
0.913706839 0.306104422 0.344812334
0.000000000 0.342918992 0.304842770
0.059718143 0.354710400 0.314196795
0.169743106 0.389527649 0.345161855
0.305914372 0.429430544 0.380031824
0.451962799 0.446011841 0.392949402
0.576662600 0.443077147 0.387384981
0.737919629 0.432866603 0.374567449
0.923569381 0.417859763 0.357081175
0.000000000 0.418264419 0.249301285
0.010470771 0.420089334 0.250205249
0.111741848 0.448769510 0.274991035
0.262934834 0.498907268 0.320230514
0.434582412 0.553108633 0.379151791
0.597811520 0.561214626 0.378424197
0.745936513 0.559327841 0.383924276
0.932149351 0.551051021 0.370360345
0.000000000 0.497874707 0.202683732
0.006451614 0.500058770 0.208494350
0.075026393 0.509275794 0.224078730
0.223077983 0.558514357 0.272583067
0.398393184 0.650339186 0.347327024
0.579284430 0.708760500 0.370361596
0.797163606 0.695411265 0.362160027
0.974011481 0.690625548 0.381535351
0.000000000 0.583221912 0.157343000
0.006451614 0.588980019 0.171214715
0.054909103 0.601227880 0.194208965
0.186475039 0.637523472 0.234362066
0.355540961 0.741228938 0.308468640
0.554797888 0.841816545 0.365225494
0.781044483 0.862249315 0.346437186
0.993329167 0.843010187 0.349137753
0.254852206 0.100755714 0.665611625
0.300397187 0.111186221 0.601942480
0.344802171 0.121781938 0.551102698
0.405602932 0.125432640 0.517649293
0.490499735 0.119659275 0.494899005
0.609220207 0.103442341 0.472439498
0.757906437 0.079343110 0.443736285
0.922971547 0.051574696 0.411594629
0.193354696 0.159474298 0.626743793
0.253228039 0.168116242 0.583800852
0.312660307 0.181298509 0.533476651
0.379950970 0.190060079 0.494790912
0.464351565 0.188635528 0.471821278
0.579304159 0.176110998 0.453119040
0.728023171 0.155543298 0.428940475
0.899087965 0.130302072 0.400221437
0.122517124 0.212911546 0.565124333
0.193351209 0.219116032 0.551644266
0.277554870 0.236666992 0.532353222
0.367366761 0.254694313 0.496060938
0.459666580 0.261276513 0.470758051
0.578171611 0.252969295 0.454967171
0.731630027 0.235185176 0.433916032
0.907186568 0.212431416 0.407995224
0.049922131 0.272725642 0.488220364
0.120173946 0.277877033 0.489302844
0.220193282 0.298169881 0.504407167
0.343716860 0.325732917 0.506037474
0.458989710 0.344172955 0.476453364
0.581220150 0.341031969 0.460734427
0.739658892 0.326402515 0.443218499
0.920556843 0.307174414 0.421222985
0.000000000 0.342477888 0.416421354
0.048161026 0.344407082 0.416214705
0.147897258 0.366823614 0.438361973
0.286233127 0.403598607 0.475115895
0.445903301 0.437514722 0.490096599
0.582752705 0.444974869 0.465729684
0.745046258 0.434409261 0.452446163
0.931538105 0.420008481 0.435451150
0.000000000 0.419021070 0.352678925
0.006451614 0.419030398 0.350423008
0.076664433 0.434286356 0.361790121
0.218492284 0.481031120 0.399895698
0.386726916 0.542645931 0.448800445
0.582076609 0.569479823 0.468280852
0.747873604 0.563604772 0.459622592
0.939130902 0.554194450 0.447829366
0.000000000 0.499061942 0.295729458
0.006451614 0.499212772 0.294667453
0.022360297 0.499127835 0.294113547
0.154328048 0.534949303 0.319418967
0.332949549 0.610815167 0.375238597
0.560161829 0.696375191 0.452855736
0.776817620 0.705412447 0.451359868
0.948743820 0.703499198 0.458799839
0.000000000 0.582873762 0.237952873
0.006451614 0.583416462 0.240424022
0.012903227 0.582810283 0.245129734
0.108209990 0.590404809 0.259568125
0.283300847 0.661962450 0.316576898
0.513583422 0.796656668 0.416755110
0.759408236 0.869143248 0.446793199
0.991512418 0.853573918 0.437336862
0.249040782 0.092764087 0.808441699
0.296192646 0.103307508 0.735027134
0.344290793 0.114239737 0.668029785
0.408139616 0.119117372 0.615913570
0.493855894 0.115449272 0.578601778
0.610965252 0.101130597 0.547372401
0.760012746 0.077438012 0.516058385
0.925598085 0.049981084 0.482227892
0.189364672 0.151976764 0.768440902
0.248363301 0.160997078 0.714305401
0.309275568 0.173531488 0.650431454
0.380870938 0.182835326 0.593196929
0.468251973 0.184248239 0.554343581
0.582872272 0.174653500 0.526365757
0.732319474 0.154649034 0.499921530
0.904053807 0.129781142 0.470459044
0.122854978 0.207459852 0.708562732
0.192729026 0.214629397 0.684592366
0.271703541 0.228589162 0.648276091
0.363492221 0.245468244 0.598430037
0.463456661 0.255972624 0.557965100
0.584049404 0.252347350 0.530807078
0.737636507 0.235004514 0.506896496
0.913596869 0.212690160 0.480315864
0.053545203 0.270385146 0.624257863
0.124371625 0.275889695 0.620518863
0.214273468 0.287622243 0.615603745
0.331612617 0.311735541 0.604237676
0.457349718 0.335014969 0.569351912
0.588993311 0.340660363 0.539757490
0.747306585 0.327459008 0.518300712
0.928291917 0.308546245 0.495806694
0.000000000 0.341977149 0.536828876
0.052847929 0.344779193 0.536636770
0.138811439 0.352167159 0.540701270
0.269919366 0.379407763 0.565716982
0.429677427 0.419114530 0.580139399
0.590433002 0.442891508 0.549307287
0.754021704 0.437037468 0.528920650
0.940454781 0.422942907 0.511523545
0.000000000 0.419502556 0.460477412
0.006451614 0.420610934 0.459227651
0.064530268 0.422019482 0.458056062
0.194097772 0.450023383 0.484879017
0.361745179 0.504876614 0.537940621
0.573165298 0.557567835 0.565805972
0.757304609 0.567566276 0.536897540
0.948237062 0.557945669 0.524420798
0.000000000 0.500553727 0.393537581
0.006451614 0.500845373 0.391427249
0.012948118 0.497821212 0.386898458
0.117071956 0.514024854 0.397328168
0.283669233 0.581032693 0.444931328
0.494701147 0.677138805 0.514242172
0.758082330 0.716535866 0.541384876
0.951450348 0.709098160 0.531846941
0.000000000 0.584726095 0.324878693
0.006451614 0.583919466 0.323425710
0.012903227 0.579916060 0.320804775
0.052524228 0.573707879 0.318170846
0.209672689 0.622404575 0.347644895
0.424251556 0.736696601 0.424883723
0.732135594 0.852881074 0.525337398
0.982995927 0.864010036 0.524387360
0.243902728 0.085411310 0.942759693
0.291759342 0.095624708 0.868632734
0.342406809 0.106247291 0.792590916
0.409625918 0.111900710 0.724783003
0.497875720 0.109732360 0.671197176
0.615821600 0.097271368 0.627462626
0.763226330 0.075252347 0.588841498
0.928841114 0.048339289 0.553012669
0.185166493 0.144670844 0.905737519
0.243404165 0.153697878 0.847168326
0.305210769 0.165710375 0.775826275
0.380463630 0.175224036 0.704093933
0.471884668 0.178229928 0.647817492
0.589295864 0.171173453 0.606159449
0.737808168 0.153459653 0.572141051
0.909745574 0.129167244 0.540912390
0.121941634 0.201438278 0.854367077
0.191044271 0.209470093 0.822864473
0.268045276 0.222990200 0.777222812
0.360264093 0.237955406 0.715242028
0.464993745 0.248755530 0.657542825
0.591091216 0.248247907 0.614791512
0.744982064 0.234410241 0.581719816
0.920451462 0.212775946 0.553317726
0.055901047 0.266526073 0.775451183
0.127942830 0.273727804 0.767060995
0.216146290 0.285602987 0.752103865
0.325548589 0.303518355 0.720331132
0.451690286 0.324249208 0.672499716
0.594288170 0.334636360 0.628823280
0.757193744 0.327766061 0.596864164
0.936587989 0.309909433 0.571591139
0.000000000 0.340126842 0.678292751
0.058991473 0.345070839 0.678631723
0.145652086 0.352690250 0.677999735
0.263164252 0.367301285 0.675666690
0.413361579 0.400649458 0.674421966
0.586861789 0.431074649 0.642940164
0.765795112 0.437946439 0.610575438
0.950554132 0.426291496 0.589161396
0.000000000 0.419230223 0.583299100
0.006451614 0.422139525 0.583548546
0.071073614 0.424794257 0.582487226
0.183784649 0.431648523 0.584495604
0.340656430 0.470951051 0.621893048
0.547821403 0.530063748 0.652063370
0.767713487 0.565713525 0.622647405
0.958866596 0.563097894 0.602540374
0.000000000 0.501405835 0.501121581
0.006451614 0.502523601 0.499441415
0.012951863 0.501265883 0.495549023
0.104261644 0.498042315 0.489801198
0.256777257 0.535992682 0.522907197
0.458145380 0.619535327 0.596544206
0.743913114 0.698727489 0.639991999
0.961747944 0.714616776 0.609962285
0.000000000 0.586382091 0.420174360
0.006451614 0.585946918 0.417763084
0.012903227 0.582089126 0.413690060
0.033280876 0.571643293 0.405850470
0.170803830 0.591353834 0.417434484
0.362826973 0.691327751 0.483485520
0.641667426 0.826771855 0.580714822
0.964310050 0.875408292 0.615718544
