Desert Affinity Presets/Desert Affinity Preset #2.cube
TITLE "32x32x32 Adobe/IRIDAS cube 3D LUT exported with GrossGrade v0.1.027.1 (beta) 64 bit"
LUT_3D_SIZE 8
DOMAIN_MIN 0.000000 0.000000 0.000000
DOMAIN_MAX 0.903226 0.903226 0.903226
0.002087435 0.001710532 0.002957198
0.093751661 0.018839300 0.014733113
0.188013494 0.028622275 0.021935809
0.320068032 0.024727479 0.021427060
0.449173689 0.007604358 0.011480420
0.562068641 0.003192882 0.000274023
0.694692612 0.000000000 0.000000000
0.816583931 0.000000000 0.000000000
0.026385618 0.079680167 0.026516566
0.102791518 0.091868974 0.025123132
0.227527976 0.096887469 0.022697104
0.372013479 0.085391112 0.015138563
0.504232705 0.069235943 0.001857836
0.645886183 0.036356557 0.000000000
0.777158558 0.006749016 0.000000000
0.904599905 0.023635542 0.025351727
0.033242293 0.161458910 0.040766254
0.112022541 0.176786214 0.039875910
0.222888976 0.198817059 0.033499490
0.368028045 0.190000698 0.004146344
0.527656376 0.182755455 0.000014028
0.697496831 0.150722504 0.000000000
0.849303424 0.140088573 0.000635955
0.969520748 0.213489279 0.110107198
0.038150840 0.269023240 0.046760090
0.110341862 0.282899112 0.042263992
0.210432544 0.304821581 0.038741894
0.352927923 0.316939861 0.011331260
0.532514691 0.312965006 0.000000000
0.709293485 0.301661611 0.000000000
0.880214810 0.313192844 0.001273783
0.982756615 0.371995538 0.181061029
0.007072207 0.382148027 0.045900185
0.096190169 0.395661950 0.037329700
0.204475030 0.419082195 0.034069497
0.352867275 0.446218401 0.024006881
0.536305010 0.462353289 0.000196399
0.727703989 0.464611560 0.000000000
0.888846636 0.472969800 0.000160859
0.989685774 0.509923339 0.209620267
0.005053519 0.511829555 0.051416621
0.103000648 0.524707913 0.040928025
0.218455240 0.545452714 0.033826813
0.377897799 0.575666785 0.021124078
0.547320366 0.607650757 0.022041958
0.736081243 0.627271414 0.000102875
0.897089720 0.629567742 0.000000000
0.991237819 0.644264758 0.212626204
0.009205470 0.646050036 0.049603224
0.129588559 0.664247572 0.042713407
0.249544889 0.684652507 0.035452243
0.415179342 0.717503309 0.027495313
0.579507232 0.749957860 0.038920064
0.739413977 0.770608127 0.078398496
0.900461435 0.776918650 0.029427469
0.991407573 0.782252967 0.262230843
0.015663739 0.789113224 0.086531669
0.153759301 0.802654088 0.083773687
0.278334886 0.822748423 0.084322721
0.447689235 0.846313298 0.083378583
0.602597892 0.872521877 0.102295041
0.753064752 0.893848479 0.132354125
0.895801902 0.910842001 0.178351045
0.990018904 0.921861827 0.362743348
0.005557135 0.005278439 0.048334949
0.076716423 0.013883483 0.044754479
0.172432736 0.024786856 0.048788577
0.300017923 0.023339119 0.048346207
0.427216113 0.009765231 0.035775777
0.534159541 0.006902934 0.017874975
0.665074706 0.000000000 0.006807000
0.787895381 0.000000000 0.006474060
0.018349679 0.079346702 0.064101562
0.091794655 0.079661936 0.061811678
0.206894889 0.090245038 0.060782857
0.336356789 0.088915601 0.052107718
0.463084966 0.078403108 0.033619590
0.600334764 0.062591620 0.014924338
0.736458421 0.008390818 0.009164717
0.863651216 0.009236729 0.016850425
0.041180063 0.149566785 0.074696742
0.110035621 0.159486443 0.077627756
0.225281820 0.188867465 0.070089340
0.376890838 0.185835078 0.041375916
0.534747183 0.180903479 0.023271257
0.692595243 0.153613254 0.012557264
0.835415006 0.144258976 0.016559575
0.961975753 0.195804089 0.090482406
0.037092201 0.260176957 0.095241942
0.115356185 0.259835631 0.084499873
0.212032840 0.285925210 0.084610239
0.364673823 0.312603980 0.050915718
0.550273597 0.313230515 0.010103224
0.725934386 0.303366691 0.007102533
0.893127382 0.316777229 0.026822325
0.983485818 0.378713369 0.205015004
0.016483458 0.375394613 0.106658228
0.103901051 0.370945841 0.088035032
0.212389454 0.397669852 0.089097470
0.363275200 0.436285019 0.083583347
0.553569496 0.462654173 0.025673419
0.745558441 0.468747735 0.006462371
0.905596197 0.477433354 0.015727220
0.990483642 0.518236160 0.252833277
0.003847070 0.510374844 0.125459269
0.116119765 0.496797472 0.096564367
0.230319470 0.523607194 0.098333821
0.388965189 0.562180519 0.095345668
0.560466111 0.605654657 0.082699507
0.754396558 0.630863607 0.016276190
0.912192583 0.633492768 0.017275050
0.991753638 0.649513304 0.252229750
0.017570671 0.641493201 0.138215616
0.145846859 0.632416189 0.112786457
0.260875463 0.657621503 0.114507303
0.425801545 0.700097024 0.118242480
0.591186941 0.742350996 0.123653747
0.753033817 0.771187663 0.129856572
0.915192664 0.779720008 0.059341669
0.991535008 0.786115527 0.280483991
0.027995665 0.782325029 0.170751467
0.174011931 0.775600314 0.146722466
0.294102103 0.800517201 0.150657177
0.461008310 0.831054032 0.154223770
0.615676105 0.864625931 0.164434657
0.767898798 0.893090904 0.180756614
0.910114110 0.914643168 0.216767132
0.989982784 0.925774336 0.382291257
0.004003724 0.009017956 0.091030017
0.043186039 0.013236787 0.091490149
0.151525214 0.021361627 0.083680071
0.286789328 0.015720291 0.087872677
0.414949358 0.004649498 0.076880910
0.524499059 0.004359108 0.062296011
0.655119598 0.000055646 0.046438739
0.777176023 0.000000000 0.033720046
0.002076214 0.086093038 0.110429429
0.071173780 0.078636937 0.097465821
0.172846586 0.087721311 0.102286488
0.305078387 0.084582187 0.098564222
0.432312250 0.078695811 0.086298235
0.568686903 0.066445246 0.073500082
0.707723618 0.013801597 0.061523065
0.835898578 0.010142964 0.062714070
0.016013922 0.160110235 0.118844390
0.130524307 0.146266937 0.097683765
0.204090104 0.166323766 0.120967552
0.345729560 0.172956079 0.106337480
0.484308571 0.177289426 0.096026480
0.643170357 0.164061546 0.085747823
0.790245056 0.148011386 0.083524331
0.927059650 0.180281281 0.110767238
0.017667428 0.267566353 0.151996851
0.135275796 0.237985268 0.118061088
0.210014120 0.260204166 0.131104797
0.369323850 0.300734937 0.115199156
0.560300291 0.304454118 0.084761649
0.731015980 0.299068958 0.077336371
0.887493134 0.315009117 0.097642653
0.982508183 0.366204292 0.201885685
0.006350216 0.380700022 0.171356782
0.109141886 0.354979783 0.140294552
0.222571433 0.374264568 0.141493782
0.367023617 0.418710679 0.147812411
0.564918876 0.456943095 0.099142127
0.760697722 0.468962610 0.065971911
0.920695484 0.479701310 0.098798126
0.990857601 0.519606650 0.283424288
0.009123171 0.506173909 0.191911057
0.125960007 0.477859437 0.155635715
0.248457193 0.502109587 0.158315718
0.395677865 0.543091774 0.165031016
0.567438185 0.597504497 0.168762699
0.767302930 0.630884528 0.102638483
0.926394165 0.636713147 0.101627529
0.992143273 0.652103722 0.285647929
0.014849128 0.637805581 0.217468336
0.157141402 0.609284759 0.177459955
0.280332476 0.637612700 0.183717161
0.436789274 0.681444824 0.194478959
0.597858906 0.730241835 0.209068656
0.762677670 0.768873453 0.213648781
0.927391589 0.781945050 0.148259029
0.991692722 0.789573550 0.314724118
0.023933016 0.780319095 0.255428314
0.187266111 0.754529715 0.212189734
0.315274000 0.780157983 0.219055161
0.476249784 0.815123379 0.229090154
0.623328447 0.852136970 0.241208002
0.777178764 0.888397932 0.255687118
0.921202242 0.916287243 0.281625420
0.989969373 0.929239690 0.414221823
0.005803574 0.011768473 0.137024894
0.016881773 0.015933044 0.143597543
0.139402315 0.009441606 0.123526715
0.261030823 0.016288886 0.127871588
0.395545572 0.001629639 0.119492680
0.509714127 0.000659338 0.109927617
0.642582834 0.000000000 0.103175811
0.768492401 0.000000000 0.096624009
0.001247128 0.086262763 0.150435716
0.030371506 0.089404203 0.163075924
0.147832826 0.087578699 0.144629553
0.273455143 0.089140028 0.143687919
0.409288436 0.074900195 0.135036618
0.551464856 0.060368106 0.130378455
0.694318473 0.011968069 0.124556929
0.824650824 0.009238595 0.129494250
0.000000000 0.168455496 0.168802097
0.115703017 0.145047858 0.132820234
0.195331812 0.156393513 0.150421679
0.306644827 0.167179123 0.159700483
0.448475152 0.168967173 0.156200320
0.605557144 0.160743520 0.157585233
0.754211605 0.143795937 0.159301206
0.894305527 0.168586805 0.177664354
0.018189738 0.260459512 0.179878175
0.163574949 0.223726690 0.129889786
0.276934236 0.239834830 0.132781535
0.347763538 0.274037242 0.184929043
0.519444883 0.284847260 0.178767934
0.678125739 0.287387729 0.177238569
0.833299220 0.305942893 0.188787162
0.972794652 0.341097355 0.227515697
0.000793074 0.386643201 0.233985141
0.106917396 0.353123963 0.194770366
0.269297838 0.353640854 0.178901583
0.365710348 0.391978800 0.212957785
0.569709182 0.446906209 0.203685045
0.767779827 0.462174773 0.187064588
0.923142970 0.475612193 0.207142055
0.991187990 0.515855610 0.330549598
0.000769697 0.509774566 0.263020068
0.119316183 0.480160803 0.230984822
0.267778635 0.486033618 0.222369686
0.406852126 0.522655904 0.238717198
0.566440940 0.581133068 0.259111166
0.773590386 0.627176940 0.228945240
0.937583506 0.637276709 0.223424762
0.992717385 0.651109874 0.337522566
0.004767809 0.640503228 0.297495842
0.156309202 0.602810740 0.252480090
0.304156154 0.623377919 0.254199803
0.452394247 0.663874567 0.272689611
0.598230183 0.711473286 0.292928338
0.765400708 0.760279059 0.306171179
0.935960054 0.783003271 0.268328965
0.991971731 0.791680872 0.366823345
0.010998756 0.782795906 0.342295527
0.189891964 0.746165931 0.289293736
0.341234088 0.764395654 0.291564345
0.493224740 0.799218833 0.306776226
0.627788246 0.835582137 0.321961433
0.779612601 0.878345311 0.340895265
0.928488970 0.916171789 0.366879523
0.990006149 0.931917369 0.460608184
0.008908531 0.012935194 0.185558483
0.015470953 0.017700188 0.194971949
0.093263470 0.010500288 0.190854669
0.243164077 0.002933818 0.168596521
0.364620626 0.005700694 0.166327387
0.489487767 0.000024316 0.162991464
0.624183297 0.000000000 0.165052816
0.754322052 0.000000000 0.164056212
0.001346266 0.088020071 0.217827991
0.007768420 0.094664477 0.229085401
0.096094303 0.090272121 0.218265161
0.241231456 0.089468330 0.187892288
0.376872331 0.083334111 0.188318774
0.530676961 0.046911079 0.191882327
0.677230358 0.007717449 0.196932316
0.812061131 0.006603121 0.208818182
0.000000000 0.172756374 0.237272367
0.058776349 0.165916428 0.213919699
0.144487113 0.164160475 0.224683493
0.273933828 0.167387009 0.208391994
0.420955598 0.171889499 0.218234137
0.582089782 0.150213316 0.227213770
0.735186934 0.130771995 0.242118314
0.879054606 0.155611053 0.265552342
0.000294598 0.273239166 0.251989365
0.148981318 0.221783385 0.164128706
0.297580600 0.231418923 0.149739951
0.345689476 0.259259939 0.218959808
0.478323460 0.275695801 0.247784749
0.639652789 0.274987072 0.259645104
0.792556763 0.293337077 0.281785250
0.940669417 0.328389049 0.315670401
0.000000000 0.390394270 0.295941263
0.135427848 0.333291292 0.207006961
0.364786685 0.331270754 0.150884569
0.477055967 0.358607650 0.185722485
0.541449547 0.414604872 0.292962849
0.721593499 0.435712516 0.302351326
0.869560480 0.458222032 0.323825181
0.988237977 0.490129173 0.361804128
0.000000000 0.511270463 0.329122484
0.060459759 0.507421017 0.327357292
0.283415765 0.475189537 0.272458613
0.466277242 0.503023565 0.280024409
0.554677963 0.551687241 0.337056726
0.773110986 0.619094253 0.346283942
0.942165434 0.632161260 0.350326687
0.993530691 0.644418180 0.411041766
0.000000000 0.642591953 0.371030062
0.120065957 0.620987356 0.346832097
0.303881168 0.619639218 0.329250008
0.469717115 0.654616952 0.355333686
0.598268747 0.688950300 0.374695241
0.757557929 0.742823958 0.399244219
0.939460456 0.780833185 0.380807698
0.992350817 0.792280734 0.440353334
0.000235678 0.786043286 0.420772165
0.167634487 0.757353663 0.384613186
0.348265380 0.760448277 0.374408752
0.507226348 0.787605166 0.391706765
0.632154047 0.815886974 0.405708551
0.774291933 0.862118959 0.427224398
0.931476176 0.912802994 0.461188972
0.990196824 0.933887601 0.521675527
0.015973298 0.011180673 0.244769722
0.022989778 0.014445572 0.256190866
0.035720959 0.013276065 0.268413365
0.214790076 0.000000000 0.243201911
0.335963100 0.004117353 0.213718235
0.460597873 0.002037401 0.217613384
0.601881802 0.000000000 0.229406416
0.736415803 0.000000000 0.239391774
0.002027581 0.086619049 0.280137300
0.008345457 0.092916019 0.291923851
0.022094654 0.094987065 0.302237719
0.201438382 0.081631497 0.255352914
0.344484597 0.091021255 0.239027262
0.500991404 0.050119393 0.250086725
0.655178070 0.006791106 0.266903907
0.795071661 0.006623697 0.290269941
0.000000000 0.169607773 0.314527035
0.006451614 0.177347094 0.326272666
0.047977641 0.178896010 0.325354069
0.238157272 0.167521343 0.275872320
0.393203914 0.177626640 0.276930690
0.552644551 0.156592593 0.294712931
0.711485445 0.117212735 0.317071170
0.860527337 0.141314119 0.351088673
0.000000000 0.270981014 0.338560998
0.011754829 0.276918620 0.325038642
0.209592432 0.237529114 0.245866045
0.302660674 0.261452258 0.290541023
0.450168073 0.280194223 0.316560119
0.610215366 0.279407650 0.336712390
0.769313037 0.284510702 0.363863349
0.920997500 0.317396432 0.401717305
0.000000000 0.388731182 0.361833900
0.030153641 0.382341564 0.328366280
0.370453030 0.328775913 0.182743177
0.530561924 0.336082786 0.175947249
0.545528591 0.392597318 0.327311695
0.674612343 0.420983553 0.378771126
0.827325702 0.441712320 0.408115923
0.967606127 0.472003579 0.441251248
0.000000000 0.515386522 0.396997571
0.006451614 0.529108584 0.416432083
0.338044256 0.459642887 0.282120079
0.603837192 0.459551483 0.194636643
0.702018023 0.503308535 0.276792705
0.738280356 0.581959009 0.437589645
0.893847644 0.601953745 0.453792840
0.994154811 0.628117263 0.492942423
0.000000000 0.645454645 0.440334588
0.018216336 0.658050120 0.456605136
0.250394166 0.631541848 0.418235332
0.491968662 0.646476924 0.412750185
0.665361941 0.665916920 0.411189824
0.741178036 0.711115897 0.477698177
0.938201725 0.776162326 0.496124029
0.992780507 0.788811386 0.530053258
0.000000000 0.786764085 0.489907861
0.078611217 0.784054279 0.488700569
0.313107252 0.764942884 0.459141642
0.509732127 0.781962812 0.471952558
0.641402781 0.801557183 0.486944735
0.771222591 0.840724766 0.508792281
0.925682843 0.899482071 0.546906412
0.990530610 0.935061753 0.595933199
0.031311490 0.006581214 0.314141929
0.040257882 0.006958585 0.325656682
0.050635580 0.005918141 0.336789519
0.113617696 0.002360053 0.335069865
0.309983075 0.000059855 0.276668340
0.431924224 0.000867429 0.271853238
0.571620047 0.000000000 0.290125012
0.713761032 0.000000000 0.310260803
0.005007221 0.080492415 0.341151267
0.011382148 0.086212754 0.350629389
0.017930094 0.090907618 0.359786630
0.099268779 0.078289449 0.347831130
0.312635422 0.083355203 0.300188690
0.468912929 0.070656091 0.314407498
0.624406278 0.007081963 0.331904352
0.773437262 0.006451614 0.365332693
0.000000000 0.162601650 0.369048804
0.006474060 0.170942649 0.380628705
0.012985527 0.178953961 0.391472697
0.164192468 0.170803964 0.364314795
0.367241383 0.175635085 0.341598988
0.523709714 0.171888217 0.362999082
0.678291976 0.129198655 0.386758357
0.836740553 0.125071317 0.425877124
0.000000000 0.264831364 0.397443950
0.006451614 0.276867360 0.412971586
0.017327327 0.286616564 0.424876034
0.220395729 0.274004430 0.398324460
0.422959179 0.283542395 0.387637615
0.579103947 0.291010767 0.409264177
0.738031745 0.292838067 0.441359878
0.897647500 0.306911051 0.479728580
0.000000000 0.385996163 0.430046350
0.006451614 0.399902433 0.450068265
0.128857762 0.381314516 0.394516170
0.415363282 0.363170981 0.336701035
0.500904083 0.404222935 0.420155227
0.643396616 0.424454093 0.454666495
0.799081922 0.443211704 0.489847451
0.947253108 0.462242991 0.521659195
0.000000000 0.514761150 0.466431141
0.006451614 0.528061986 0.485616237
0.236533761 0.483943194 0.389035255
0.626503706 0.452866584 0.219234303
0.761806786 0.475225776 0.255492538
0.746666551 0.553187251 0.464604497
0.849370718 0.582599878 0.526309192
0.983462632 0.606094301 0.556610048
0.000000000 0.652593613 0.508910120
0.006451614 0.667935133 0.528837979
0.152399793 0.657188714 0.514680505
0.554138899 0.623625934 0.405868918
0.825353682 0.606417239 0.291143358
0.888955235 0.654438436 0.401350170
0.903438628 0.737294793 0.576810420
0.993604124 0.761572897 0.609789491
0.000000000 0.790492952 0.558882535
0.006984695 0.802915990 0.576442420
0.235438719 0.777261674 0.543731689
0.479485750 0.780612051 0.541841626
0.668278098 0.789492488 0.533818007
0.845201731 0.813540637 0.533518493
0.910125732 0.869058192 0.614910603
0.991293430 0.935807467 0.680766463
0.054478578 0.000276828 0.375717312
0.063938804 0.000175356 0.384288341
0.073161535 0.000258124 0.393100530
0.082407624 0.001374324 0.400543064
0.263567209 0.000239887 0.363874853
0.407053590 0.000000000 0.333401144
0.540479481 0.000000000 0.351919472
0.681862831 0.000000000 0.375412822
0.010400704 0.070330620 0.393893927
0.016926188 0.076481685 0.403483808
0.023573281 0.081803598 0.412766188
0.037884071 0.082084149 0.419328064
0.259983808 0.068283446 0.379450709
0.446948767 0.053098094 0.378609240
0.593964040 0.011510745 0.396840990
0.743580341 0.006470320 0.433761090
0.002246891 0.156436339 0.423168182
0.008264093 0.165490448 0.434789151
0.014440745 0.174213171 0.445515156
0.051583350 0.177443162 0.450016111
0.321249992 0.172946930 0.418489218
0.500378489 0.167156205 0.431631446
0.646111429 0.156194657 0.455568701
0.806738853 0.128463238 0.496600062
0.000000000 0.260064512 0.454845160
0.006451614 0.272836328 0.471141279
0.012903227 0.283913940 0.485061109
0.089321002 0.286748499 0.487639904
0.380581379 0.283852428 0.466603428
0.554696560 0.295266062 0.481213689
0.706024051 0.304818124 0.511068344
0.867085457 0.305484146 0.550479650
0.000000000 0.382897139 0.496501863
0.006451614 0.396755606 0.515660226
0.012906971 0.408150077 0.531203210
0.166165054 0.405718029 0.522713900
0.434694320 0.413377792 0.523163080
0.608941555 0.433572590 0.527631521
0.765020013 0.450181812 0.560667694
0.920310795 0.459455729 0.594513416
0.000000000 0.512103856 0.534406722
0.006451614 0.526092291 0.554319084
0.013172573 0.538902938 0.572772443
0.380230993 0.515330136 0.494402379
0.634019911 0.516083539 0.458229780
0.694138110 0.557696760 0.553578496
0.821240842 0.582722366 0.596919358
0.966566563 0.600259244 0.628879249
0.000000000 0.652596056 0.579440832
0.006451614 0.667701304 0.599881232
0.031451657 0.679438412 0.615380764
0.480989933 0.638363838 0.511314273
0.845891654 0.597809672 0.316416204
0.952769637 0.620671928 0.368734717
0.917249918 0.706191242 0.596275926
0.992134094 0.745138824 0.669754863
0.000000000 0.798112154 0.627342522
0.006451614 0.809765220 0.645511508
0.100491211 0.808257282 0.644741356
0.406300873 0.791894615 0.619757831
0.752288342 0.770901561 0.523056626
0.978806794 0.741546929 0.431230754
0.986323297 0.796582937 0.552509010
0.992760599 0.906389534 0.741415739
