Desert Affinity Presets/Desert Affinity Preset #1.cube
TITLE "32x32x32 Adobe/IRIDAS cube 3D LUT exported with GrossGrade v0.1.027.1 (beta) 64 bit"
LUT_3D_SIZE 8
DOMAIN_MIN 0.000000 0.000000 0.000000
DOMAIN_MAX 0.903226 0.903226 0.903226
0.002087435 0.001710532 0.002957198
0.103074379 0.019022567 0.015316301
0.214043200 0.027584173 0.022502575
0.365934819 0.014564827 0.018870121
0.493255466 0.006464779 0.005263015
0.631718218 0.000108019 0.000000000
0.770056129 0.000000000 0.000000000
0.903404176 0.000000000 0.025308229
0.024858883 0.083614193 0.022020496
0.094246387 0.090818204 0.028722819
0.198559538 0.099571019 0.026806481
0.322989881 0.098452076 0.022359002
0.453595668 0.084764533 0.006869737
0.598190725 0.065294884 0.000000000
0.744279683 0.008401100 0.000000000
0.882194042 0.009932534 0.009889558
0.027581802 0.169726461 0.033589762
0.101981595 0.177478671 0.040590852
0.203134835 0.198721126 0.042867683
0.327274650 0.198210120 0.013629134
0.452571750 0.196897283 0.002280561
0.607002139 0.190733910 0.000026186
0.752486944 0.166883335 0.000000000
0.894880474 0.179992676 0.010001812
0.024019560 0.284022808 0.037828162
0.091894224 0.288772196 0.040627360
0.190450832 0.305675298 0.044392109
0.315237314 0.317079067 0.037210938
0.476328582 0.326231986 0.000795881
0.627293706 0.321458757 0.000005144
0.776474953 0.326737970 0.000000000
0.921421349 0.348612159 0.020826168
0.001395835 0.395013094 0.035548080
0.062845528 0.407485574 0.031489201
0.170483097 0.422742575 0.039158102
0.316762745 0.445299655 0.042132128
0.481254011 0.466363788 0.031103417
0.657073796 0.475979298 0.000000000
0.807022810 0.487061441 0.000000000
0.940688789 0.501789272 0.016604094
0.000168341 0.527794778 0.028953329
0.046143230 0.543946981 0.028736820
0.180669144 0.554463148 0.034454372
0.332695127 0.577787280 0.034770921
0.501164019 0.608119249 0.037960552
0.667601407 0.633916914 0.035190824
0.831596196 0.644037545 0.001084868
0.957573652 0.651176751 0.031152513
0.008846814 0.667199016 0.030700842
0.054988686 0.686711431 0.032634873
0.205823094 0.702307105 0.031695429
0.356073916 0.720840633 0.043216534
0.526495934 0.752405047 0.062659480
0.684823155 0.774380624 0.094959207
0.834360600 0.789300501 0.093276359
0.969225347 0.794014573 0.078205816
0.022542777 0.813121736 0.060169421
0.053886455 0.831179202 0.067540020
0.223208755 0.840624571 0.079661518
0.377166271 0.856238067 0.095511742
0.542324960 0.877712131 0.111281544
0.695297778 0.898442149 0.139403403
0.841030061 0.916632533 0.176162332
0.975651503 0.934921801 0.266442001
0.003050257 0.015511226 0.067765281
0.087416925 0.003776931 0.070166051
0.233265147 0.014224399 0.065761156
0.390775323 0.004385762 0.051456302
0.518680513 0.004653705 0.026775572
0.667729735 0.000000000 0.007990065
0.806006968 0.000000000 0.006676069
0.939620793 0.027987709 0.064247422
0.008461961 0.098406754 0.060842726
0.072951645 0.077658683 0.073891535
0.206209466 0.086941302 0.069088168
0.351487279 0.082005121 0.056768395
0.492234081 0.067110159 0.034015164
0.645399809 0.033128574 0.013000096
0.788757443 0.006691033 0.008866841
0.928494573 0.029968884 0.055706918
0.020623218 0.180534273 0.058805358
0.088948265 0.160876259 0.081222370
0.193764478 0.182077274 0.091088586
0.328377903 0.188021392 0.072637871
0.460454881 0.190080658 0.056721158
0.624845624 0.180079564 0.039548475
0.779309571 0.156604409 0.025094483
0.926997542 0.181424439 0.067595541
0.021297069 0.292540848 0.055177573
0.082232378 0.273233086 0.082910925
0.181001395 0.280420542 0.096574612
0.315858245 0.304986447 0.095078267
0.485610455 0.320108473 0.059087340
0.640541375 0.318092197 0.045003198
0.790068984 0.326166332 0.045051385
0.937155306 0.349786907 0.086495154
0.000652324 0.403961509 0.045650404
0.059231363 0.396291941 0.079991579
0.166760236 0.396437287 0.096990839
0.316919774 0.429381371 0.109398790
0.488016158 0.459723681 0.102406725
0.672362030 0.476762295 0.040826477
0.820358813 0.488675654 0.044400435
0.954740644 0.505164802 0.096074745
0.000204815 0.536211073 0.039650891
0.041502655 0.539659083 0.081869513
0.177224711 0.528784752 0.100869201
0.331578642 0.556911111 0.117475964
0.504546285 0.599544764 0.129444882
0.677240133 0.632398605 0.122505970
0.842474282 0.645713091 0.073931724
0.968120575 0.655196011 0.112832151
0.008429697 0.676139474 0.040589388
0.045266468 0.687993407 0.083709061
0.202814430 0.675547242 0.111634441
0.354456395 0.698142529 0.135523513
0.527963459 0.739426017 0.157688171
0.691158414 0.771312356 0.181099266
0.843477786 0.790202200 0.179708838
0.977045715 0.797544718 0.167886123
0.025212418 0.821385682 0.070334382
0.059312217 0.830344915 0.112300053
0.223787129 0.821313918 0.141258597
0.378531247 0.836663127 0.165754825
0.543894112 0.864421606 0.188104361
0.700822532 0.894193590 0.214283153
0.848215580 0.917362154 0.243814826
0.982048750 0.938221276 0.332713932
0.003815272 0.027072137 0.128095254
0.017081011 0.010646675 0.181732357
0.194787502 0.000391862 0.143561661
0.369490892 0.000000000 0.124169186
0.513294458 0.000000000 0.102837898
0.671231747 0.000000000 0.083664164
0.816289663 0.000000000 0.068031341
0.952945650 0.052306436 0.107366748
0.000563476 0.113340557 0.119058646
0.007254045 0.102155186 0.161336169
0.161287606 0.073833100 0.145671099
0.344838083 0.059416987 0.125451878
0.507571876 0.041126199 0.104896262
0.672791719 0.008468909 0.088430554
0.820538580 0.006451614 0.079558484
0.957355618 0.077951841 0.123135678
0.013413059 0.199693099 0.108166277
0.009518705 0.200064600 0.155613691
0.159394488 0.158857197 0.148946255
0.326822013 0.166164368 0.132390127
0.485803694 0.168078184 0.119887449
0.661176264 0.145352125 0.108039923
0.821669102 0.129619598 0.106839679
0.963858545 0.189215466 0.148007780
0.016055560 0.306107908 0.090680234
0.032260232 0.298130423 0.137273237
0.160116360 0.257685423 0.149722859
0.307640225 0.287953138 0.164457887
0.486422509 0.304756463 0.149451464
0.645002723 0.305566639 0.138505623
0.803880930 0.316751897 0.138297394
0.958644331 0.344509602 0.168413773
0.000000000 0.421019256 0.079656675
0.025819778 0.415015519 0.134506211
0.153264686 0.377125680 0.150353521
0.307181716 0.406079322 0.182149827
0.488363445 0.448078364 0.192519307
0.678538442 0.468925148 0.162832260
0.827570021 0.484809965 0.169695050
0.963678598 0.504235327 0.200071722
0.001293890 0.551599383 0.069986895
0.018597908 0.552585840 0.143763170
0.168087527 0.509434640 0.155926064
0.323752582 0.533588111 0.195015520
0.500741303 0.585678458 0.224725708
0.679748714 0.627359092 0.238153175
0.847629368 0.643421471 0.211392432
0.974445343 0.656078577 0.236241579
0.007784856 0.691380203 0.060011741
0.019845532 0.698796153 0.155755058
0.191847175 0.655566096 0.170579001
0.348001957 0.676794827 0.216230273
0.522642553 0.721112788 0.252337337
0.688489616 0.761974096 0.281268507
0.845594406 0.787763774 0.288249224
0.984451234 0.799621224 0.285970777
0.028719028 0.835046411 0.099817842
0.044618838 0.837676346 0.174286827
0.213601723 0.805071473 0.196735695
0.372788548 0.817275226 0.238901034
0.539374113 0.846978307 0.274293035
0.696694374 0.883417606 0.305638403
0.848409235 0.914845288 0.336110413
0.982411563 0.939829826 0.422963023
0.005970506 0.033586901 0.199395195
0.030488430 0.011761001 0.278603792
0.058015943 0.000532146 0.324800164
0.298812658 0.000000000 0.229183078
0.478569448 0.000000000 0.207685500
0.653725803 0.000000000 0.200141206
0.809973717 0.000000000 0.189709872
0.955750465 0.038395833 0.204806745
0.000387653 0.123449139 0.185622796
0.007091776 0.111745015 0.242044568
0.016668003 0.085674927 0.309401840
0.274970800 0.050144151 0.227490634
0.478825420 0.020528678 0.208657950
0.658093095 0.006451614 0.203860894
0.818298101 0.006451614 0.200515166
0.963513851 0.073145181 0.229542896
0.001460361 0.223157182 0.171390742
0.006451614 0.213843912 0.224320978
0.012903227 0.198477373 0.283908784
0.261963129 0.150670499 0.230861545
0.474239498 0.140612394 0.221647009
0.668573499 0.082781777 0.221032709
0.840657830 0.082746267 0.230262905
0.972151458 0.189936668 0.271765441
0.007568846 0.322049469 0.144589841
0.007011351 0.323997349 0.204469517
0.038720753 0.307645500 0.250713438
0.261145085 0.258439302 0.241018981
0.478737324 0.274518043 0.236340463
0.662493348 0.272731781 0.237712890
0.837444007 0.291248739 0.254091978
0.978618562 0.331830770 0.290637761
0.000000000 0.440115511 0.130670264
0.006451614 0.441037267 0.192362279
0.083413012 0.407191634 0.225331947
0.275870591 0.379649669 0.252434969
0.475593060 0.432184488 0.294692934
0.676216841 0.455309361 0.290687293
0.827093959 0.473587990 0.305034846
0.969793260 0.494941771 0.326566309
0.003271431 0.569696367 0.118181311
0.008536242 0.572613835 0.195742905
0.119925663 0.524847150 0.221949071
0.304843605 0.513572693 0.263813853
0.482106656 0.563212872 0.322208822
0.670951486 0.615868747 0.351105124
0.846813798 0.636497617 0.345097601
0.978432655 0.651850045 0.363154173
0.007108217 0.711476743 0.122136578
0.010659220 0.717034400 0.211489871
0.148438618 0.664084315 0.234327823
0.332103074 0.661415160 0.285756081
0.504447341 0.697772741 0.346061915
0.672038734 0.744672120 0.385084152
0.839213908 0.781092465 0.403246552
0.987019181 0.799342036 0.411030978
0.033287149 0.852030635 0.148724467
0.040015131 0.852026820 0.230483770
0.175404862 0.807513475 0.256953627
0.353700906 0.804545701 0.307943225
0.524204731 0.827479541 0.362904072
0.679979563 0.865655780 0.404348463
0.840616643 0.908681035 0.441274732
0.981842101 0.940077126 0.519210935
0.013708614 0.032596052 0.292735189
0.061026011 0.003262548 0.366396368
0.088325329 0.000000000 0.420019746
0.097686462 0.000000000 0.429373324
0.403603762 0.000000000 0.335521102
0.600533426 0.000000000 0.327666074
0.784970939 0.000000000 0.337930501
0.948993802 0.000000000 0.353293389
0.000246901 0.132551789 0.267965972
0.008052258 0.114473842 0.327488303
0.023010744 0.083184458 0.389795393
0.047271460 0.044161033 0.420697391
0.409644932 0.013119793 0.336889446
0.609050930 0.006451614 0.332888812
0.796866894 0.006451614 0.349796861
0.959271908 0.016943000 0.373117805
0.000000000 0.234378368 0.243320689
0.006451614 0.216323867 0.299902260
0.012903227 0.197882712 0.359486848
0.021389902 0.168545216 0.420784801
0.404114425 0.134759426 0.356688201
0.624146938 0.056046817 0.352833807
0.820618033 0.026045997 0.375375569
0.970642507 0.148566797 0.407817096
0.000455925 0.338752449 0.207673118
0.006451614 0.335620910 0.270875782
0.012903227 0.324051291 0.335311204
0.022985406 0.307087839 0.398607880
0.410907507 0.260212004 0.370472312
0.634959280 0.247917324 0.371291339
0.838238895 0.248653874 0.393213570
0.981305838 0.312659264 0.431000113
0.000000000 0.456882685 0.192605793
0.006451614 0.454313755 0.258801758
0.012903227 0.452826560 0.325858623
0.115730882 0.422529578 0.357271791
0.420133293 0.407193184 0.393450528
0.651320040 0.419923663 0.392877430
0.836094975 0.439512491 0.411638856
0.986699164 0.472255111 0.442555755
0.003740919 0.586696804 0.185547844
0.007031456 0.587706387 0.259990096
0.012903227 0.584528506 0.331223667
0.205955148 0.528608799 0.335351288
0.442479253 0.542129695 0.413903117
0.642584562 0.598132968 0.467398286
0.835580111 0.620829225 0.468291283
0.977986753 0.638404250 0.483940959
0.006269316 0.731165469 0.191491187
0.008398294 0.735392928 0.274293005
0.019524664 0.731797576 0.350340843
0.254044980 0.666190982 0.349636614
0.480909437 0.684486747 0.434315115
0.638944149 0.717435122 0.486094415
0.823445916 0.769051850 0.517247796
0.982400775 0.795947134 0.534379303
0.039486799 0.865110993 0.204231724
0.045630757 0.866025031 0.286128610
0.066743515 0.857684314 0.359008104
0.285453379 0.807140470 0.372550756
0.503745437 0.818102419 0.447382271
0.651103199 0.840213418 0.496868908
0.823167741 0.896104157 0.543618858
0.982449710 0.940923333 0.606609762
0.029721614 0.027607553 0.375376999
0.077108249 0.005937775 0.439144164
0.111970671 0.000000000 0.501167536
0.128395155 0.000000000 0.540628433
0.134763598 0.000000000 0.531307876
0.522446990 0.000000000 0.467599303
0.720473170 0.000000000 0.471224904
0.918377519 0.000000000 0.497810304
0.000639697 0.133107916 0.346774250
0.012845782 0.112202704 0.402759939
0.031990800 0.081083953 0.463597447
0.081947476 0.031296469 0.522506595
0.129956126 0.009110479 0.531609237
0.534908950 0.006451614 0.472633153
0.737483203 0.006451614 0.484601051
0.936057448 0.006451614 0.518668354
0.000000000 0.233692288 0.316407919
0.006451614 0.215866610 0.373946905
0.013150586 0.199029833 0.434552133
0.030075843 0.174889252 0.506574273
0.050799072 0.133284032 0.542752326
0.551777959 0.047789179 0.494979531
0.765057445 0.022148911 0.511200488
0.962005436 0.059515059 0.550823152
0.000000000 0.350355893 0.280983776
0.006451614 0.339052677 0.347707629
0.012903227 0.327557117 0.415558130
0.019354852 0.314871669 0.485447586
0.029578254 0.280691624 0.552293539
0.560815156 0.241264820 0.516689897
0.784778357 0.235907897 0.534931362
0.975253403 0.270007879 0.571782529
0.000000000 0.470387042 0.262843341
0.006451614 0.467971921 0.332143009
0.012903227 0.465523183 0.404375255
0.019354852 0.455799252 0.472672582
0.084296674 0.433404595 0.529379427
0.565357566 0.400958925 0.532330096
0.795685172 0.412557423 0.548227131
0.983606935 0.436555862 0.577273488
0.000925878 0.601892531 0.261169136
0.006451614 0.600572407 0.335249454
0.012903227 0.598912656 0.408828139
0.021588178 0.594201207 0.471879661
0.264147460 0.562734008 0.493471682
0.571313083 0.562462747 0.554863691
0.804744184 0.580173194 0.562652707
0.978629649 0.601150513 0.582007289
0.003588945 0.749014735 0.271268457
0.006518950 0.752323449 0.351766914
0.012903227 0.751302242 0.426531076
0.062731735 0.731871247 0.478907824
0.379764915 0.692938566 0.498535931
0.586963713 0.685851991 0.562535048
0.796966136 0.751968920 0.623461783
0.977737069 0.784805119 0.643820286
0.046360742 0.877500415 0.274005413
0.049673747 0.880465925 0.354149014
0.043753654 0.881718934 0.432463825
0.140657246 0.851327598 0.474546731
0.433111936 0.821310580 0.507431626
0.616591573 0.815625787 0.567377865
0.792558253 0.873925209 0.637795091
0.980574250 0.939327359 0.706614077
0.042970579 0.026122382 0.448819011
0.099223226 0.004802413 0.514938712
0.129595369 0.000000000 0.587098300
0.145442143 0.000000000 0.640965104
0.154254049 0.000000000 0.654605031
0.261849582 0.000000000 0.628473639
0.632930696 0.000000000 0.593338966
0.853979409 0.000000000 0.621624172
0.004858991 0.131654039 0.420964122
0.021727638 0.110387765 0.476714462
0.046220798 0.073451504 0.544908345
0.115886562 0.023546221 0.616786599
0.153311744 0.006694772 0.650989115
0.287938178 0.006451614 0.631824851
0.653305113 0.006451614 0.607444108
0.878662229 0.006451614 0.643563509
0.000000000 0.233515903 0.390816778
0.006451614 0.217347711 0.447888166
0.018400975 0.201236054 0.513771772
0.043228000 0.176020771 0.593474925
0.070087284 0.127483770 0.653681099
0.294016868 0.037090626 0.653200150
0.688150287 0.013086531 0.637954354
0.910732150 0.013675726 0.674111247
0.000000000 0.354192704 0.360163927
0.006451614 0.343172133 0.429645360
0.012903227 0.333037108 0.498923898
0.019354854 0.320838094 0.571947753
0.036080424 0.291506886 0.647091806
0.245726481 0.238903761 0.681802213
0.706691325 0.200919926 0.667963147
0.931912363 0.217010349 0.699043036
0.000000000 0.482843727 0.340330482
0.006451614 0.480432361 0.414871126
0.012903227 0.473443419 0.488715321
0.019354852 0.464935422 0.560597479
0.025806461 0.450532049 0.630990565
0.202773020 0.417738050 0.698493659
0.719527066 0.394982636 0.685840011
0.945040822 0.403373420 0.709395707
0.000000000 0.615966499 0.339346677
0.006451614 0.614060223 0.414011627
0.012903227 0.617542624 0.486277312
0.019354852 0.610637367 0.556355357
0.025806461 0.600683630 0.622557938
0.283667982 0.584231734 0.675846338
0.721210480 0.555574358 0.692480803
0.950683355 0.563082755 0.708054364
0.000564411 0.766048193 0.354904056
0.006451614 0.766724825 0.432501972
0.012903227 0.765757620 0.505207539
0.019354852 0.762405455 0.571763337
0.071514912 0.744347155 0.623302639
0.449667990 0.716181874 0.645310223
0.728875577 0.717109561 0.710106015
0.960075021 0.739792407 0.726892531
0.050746508 0.891008139 0.353278011
0.048925102 0.895169675 0.433017731
0.033280946 0.898548126 0.511191726
0.020041300 0.893156826 0.578070343
0.211976260 0.854369104 0.600286424
0.531372488 0.828730881 0.631418347
0.747204542 0.844353735 0.713461220
0.965978682 0.934426308 0.808014095
0.078770265 0.013730155 0.527822196
0.124208272 0.000000000 0.599652052
0.142522633 0.000000000 0.667854428
0.158691242 0.000000000 0.733161569
0.168536589 0.000000000 0.772931695
0.174755484 0.000000000 0.770067036
0.444223106 0.000000000 0.746935666
0.768441081 0.000000000 0.749801755
0.013709978 0.131135881 0.494473100
0.034090489 0.102952860 0.558696091
0.075970933 0.054029148 0.628908873
0.150457770 0.010149973 0.701234460
0.167498827 0.006503987 0.760662258
0.175090924 0.006451614 0.774110198
0.476888537 0.006451614 0.760800838
0.797298312 0.006451614 0.772013426
0.000000000 0.235097468 0.464922965
0.009788986 0.220056772 0.527643740
0.032052521 0.201588884 0.598792493
0.058709793 0.172716200 0.675474882
0.093081295 0.127866372 0.752152264
0.141079739 0.066230550 0.785897195
0.511883378 0.012912579 0.791638851
0.833968103 0.012903227 0.802894592
0.000000000 0.359248728 0.444340467
0.006451614 0.348796666 0.513417065
0.012903227 0.338277876 0.582665443
0.022544920 0.325365603 0.656917691
0.056453016 0.306716949 0.737931788
0.086922258 0.266139656 0.800492346
0.491918147 0.152604401 0.823785126
0.856740534 0.024769375 0.821034014
0.000000000 0.494844317 0.426521629
0.006451614 0.487431109 0.500869095
0.012903227 0.480198383 0.573845923
0.019354852 0.476859003 0.650672376
0.025806461 0.469004214 0.723156512
0.040622767 0.443349689 0.797245622
0.472392440 0.387669593 0.853325605
0.876494884 0.323217630 0.847708702
0.000000000 0.629520416 0.421415955
0.006451614 0.632461369 0.496141881
0.012903227 0.629509687 0.571601212
0.019354852 0.628497183 0.648258209
0.025806461 0.620289326 0.715409815
0.032258086 0.605916142 0.779630661
0.428499103 0.572820961 0.857674003
0.885921597 0.532447577 0.856705546
0.000022445 0.781291246 0.436782539
0.006451614 0.780563235 0.510850430
0.012903227 0.782880783 0.584511459
0.019354852 0.780695319 0.654098630
0.025806461 0.765628517 0.710986495
0.051805329 0.749628901 0.764915824
0.486660928 0.733120084 0.820042133
0.887520373 0.709380507 0.860546827
0.051375933 0.905201018 0.434554994
0.038511302 0.909988642 0.514201880
0.017340897 0.914048672 0.591303825
0.019354852 0.909026742 0.656467438
0.025806461 0.901140869 0.713781595
0.243413150 0.877321482 0.743756652
0.608000040 0.866194665 0.785247207
0.904751420 0.895854473 0.884033799
