Desert Affinity Presets/Desert Affinity Preset #2.cube
TITLE "32x32x32 Adobe/IRIDAS cube 3D LUT exported with GrossGrade v0.1.027.1 (beta) 64 bit"
LUT_3D_SIZE 5
DOMAIN_MIN 0.000000 0.000000 0.000000
DOMAIN_MAX 0.903226 0.903226 0.903226
0.002087435 0.001710532 0.002957198
0.161463767 0.026662041 0.020488083
0.389210492 0.014259462 0.017361613
0.595774651 0.000861351 0.000018705
0.816583931 0.000000000 0.000000000
0.033938106 0.137654990 0.036987904
0.192205101 0.171152592 0.034008224
0.442756385 0.157279521 0.002271675
0.727316797 0.099677950 0.000000000
0.962348342 0.165447399 0.085303165
0.029189007 0.326409936 0.044776011
0.178222850 0.356376737 0.036159735
0.442842603 0.389368951 0.000667756
0.759893417 0.383525163 0.000000000
0.986904025 0.442500204 0.198914602
0.002208085 0.543876886 0.053601779
0.193100512 0.572595298 0.034468390
0.471310675 0.628448844 0.018979568
0.782222390 0.667634964 0.000061258
0.991307557 0.679100096 0.221515343
0.015663739 0.789113224 0.086531669
0.247549415 0.816953480 0.083989263
0.527304947 0.860187113 0.091689423
0.790612817 0.898701966 0.141829669
0.990018904 0.921861827 0.362743348
0.003723151 0.008071504 0.080244362
0.130586475 0.019637061 0.073560320
0.358399123 0.010263219 0.072851382
0.558965147 0.003221874 0.046578001
0.778568685 0.000000000 0.023516094
0.018127555 0.138030767 0.103988521
0.174581036 0.144337967 0.107443295
0.406825870 0.151938990 0.084853701
0.669804275 0.127672493 0.063432708
0.912394166 0.135466725 0.085993730
0.019193284 0.321334839 0.146605000
0.186016932 0.312978745 0.121937372
0.465897262 0.381056607 0.089724347
0.788492501 0.387234926 0.045747943
0.988168061 0.453653812 0.261627406
0.016402053 0.534569085 0.176595673
0.215452105 0.530468345 0.145656928
0.488679916 0.609071732 0.156231135
0.807557523 0.670893729 0.085195497
0.991969109 0.686081886 0.281598836
0.030965026 0.779162347 0.231774583
0.272714525 0.778078496 0.200221419
0.546448171 0.837329745 0.215408608
0.811864257 0.897103369 0.238531068
0.989968002 0.928345621 0.405272931
0.007270478 0.012280502 0.160336152
0.094447806 0.004971684 0.159337372
0.315412343 0.009240543 0.145886436
0.532339990 0.000141220 0.135048017
0.761736035 0.000000000 0.127930149
0.000112228 0.146735355 0.187695459
0.140556604 0.140481442 0.181076750
0.351009399 0.148080543 0.180703312
0.618233681 0.120944448 0.187607795
0.869890869 0.112659492 0.208289757
0.000596212 0.332388014 0.246405810
0.289516836 0.277687311 0.137469634
0.444422096 0.340870231 0.233575940
0.739421725 0.365197659 0.241601363
0.981221139 0.417320162 0.295554310
0.000000000 0.541484416 0.304710090
0.232989892 0.507276356 0.258129001
0.495130539 0.573077559 0.294915944
0.816588938 0.664789319 0.296981007
0.992871165 0.684298396 0.375778586
0.000029460 0.786002159 0.384853661
0.297549069 0.752931416 0.327483833
0.563154817 0.806869209 0.355098575
0.814332306 0.881993115 0.389138788
0.990101457 0.933017671 0.489407003
0.018879008 0.010417964 0.261507303
0.031785417 0.014373088 0.282790571
0.271859616 0.000000000 0.238108262
0.488490522 0.000332008 0.233948275
0.731443822 0.000000000 0.257542312
0.000191722 0.146499529 0.321240425
0.012083868 0.158367693 0.339641988
0.295329541 0.149260908 0.274519175
0.569736660 0.116723284 0.303975105
0.838815868 0.072749503 0.356029063
0.000000000 0.327162802 0.365021169
0.203736410 0.284457713 0.255332232
0.427006096 0.323791057 0.320468664
0.674435914 0.353316247 0.384404421
0.941269517 0.393657118 0.443488747
0.000000000 0.547046781 0.423817575
0.168952838 0.526814044 0.388603956
0.709098339 0.497580022 0.207195848
0.780277550 0.622010350 0.474032909
0.994103193 0.660524666 0.521492124
0.000000000 0.787311733 0.506947100
0.242259130 0.765006185 0.479940861
0.574964643 0.787816644 0.495696902
0.802767515 0.846559346 0.533752859
0.990696073 0.935376525 0.616441667
0.054478578 0.000276828 0.375717312
0.071077764 0.000062661 0.390942752
0.123683244 0.000786528 0.395611733
0.441348702 0.000000000 0.337415159
0.681862831 0.000000000 0.375412822
0.003936852 0.134483621 0.415683478
0.015058840 0.148205400 0.434468627
0.178591177 0.145727903 0.421206981
0.525231183 0.132427767 0.424837619
0.791030169 0.069625340 0.481289655
0.000000000 0.319231153 0.475130290
0.011290320 0.341851115 0.505056083
0.292426288 0.339563370 0.495608121
0.620318472 0.367892176 0.511201322
0.894141436 0.383922487 0.573686481
0.000000000 0.545937598 0.544726729
0.011290320 0.570822716 0.579458952
0.594669998 0.532380402 0.432375848
0.772143483 0.591101706 0.552670419
0.974686563 0.636005402 0.637176991
0.000000000 0.798112154 0.627342522
0.034893211 0.813982487 0.653105438
0.557660699 0.777003646 0.587245703
0.981588423 0.741508245 0.447246343
0.992760599 0.906389534 0.741415739
