Desert Affinity Presets/Desert Affinity Preset #22.cube
TITLE "32x32x32 Adobe/IRIDAS cube 3D LUT exported with GrossGrade v0.1.027.1 (beta) 64 bit"
LUT_3D_SIZE 5
DOMAIN_MIN 0.000000 0.000000 0.000000
DOMAIN_MAX 0.903226 0.903226 0.903226
0.002087435 0.001710532 0.002957198
0.180238932 0.026432449 0.021073077
0.431467116 0.006640606 0.013415904
0.662032664 0.000000000 0.000000000
0.896043539 0.000000000 0.019765571
0.022922972 0.147711754 0.036195274
0.293501794 0.127293929 0.060899377
0.420641661 0.156798556 0.016846281
0.635349035 0.155154392 0.000000000
0.880773485 0.136439756 0.003294346
0.011929776 0.343035191 0.039100092
0.379433572 0.310541153 0.016823366
0.715764880 0.274798214 0.109808587
0.894676805 0.334612489 0.121256523
0.983598053 0.420905650 0.128584504
0.003947601 0.565774024 0.027693547
0.396494597 0.546197295 0.015247546
0.872540116 0.527724922 0.085539490
0.981541574 0.556538939 0.368068606
0.993521214 0.578741908 0.390446991
0.024909385 0.820440829 0.063456349
0.421339750 0.801112831 0.030672282
0.937207043 0.769297481 0.084001578
0.981114805 0.756770313 0.359008342
0.993277371 0.751333237 0.481974900
0.010276306 0.002015887 0.159484684
0.174433559 0.001851757 0.115551993
0.448009163 0.000006547 0.094904594
0.709608912 0.000000000 0.055229329
0.950821936 0.049814072 0.093209952
0.000374560 0.130791366 0.252702683
0.137146831 0.137870431 0.129825890
0.405072659 0.146250129 0.100696057
0.694965541 0.105359010 0.073713228
0.952275932 0.148732111 0.111423418
0.000000000 0.317682296 0.315689683
0.105385162 0.321826667 0.145312294
0.569045365 0.312176168 0.215414345
0.737550557 0.377974898 0.156022355
0.952328324 0.429449826 0.152413726
0.000000000 0.551960468 0.350363165
0.086941466 0.563222826 0.178512394
0.702355623 0.572639346 0.185331002
0.979324281 0.583275080 0.437213451
0.994178951 0.627806008 0.443294317
0.001512266 0.818478882 0.409031123
0.067998454 0.838171780 0.249202996
0.720346928 0.820836723 0.224759445
0.981131077 0.802749515 0.445966601
0.993393421 0.796702802 0.589764178
0.062997095 0.000000000 0.377958000
0.067090370 0.000000000 0.356591880
0.370839745 0.000000000 0.258220196
0.676386476 0.000000000 0.266802102
0.954215467 0.013109120 0.286752075
0.014915528 0.085794024 0.423031688
0.014679600 0.124584861 0.368509352
0.340136141 0.122647822 0.275356978
0.696312010 0.014283059 0.287833720
0.970037520 0.135323122 0.332360387
0.002847774 0.255377114 0.542658627
0.011290320 0.310850292 0.463596135
0.336918294 0.327747077 0.310695708
0.707663000 0.350311130 0.313360006
0.980968773 0.405310720 0.358678073
0.000000000 0.497791171 0.664640248
0.011290320 0.558690429 0.566660345
0.344493538 0.561912656 0.355809450
0.866077960 0.599096596 0.516356349
0.992694378 0.674178541 0.486705959
0.000000000 0.765835583 0.752984703
0.011290320 0.833660841 0.638004780
0.339222640 0.811305106 0.412790895
0.959770620 0.845083773 0.504085958
0.993809462 0.842918754 0.700407505
0.114936687 0.000000000 0.572240233
0.119353116 0.000000000 0.537928283
0.131543845 0.000000000 0.523714721
0.583922505 0.000000000 0.478552401
0.906039476 0.000000000 0.530730963
0.115930319 0.016231149 0.618812084
0.065667860 0.050512016 0.562169015
0.067274831 0.068518035 0.535897434
0.605204284 0.012225552 0.506811738
0.943550825 0.016754879 0.578079760
0.051157564 0.205536142 0.731747389
0.031938337 0.267778844 0.652207792
0.053992689 0.309944570 0.591365039
0.614006817 0.319399595 0.551743507
0.971508086 0.340921104 0.613216698
0.049316101 0.460715324 0.886461735
0.012854960 0.513689995 0.806421995
0.022580640 0.560340881 0.720585048
0.609543443 0.598151207 0.588999450
0.974205732 0.635688722 0.611992657
0.000550384 0.718653023 0.927767396
0.011290320 0.766027868 0.919083655
0.022580640 0.818706155 0.817744017
0.610388994 0.817624867 0.614461899
0.994453967 0.888438165 0.809478164
0.143506959 0.000000000 0.782271683
0.151097775 0.000000000 0.738559842
0.159491062 0.000000000 0.713798881
0.437330753 0.000000000 0.697456181
0.817497909 0.000000000 0.728873193
0.147406131 0.011290320 0.830692708
0.154145733 0.011342693 0.774537325
0.161340714 0.012714206 0.738365591
0.477667689 0.011290320 0.734446347
0.862023056 0.011290320 0.780735493
0.086955369 0.162379637 0.870854318
0.089141265 0.221363053 0.863733232
0.080227777 0.266872913 0.810259521
0.475856423 0.270539641 0.801555812
0.892172396 0.190930411 0.825283229
0.056818061 0.442358136 0.909392178
0.060426425 0.489623070 0.915532649
0.058938630 0.533124030 0.910794139
0.461825907 0.572696626 0.863749325
0.899649978 0.578944683 0.850169718
0.001809671 0.694985807 0.936914742
0.011455858 0.734202743 0.940480053
0.022580640 0.770272315 0.943685234
0.110118650 0.815471172 0.965009570
0.904751480 0.895854533 0.884033799
