Desert Affinity Presets/Desert Affinity Preset #22.cube
TITLE "32x32x32 Adobe/IRIDAS cube 3D LUT exported with GrossGrade v0.1.027.1 (beta) 64 bit"
DOMAIN_MIN 0 0 0
DOMAIN_MAX 1 1 1
LUT_3D_SIZE 32
0.002087435 0.001710532 0.002957198
0.028374534 0.006430648 0.006470392
0.054085538 0.011306955 0.009845665
0.078501664 0.015445297 0.012656923
0.102449767 0.019115189 0.015241941
0.126478329 0.021910068 0.017363014
0.152117342 0.024319250 0.019338243
0.180238932 0.026432449 0.021073077
0.211722776 0.027872698 0.022434777
0.246674970 0.027846973 0.022860784
0.285244226 0.025660405 0.022314614
0.323634148 0.021287730 0.021094589
0.362207204 0.015491149 0.019104417
0.398942769 0.009788599 0.016501222
0.431467116 0.006640606 0.013415904
0.461115569 0.005660016 0.009787666
0.489670217 0.006281009 0.005814798
0.519095600 0.006683159 0.002252508
0.552924514 0.003942934 0.000429739
0.589521289 0.001081125 0.000039280
0.626038790 0.000164601 0.000000000
0.662032664 0.000000000 0.000000000
0.697219253 0.000000000 0.000000000
0.730777800 0.000000000 0.000000000
0.763769686 0.000000000 0.000000000
0.796992421 0.000000000 0.000000000
0.829772592 0.000000000 0.000097264
0.862700343 0.000000000 0.005507101
0.896043539 0.000000000 0.019765571
0.929371536 0.003241038 0.044871330
0.957600415 0.059802752 0.072750628
0.971558928 0.134450644 0.121158250
0.007352776 0.024433454 0.010288450
0.036788750 0.022498425 0.016773351
0.051656201 0.028104696 0.015585659
0.072062157 0.031495348 0.015188161
0.095285408 0.033320040 0.016049944
0.118649378 0.035199802 0.017439237
0.142688453 0.036744833 0.019036632
0.169094220 0.038726136 0.020619508
0.199095562 0.040160745 0.022196278
0.232505053 0.040754661 0.023108115
0.269614488 0.039304119 0.022953853
0.308715641 0.035807729 0.021895168
0.347140938 0.030240772 0.020003662
0.384180486 0.023959782 0.017379420
0.419066727 0.018655157 0.014230493
0.450502783 0.015682040 0.010686423
0.480371118 0.014499913 0.006837942
0.509828806 0.014168395 0.002942712
0.542823672 0.011115799 0.000685993
0.579409063 0.006102005 0.000106616
0.616567433 0.003015749 0.000000000
0.653191268 0.001804627 0.000000000
0.688933671 0.001612904 0.000000000
0.722938061 0.001612904 0.000000000
0.756140649 0.001612904 0.000000000
0.789682031 0.001612904 0.000000000
0.822802126 0.001612904 0.000000000
0.856049359 0.001612904 0.003794230
0.889709711 0.001618515 0.015666025
0.923435032 0.003528717 0.039931010
0.952747107 0.050172381 0.067546062
0.970580041 0.122724354 0.111206874
0.012481571 0.046429724 0.016996885
0.046172425 0.041292485 0.018149981
0.072120436 0.039717525 0.025964821
0.088032074 0.043238711 0.025991010
0.100739680 0.047909223 0.022331420
0.119076759 0.050693393 0.020774297
0.139704555 0.052665845 0.021230645
0.163500383 0.054429237 0.022379581
0.191453233 0.056338020 0.023427989
0.222545862 0.057554759 0.024063036
0.257115602 0.057103053 0.023658054
0.294533610 0.054375421 0.022327198
0.332290560 0.049335461 0.020385668
0.369385451 0.043314919 0.017774075
0.404555202 0.037263062 0.014648508
0.437535882 0.032691635 0.011311133
0.469081908 0.029665196 0.007627286
0.499879271 0.027885944 0.003698374
0.532467663 0.024657540 0.001000228
0.568726659 0.018538333 0.000145896
0.606113315 0.012567825 0.000000000
0.643121064 0.006535597 0.000000000
0.679455578 0.003482061 0.000000000
0.714186966 0.003227678 0.000000000
0.747808576 0.003225807 0.000000000
0.781568706 0.003225807 0.000000000
0.815157950 0.003225807 0.000000000
0.848660290 0.003225807 0.001925643
0.882412493 0.003371703 0.010947793
0.916625738 0.005533479 0.034189668
0.947466075 0.040868346 0.061811659
0.969391525 0.108985320 0.099229090
0.016420778 0.066107057 0.021718888
0.048921537 0.061302748 0.020118700
0.083237514 0.057447776 0.026691468
0.108438075 0.056151062 0.033140365
0.126635954 0.058583155 0.034356162
0.139941216 0.064776197 0.029169809
0.153038695 0.070151478 0.026944915
0.171835780 0.074050412 0.026155571
0.195179820 0.077096954 0.026078902
0.223012224 0.079213381 0.026191570
0.254946411 0.080064453 0.025734268
0.288802832 0.079007633 0.024065336
0.322659254 0.075922281 0.021091793
0.357279480 0.071550094 0.017708611
0.390859723 0.066658340 0.014323492
0.423559099 0.061937775 0.011043652
0.456044316 0.057620272 0.007521593
0.489072472 0.053933155 0.003957433
0.523238063 0.049832173 0.001177457
0.559354544 0.043566603 0.000130465
0.597055435 0.035940718 0.000000000
0.634507895 0.024581909 0.000000000
0.671527624 0.011109915 0.000000000
0.707119823 0.005221688 0.000000000
0.741154194 0.004852273 0.000000000
0.775217891 0.004838713 0.000000000
0.809083402 0.004838713 0.000000000
0.842929363 0.004838713 0.001021273
0.876825154 0.004838713 0.008500770
0.911632001 0.012377590 0.029857149
0.943828106 0.040214278 0.057567123
0.967967272 0.104355529 0.092261456
0.019976510 0.084741138 0.025839485
0.050371155 0.080555059 0.022737792
0.089007929 0.077195704 0.027391011
0.122340314 0.075007714 0.032873359
0.147817448 0.073967792 0.040191986
0.169082865 0.075965896 0.043928690
0.185446382 0.082009323 0.039611675
0.198639259 0.089003496 0.034565177
0.215354726 0.094573647 0.031117942
0.236816093 0.098207548 0.029227354
0.262902886 0.100268796 0.027501879
0.291705757 0.100553960 0.025221283
0.321196467 0.099145561 0.022088258
0.352542609 0.096732669 0.018493243
0.384424955 0.093539745 0.014648519
0.416606814 0.090191677 0.010701356
0.448571920 0.086961381 0.006760317
0.481450647 0.083919086 0.003502911
0.516684115 0.080440067 0.000928219
0.553917229 0.075436056 0.000035071
0.591201663 0.069394507 0.000005144
0.628367782 0.057715811 0.000000000
0.665473580 0.038652051 0.000000000
0.702052832 0.017176352 0.000000000
0.736806870 0.009279278 0.000000000
0.771182179 0.008601707 0.000000000
0.805465460 0.008666240 0.000000000
0.839430213 0.008920619 0.000671495
0.873478413 0.009324646 0.006911349
0.909180284 0.029517179 0.027063666
0.942579269 0.057362709 0.055182315
0.967525125 0.113096498 0.089362204
0.021682356 0.104107954 0.028436169
0.051052451 0.100156136 0.025276002
0.092285447 0.097605824 0.028437983
0.132742152 0.095520191 0.032454383
0.165598512 0.093672149 0.039772533
0.193717808 0.092855848 0.049621955
0.218114451 0.094142660 0.053916495
0.237508819 0.098567635 0.050624501
0.252327085 0.105652772 0.042848513
0.267740637 0.112261198 0.035780996
0.285315752 0.116518527 0.030363658
0.305618286 0.118456870 0.026085904
0.329633564 0.119087793 0.022305232
0.356216282 0.118880294 0.018552613
0.384859800 0.117768280 0.014792543
0.414787859 0.116282754 0.010945015
0.445516080 0.114358112 0.006744886
0.478002757 0.112553976 0.003341114
0.513395131 0.110339493 0.000923073
0.551660895 0.106885873 0.000019640
0.589752018 0.101812996 0.000000000
0.626510978 0.092820652 0.000000000
0.662993312 0.076931611 0.000000000
0.699693561 0.053310934 0.000000000
0.735573888 0.035812315 0.000000000
0.770483196 0.030695226 0.000000000
0.805068314 0.030914070 0.000000000
0.839297235 0.033341914 0.000471824
0.873752296 0.037775882 0.005755402
0.909447908 0.055213176 0.025780061
0.943280339 0.089384586 0.054209203
0.968256772 0.133121297 0.088538736
0.023346186 0.124758385 0.032268751
0.051328328 0.120806083 0.028307045
0.094240062 0.118502192 0.030368296
0.138419494 0.117758177 0.033729978
0.180222005 0.115373716 0.038264014
0.213588268 0.113149703 0.048586160
0.242986187 0.110985175 0.056925148
0.270821691 0.110763818 0.060366802
0.291189730 0.113528870 0.057056066
0.306525886 0.119215362 0.049094878
0.319626451 0.125847772 0.039320797
0.333813608 0.131425261 0.030538516
0.351173460 0.135216773 0.024218259
0.372279227 0.137647554 0.018776134
0.396414518 0.139063135 0.014394579
0.422642678 0.139706060 0.010379171
0.450843394 0.139814734 0.006295973
0.481891841 0.139528632 0.003080184
0.516707361 0.138734490 0.001004905
0.554534733 0.136856481 0.000168342
0.592332602 0.133021489 0.000030863
0.628633916 0.125664547 0.000000000
0.664524078 0.114101395 0.000000000
0.700731635 0.098624326 0.000000000
0.737111568 0.082201660 0.000000000
0.772991955 0.073127232 0.000000000
0.807902753 0.072504275 0.000000000
0.842248619 0.077332877 0.000483982
0.876587212 0.087777652 0.004614887
0.912393689 0.105307437 0.025319910
0.945552349 0.128872305 0.054324247
0.970104635 0.161910743 0.089296289
0.022922972 0.147711754 0.036195274
0.050880864 0.143199831 0.031167015
0.095505916 0.140532926 0.032566097
0.141838416 0.140769586 0.036054034
0.190072164 0.138386637 0.037795473
0.229886070 0.134649262 0.045298349
0.264126390 0.131058082 0.054435551
0.293501794 0.127293929 0.060899377
0.319745094 0.125845551 0.063619025
0.341911316 0.128055930 0.061306197
0.359602869 0.133226022 0.054166634
0.373193294 0.140101269 0.044054948
0.386179537 0.146750361 0.033571482
0.401598513 0.152384996 0.024156995
0.420641661 0.156798556 0.016846281
0.442154706 0.160301700 0.010861296
0.467337966 0.162801370 0.005915334
0.496737123 0.164448053 0.002734148
0.529492974 0.165021315 0.000850592
0.565082133 0.163850725 0.000077156
0.600688219 0.160661891 0.000005144
0.635349035 0.155154392 0.000000000
0.669900119 0.147121131 0.000000000
0.705049992 0.137208253 0.000000000
0.740815639 0.128904670 0.000000000
0.777044177 0.125016138 0.000000000
0.812416255 0.125303581 0.000000000
0.846600592 0.128917754 0.000516715
0.880773485 0.136439756 0.003294346
0.916284144 0.148957983 0.025764171
0.948926568 0.167172492 0.055247307
0.972761273 0.194160447 0.090766922
0.022500265 0.172357082 0.039266605
0.048810206 0.167662457 0.033916585
0.096208304 0.164402366 0.034351498
0.143976986 0.164692357 0.037892714
0.196014881 0.163731873 0.038943954
0.241666257 0.156975389 0.040291570
0.279708266 0.151479930 0.049340397
0.312477142 0.146973088 0.056920953
0.343495816 0.143735915 0.063757464
0.370318651 0.142892033 0.067197271
0.393545717 0.144911110 0.066018820
0.413877308 0.149670735 0.060008097
0.429870278 0.156825766 0.049963765
0.443671912 0.164656103 0.038458537
0.458119839 0.171728149 0.027748303
0.476095825 0.177809879 0.018459110
0.498287559 0.182837665 0.010779009
0.524100900 0.186304733 0.005549193
0.553232968 0.188133866 0.002708894
0.584721923 0.188234583 0.000844044
0.616626918 0.186371848 0.000352113
0.648378491 0.182731420 0.000112228
0.680611908 0.177452832 0.000037409
0.713908434 0.172594070 0.000000000
0.748089731 0.169103965 0.000000000
0.783050239 0.168802038 0.000000000
0.817818701 0.170679107 0.000000000
0.852021515 0.174482673 0.000675704
0.886170924 0.181558892 0.003468301
0.921243727 0.192057207 0.027340937
0.953123033 0.206497073 0.056649189
0.975866258 0.229239330 0.093149848
0.023436880 0.198422328 0.041428842
0.046057370 0.194216639 0.036302406
0.095867395 0.190371722 0.036098491
0.144485921 0.190051138 0.039693534
0.198217958 0.189499840 0.040433310
0.249581456 0.181832135 0.036311269
0.292332917 0.174064294 0.042989720
0.329468161 0.168771058 0.051722933
0.362943530 0.165297806 0.060045518
0.394223809 0.162731290 0.067330949
0.423318535 0.162465453 0.071970649
0.449602246 0.164399818 0.072175935
0.474163145 0.168771103 0.067584880
0.494926482 0.175428942 0.058444452
0.511713207 0.183398902 0.046703070
0.527291775 0.190867826 0.034271538
0.544466376 0.197503895 0.023112819
0.564700484 0.202852428 0.014332439
0.587873757 0.206447095 0.008186546
0.613525271 0.208473146 0.004157095
0.640588880 0.208917812 0.001661903
0.668438196 0.207876712 0.000719661
0.697800517 0.206350729 0.000195463
0.728727698 0.205779105 0.000050035
0.760890961 0.206480041 0.000021043
0.793789446 0.208729237 0.000096796
0.827299654 0.212548003 0.000172550
0.860786021 0.217655510 0.000786995
0.894219339 0.224921867 0.005945724
0.928151429 0.234508097 0.030511387
0.958467364 0.246582732 0.059066765
0.978860199 0.266407281 0.097896732
0.023710903 0.226686656 0.042658661
0.041915264 0.223391086 0.038250454
0.093416117 0.218654022 0.037080508
0.144132644 0.217421994 0.040172331
0.196456119 0.214887947 0.041379757
0.252217084 0.207735509 0.034421623
0.302602768 0.198954538 0.035531256
0.344380796 0.193023816 0.045040216
0.381460190 0.189001322 0.054502402
0.416055262 0.185993806 0.063751377
0.450234264 0.183805108 0.072514042
0.484947532 0.182977363 0.078647725
0.516658783 0.183712929 0.080589294
0.543945670 0.186425447 0.077013396
0.566447258 0.191478655 0.068734780
0.584500909 0.198445573 0.057318412
0.600044250 0.206325620 0.043576140
0.615747631 0.214006335 0.029616898
0.632915795 0.220540196 0.017274678
0.652079880 0.225333244 0.008673321
0.673619986 0.228930801 0.002859937
0.697440863 0.231606707 0.000795416
0.723423362 0.234360367 0.000151040
0.751292288 0.237935007 0.000039747
0.780587852 0.241682276 0.000178161
0.811018586 0.246275932 0.000563476
0.842503428 0.251854569 0.001856899
0.874581635 0.258476257 0.002002792
0.906676471 0.266247809 0.012952460
0.938566387 0.275394112 0.037536819
0.966517150 0.286452532 0.064909168
0.981703341 0.305662066 0.107758895
0.023974610 0.256540388 0.042875133
0.037765153 0.253921568 0.039172560
0.087991357 0.247938648 0.037266593
0.140791029 0.245197698 0.039261404
0.193486601 0.241750121 0.041519083
0.250681639 0.235084608 0.036347255
0.309605449 0.226794675 0.027834775
0.357142299 0.219751909 0.036853205
0.399082392 0.214931682 0.047015447
0.437300414 0.211345807 0.057998296
0.476421833 0.207663655 0.068891898
0.516089976 0.204158872 0.079281352
0.552699924 0.201566964 0.086296499
0.585190296 0.200650215 0.089342415
0.612463951 0.202140823 0.087308407
0.635096073 0.206344992 0.080183841
0.653841257 0.213263392 0.069596097
0.669759035 0.222345263 0.056222796
0.684740186 0.231557637 0.041311007
0.700119317 0.240333423 0.025964342
0.717205882 0.248193085 0.013512182
0.736495137 0.255704314 0.005820395
0.758412778 0.262587845 0.002613966
0.782463968 0.269342810 0.000667287
0.808288157 0.275701880 0.000988539
0.835651934 0.282475382 0.003237763
0.864452183 0.289603174 0.006810823
0.893762946 0.297251135 0.010562031
0.923715949 0.305797279 0.026830787
0.952504337 0.315036744 0.049553126
0.976375759 0.326293916 0.077496886
0.984819174 0.345899493 0.125130549
0.022414688 0.286827594 0.042304635
0.034624651 0.284705102 0.039066438
0.080240123 0.278239578 0.036756869
0.134460047 0.273058355 0.037103381
0.189936534 0.269491494 0.039856251
0.248088643 0.263193756 0.038085401
0.311662853 0.256126553 0.025888599
0.366972953 0.248931736 0.027280645
0.415645123 0.243251115 0.037554659
0.458669543 0.238529056 0.050100278
0.501318634 0.233696520 0.062887706
0.543599963 0.229024813 0.074779637
0.583814204 0.224089354 0.086430229
0.619502127 0.220455185 0.095496267
0.650715053 0.219041824 0.100145288
0.678037941 0.221491054 0.100190051
0.701926410 0.226999342 0.094894946
0.722319007 0.235672638 0.085890047
0.739576399 0.246728182 0.073991209
0.755169213 0.258477062 0.060012311
0.770047009 0.269917130 0.045347929
0.785532832 0.280642688 0.032442644
0.802776158 0.290477455 0.021762319
0.822360694 0.299764246 0.014211291
0.844178259 0.308641553 0.011777826
0.867878675 0.317454338 0.014967391
0.893214166 0.326205224 0.021442953
0.919425666 0.335023969 0.032330476
0.945700765 0.344076931 0.048377097
0.969160736 0.354003519 0.069580153
0.983600259 0.367576569 0.102251470
0.988147140 0.387420565 0.155383572
0.017796500 0.315550327 0.040690895
0.028230496 0.314290613 0.037696324
0.070455782 0.308001429 0.034803666
0.126815796 0.302686632 0.034645155
0.185579106 0.298710763 0.036921520
0.245157406 0.292047173 0.038332764
0.310317218 0.285861075 0.028249096
0.374874830 0.279328704 0.018600807
0.429881096 0.273062408 0.026704580
0.479432911 0.267217338 0.039966606
0.525233448 0.261652648 0.054956459
0.569277227 0.255752355 0.068566419
0.610943317 0.250333995 0.082048707
0.649834156 0.245808482 0.095970109
0.684837401 0.244114235 0.107282907
0.716677010 0.245475084 0.115201376
0.745082319 0.250921190 0.118391506
0.770206213 0.259227008 0.116045937
0.791842401 0.269566119 0.109178983
0.809979558 0.281310648 0.098393224
0.825668871 0.293826103 0.085894674
0.840168357 0.306202859 0.073516890
0.854596436 0.318271548 0.061913148
0.870231628 0.329794168 0.052715182
0.887765765 0.340793371 0.047323592
0.907245576 0.351447254 0.047405377
0.928239405 0.361611187 0.052991986
0.950196683 0.371373594 0.063097678
0.969056189 0.381680816 0.078243658
0.981979907 0.394004643 0.104187444
0.987480819 0.409826964 0.145334899
0.991277516 0.429617137 0.203602523
0.011929776 0.343035191 0.039100092
0.020386755 0.342824012 0.036457617
0.058795363 0.338275254 0.032705005
0.118530780 0.333080024 0.032229442
0.179925308 0.329034418 0.033411585
0.242267728 0.322218895 0.035592988
0.308122277 0.315607250 0.032045186
0.379433572 0.310541153 0.016823366
0.443810165 0.304783463 0.016077574
0.497635096 0.297590137 0.028753202
0.547216952 0.290749907 0.045281507
0.593583584 0.284321249 0.060986359
0.636747956 0.278906643 0.076303564
0.676754534 0.275989234 0.092980720
0.715764880 0.274798214 0.109808587
0.751562119 0.276994348 0.125803858
0.783610702 0.281467974 0.138053477
0.812552035 0.288435847 0.145041272
0.838330746 0.297832966 0.145532936
0.860450089 0.309125036 0.141003132
0.879075706 0.321673632 0.132142842
0.894676805 0.334612489 0.121256523
0.908648491 0.347562939 0.110648185
0.922175765 0.360344797 0.101706445
0.936275303 0.372601569 0.095650882
0.949752748 0.384748638 0.094072364
0.962593913 0.396491319 0.098135874
0.974504530 0.408084840 0.108246855
0.983598053 0.420905650 0.128584504
0.987626493 0.436368078 0.165206403
0.990758777 0.452593535 0.210417837
0.993555605 0.466475964 0.248460382
0.005417791 0.369485021 0.037134737
0.010374633 0.369873375 0.035930157
0.041878425 0.367956161 0.032078829
0.110427894 0.363449395 0.029457411
0.173081532 0.359665334 0.029616399
0.239064544 0.353554010 0.030922901
0.306672037 0.346638978 0.032797109
0.381924480 0.342916995 0.020741064
0.455666035 0.337949544 0.008975862
0.513838291 0.329905421 0.018133182
0.567079663 0.321726799 0.034293972
0.616707802 0.315054387 0.051719185
0.661176562 0.310236126 0.069525942
0.702896416 0.308783561 0.088671699
0.743540406 0.309604436 0.108874500
0.782447159 0.311814040 0.131413370
0.818002760 0.315874517 0.152600601
0.850138009 0.322118193 0.169013977
0.878890157 0.330716074 0.180214643
0.904115975 0.341076255 0.184958547
0.925443172 0.352877408 0.183568269
0.941790640 0.365793467 0.177964121
0.952780008 0.379384428 0.170153275
0.961443126 0.393492579 0.163935766
0.969751894 0.407046348 0.159958273
0.976744413 0.421467483 0.164325356
0.981901944 0.435751975 0.174429595
0.985260367 0.450010300 0.191640571
0.987989008 0.463789344 0.214683652
0.990481257 0.475650430 0.236950040
0.992878437 0.486676157 0.259206414
0.994810879 0.493046492 0.264623791
0.000996021 0.398960501 0.035451312
0.003023230 0.399935693 0.035355937
0.026925009 0.398315936 0.032579187
0.101790585 0.393736035 0.026817229
0.164468169 0.390345395 0.026307577
0.235344261 0.385043383 0.026458602
0.306383073 0.379251868 0.030748064
0.383746713 0.375796378 0.024581591
0.463840216 0.371988475 0.007329869
0.527786314 0.363544047 0.009865265
0.585341632 0.354832381 0.023553748
0.638360918 0.348378599 0.040300034
0.685393929 0.345029026 0.061557814
0.728273034 0.344251156 0.083834991
0.769715607 0.345838666 0.106746063
0.810038745 0.348629743 0.132700533
0.848374188 0.352736622 0.160802320
0.883265138 0.358789235 0.186861649
0.913972139 0.366484314 0.207614020
0.939024210 0.375886351 0.222373486
0.955319941 0.386903256 0.231025815
0.967141151 0.400293380 0.237064838
0.974412024 0.417290688 0.247078508
0.978333533 0.434243023 0.254233778
0.981166065 0.449322879 0.258147061
0.983519077 0.461214930 0.257517129
0.985742867 0.473273218 0.261300683
0.987976015 0.484947383 0.268316388
0.990146518 0.495567739 0.276047051
0.992058456 0.503050625 0.275575191
0.993870258 0.509179294 0.272611618
0.995611072 0.514875412 0.270048201
0.000000000 0.432804644 0.034312181
0.002058073 0.433957845 0.034201361
0.021794785 0.432427675 0.031849276
0.093257248 0.425846159 0.025113743
0.156033278 0.421457142 0.024063498
0.231805384 0.417133749 0.023454638
0.306704670 0.412757874 0.027060900
0.385052741 0.408920556 0.029235324
0.467838198 0.406061769 0.011033832
0.539142370 0.397753417 0.005237760
0.601438701 0.389840007 0.013991503
0.658358693 0.384128988 0.027740348
0.708002448 0.381763279 0.051228657
0.752422452 0.381245226 0.078369036
0.794357002 0.382553160 0.103597961
0.835546970 0.386136860 0.132313728
0.875289619 0.390763909 0.164705038
0.911939800 0.396389544 0.198260888
0.941393316 0.403477401 0.227209061
0.959262252 0.412141502 0.250497133
0.970821142 0.426406205 0.277739197
0.976002097 0.443096161 0.301569045
0.979049444 0.455710232 0.312677115
0.981367767 0.468285590 0.320379853
0.983507574 0.479988933 0.323460788
0.985449255 0.489408016 0.318590432
0.987271309 0.497507453 0.309704781
0.989123523 0.505611777 0.301416397
0.990951657 0.513503671 0.293855608
0.992759645 0.521110415 0.287532032
0.994505644 0.528259516 0.282384664
0.996195376 0.535078585 0.278104842
0.000000000 0.467615277 0.032903720
0.002059008 0.468790323 0.032773279
0.020858636 0.468041033 0.030523140
0.086346790 0.461464852 0.023988223
0.151166201 0.454492897 0.022007836
0.228923067 0.450426221 0.020878527
0.308044881 0.446889699 0.023448091
0.387066066 0.443201184 0.027918994
0.469558120 0.439884841 0.019190935
0.547657669 0.432824165 0.003608117
0.615607262 0.425651401 0.005929830
0.676238954 0.421527505 0.015267181
0.728365123 0.419258952 0.038861156
0.774141431 0.418322802 0.070324153
0.817035198 0.419452101 0.099529654
0.858732104 0.423063099 0.131011695
0.899200201 0.428047240 0.166517943
0.934948683 0.433634132 0.204660118
0.957383037 0.440455973 0.241246700
0.970840216 0.452923536 0.283666998
0.975845218 0.467533559 0.320406616
0.978606761 0.476974398 0.339646816
0.980732441 0.486410201 0.352586120
0.982575536 0.492464423 0.353421628
0.984373569 0.498387694 0.348925322
0.986190736 0.505180299 0.342155427
0.988024235 0.512940049 0.333221853
0.989829838 0.521155477 0.323745728
0.991604567 0.529413521 0.313976228
0.993349731 0.537600040 0.305107862
0.995051920 0.545757473 0.297060907
0.996725142 0.553652227 0.290138721
0.000008885 0.500526309 0.031233437
0.002010375 0.501854002 0.030846272
0.019416487 0.501486301 0.028816819
0.081139974 0.496753097 0.022961807
0.150515914 0.488790870 0.020051323
0.227015942 0.484474063 0.018255236
0.309356183 0.481264502 0.019597309
0.390017092 0.477693170 0.024082197
0.471264750 0.474216044 0.023554740
0.553103387 0.468891412 0.006361434
0.627857566 0.462596089 0.001399106
0.692125976 0.459366798 0.004329645
0.746426225 0.456617475 0.024732640
0.793736994 0.455189437 0.060853537
0.837568998 0.455932707 0.094786339
0.879802883 0.459210068 0.128465816
0.920263231 0.464166641 0.167518765
0.949977100 0.469967932 0.209446713
0.968097746 0.479281574 0.259248435
0.974837542 0.492606759 0.313318789
0.977816939 0.499434680 0.341246426
0.979884803 0.506501734 0.361857504
0.981623411 0.508951306 0.367161810
0.983375311 0.512347519 0.369462579
0.985145926 0.516985357 0.368408889
0.986932337 0.522594333 0.364309281
0.988728583 0.529204547 0.357775301
0.990524352 0.536821604 0.348971456
0.992275417 0.544986248 0.338720024
0.993969142 0.553497076 0.328204989
0.995646417 0.562223256 0.317899495
0.997231603 0.570737362 0.308179319
0.000201542 0.532650232 0.029439667
0.002115121 0.534139097 0.028409041
0.016313404 0.534279168 0.026937004
0.075205952 0.530590594 0.021976983
0.151870444 0.523417115 0.018145343
0.225271598 0.518180251 0.015479019
0.310692668 0.515310407 0.015543099
0.393160254 0.511975586 0.020047614
0.474571735 0.508885622 0.024050381
0.556732595 0.505698860 0.012046214
0.637847722 0.500502467 0.001859237
0.706072271 0.496942371 0.001013323
0.761741459 0.493987978 0.014755582
0.811059594 0.491864055 0.052041836
0.855935931 0.491833925 0.089797027
0.898614705 0.494123429 0.125745788
0.937278986 0.498952150 0.167283550
0.962217510 0.505378067 0.215470433
0.972661912 0.517256141 0.282625347
0.976886272 0.524645030 0.324137360
0.979011238 0.530353189 0.355546415
0.980733335 0.530765593 0.366661906
