Desert Affinity Presets/Desert Affinity Preset #28.cube
TITLE "32x32x32 Adobe/IRIDAS cube 3D LUT exported with GrossGrade v0.1.027.1 (beta) 64 bit"
LUT_3D_SIZE 8
DOMAIN_MIN 0.000000 0.000000 0.000000
DOMAIN_MAX 0.903226 0.903226 0.903226
0.002087435 0.001710532 0.002957198
0.099036165 0.015460311 0.028694740
0.215768978 0.017553369 0.048057292
0.363911688 0.003433233 0.060017027
0.485372692 0.000334812 0.064830169
0.625250936 0.000000000 0.077531561
0.762981713 0.000000000 0.099022500
0.898514092 0.000000000 0.146108419
0.091443554 0.067407615 0.018262215
0.161488026 0.073949024 0.035091288
0.289663225 0.069210693 0.053406350
0.437907368 0.040545896 0.057894479
0.581758261 0.014182681 0.067682609
0.726891696 0.006451614 0.088356830
0.864888251 0.006515210 0.132911086
0.969874859 0.140776634 0.236251861
0.198662266 0.136664405 0.020716310
0.280594051 0.141167700 0.028740101
0.375853390 0.140974209 0.045124374
0.511702836 0.133429483 0.056540750
0.675312042 0.077892415 0.076913364
0.829932451 0.038030967 0.116312377
0.959942460 0.147529513 0.212623209
0.979974210 0.277538478 0.330319434
0.317734569 0.203123957 0.004639209
0.402467579 0.210149348 0.002237540
0.511643887 0.217528477 0.024715768
0.641294956 0.213721588 0.053171135
0.783216238 0.207715929 0.089169830
0.931256711 0.233681306 0.163322791
0.976353467 0.335643142 0.318315595
0.982922852 0.330233395 0.351249963
0.453462571 0.284454644 0.000000000
0.554537535 0.291872829 0.000000000
0.671615362 0.300918579 0.000736492
0.791467249 0.323583513 0.050486524
0.914421916 0.353910595 0.122432642
0.973320484 0.412633359 0.273920387
0.981580615 0.428555250 0.333926976
0.988121927 0.424021661 0.367679328
0.619006336 0.374461383 0.000000000
0.720019877 0.392633766 0.000000000
0.827482820 0.419867814 0.000216973
0.936685026 0.455369800 0.094128959
0.970657289 0.504022360 0.262976766
0.978320003 0.521558285 0.312984765
0.985237539 0.526954770 0.341620803
0.991977572 0.527540505 0.376108944
0.780591369 0.491523862 0.000000000
0.871564269 0.513400853 0.000241289
0.950321376 0.545247376 0.092903495
0.966007352 0.583930433 0.264402747
0.972927153 0.601007462 0.285371035
0.979877949 0.614718556 0.312671125
0.986750484 0.624552608 0.343500674
0.993602037 0.629980803 0.378997684
0.919690132 0.607198596 0.015676284
0.952536464 0.638391733 0.211249590
0.959603786 0.657881558 0.251632899
0.966120064 0.675525427 0.261190802
0.972822189 0.693690360 0.285206348
0.979499698 0.710253417 0.318718433
0.986204028 0.724548161 0.356381655
0.992884874 0.735414088 0.394999802
0.060700651 0.008034103 0.033542942
0.109883592 0.019518755 0.036066603
0.200142160 0.021852130 0.055417467
0.334874332 0.007123652 0.071846671
0.454125881 0.000022446 0.080184221
0.579021037 0.000000000 0.094759762
0.716694593 0.000000000 0.117482886
0.849968016 0.000000000 0.161977917
0.033119775 0.085704900 0.029748650
0.091794655 0.079661928 0.061811682
0.209244862 0.082374558 0.082797244
0.352483988 0.064520985 0.093561724
0.493317902 0.040847518 0.104087360
0.645695150 0.007292857 0.127103627
0.788108408 0.006451614 0.167979419
0.931583941 0.013830578 0.238065422
0.138331145 0.154511064 0.036407940
0.213276699 0.157371402 0.051208470
0.301537305 0.158793673 0.082855262
0.433117330 0.152580559 0.097837240
0.606237650 0.120971426 0.121939950
0.765180469 0.043113980 0.163515404
0.914650321 0.077078618 0.237824857
0.979901433 0.269497871 0.365278393
0.253325075 0.231184244 0.025641166
0.337200731 0.234338254 0.015534124
0.430860221 0.240258709 0.059412308
0.553550065 0.245008990 0.095034830
0.705908597 0.234146550 0.131757468
0.870917439 0.239342391 0.203224093
0.974344552 0.306179047 0.321967542
0.983793855 0.338073820 0.391916931
0.385428429 0.313505411 0.006587221
0.484313518 0.322775453 0.006451614
0.591700196 0.330391139 0.018282261
0.712235570 0.345583349 0.082681790
0.837921262 0.371724337 0.150830641
0.961211264 0.402245343 0.249995559
0.982657433 0.446684390 0.371455103
0.989151776 0.439587057 0.410459638
0.549092412 0.408073336 0.006451614
0.653621674 0.420730919 0.006451614
0.756579518 0.441988140 0.007091310
0.865363121 0.469554633 0.080561608
0.960116982 0.506309748 0.202345833
0.979284644 0.544436216 0.344924092
0.986229241 0.549205422 0.378750890
0.992889225 0.548142672 0.418651670
0.721063793 0.520827889 0.006451614
0.812140048 0.539590418 0.006451614
0.901586115 0.560021639 0.012876173
0.963150978 0.594551563 0.183791384
0.973246753 0.623226643 0.306417316
0.980176330 0.638516963 0.344938785
0.987003207 0.648913622 0.382432610
0.993835807 0.653973341 0.422502130
0.865439475 0.635038733 0.006451614
0.938889265 0.652094126 0.049832262
0.959486544 0.680552006 0.254777044
0.966160536 0.698819637 0.276524097
0.972845078 0.717064440 0.307781965
0.979571104 0.734916568 0.351879805
0.986255646 0.750573516 0.397545040
0.992915094 0.762808025 0.442977667
0.119278260 0.013777359 0.059169982
0.173558682 0.018499797 0.052473292
0.247750998 0.021171285 0.062033240
0.357987404 0.007443965 0.073569767
0.462309390 0.000862281 0.083186261
0.579792023 0.000000000 0.099565417
0.710140288 0.000000000 0.124035485
0.837078869 0.000000000 0.169296935
0.026126625 0.068079539 0.106544472
0.155122191 0.071516491 0.087713242
0.224081531 0.085587539 0.088792466
0.333504021 0.075957470 0.102286011
0.459177077 0.057610098 0.116961107
0.603754640 0.015350356 0.144290462
0.744715810 0.006451614 0.186384439
0.885114014 0.006533914 0.251342893
0.047450311 0.176111251 0.047228046
0.120070599 0.169210523 0.078720041
0.204090104 0.166323766 0.120967560
0.350187749 0.161678985 0.133900240
0.505525470 0.148171738 0.160660982
0.672152579 0.089120299 0.202758327
0.827487469 0.062085111 0.264606714
0.966695964 0.144477174 0.351539522
0.161404535 0.262406498 0.048286732
0.258377463 0.261305928 0.052975968
0.346126467 0.255359083 0.088511445
0.467947692 0.269469440 0.142282471
0.628284216 0.256446451 0.183832094
0.800195754 0.248924300 0.248352006
0.953640342 0.272115648 0.336819530
0.984679699 0.346138448 0.434908271
0.289949238 0.343803912 0.040251669
0.411056966 0.354273885 0.014937822
0.512720048 0.358388305 0.041564293
0.629060626 0.367556751 0.118688434
0.757981539 0.392560869 0.201020315
0.903208315 0.413387239 0.285234660
0.983256757 0.456816763 0.405493170
0.990005910 0.453125119 0.454751045
0.464659631 0.445868313 0.016247611
0.580455422 0.451818645 0.012903227
0.688361108 0.468337387 0.013016386
0.790896893 0.488869518 0.093506023
0.901293278 0.518974304 0.219916910
0.976956427 0.556864083 0.348583937
0.987030268 0.571185410 0.420127541
0.993571877 0.567691565 0.464047343
0.646349669 0.554175198 0.012903227
0.752632797 0.568519175 0.012903227
0.841718435 0.586346149 0.014661933
0.930565000 0.606962979 0.104990214
0.973062158 0.641279101 0.309350789
0.980366528 0.661986172 0.381931514
0.987171352 0.673950970 0.426490754
0.994005919 0.678357124 0.470064253
0.807786286 0.666417360 0.012903227
0.891969383 0.678362966 0.015125327
0.955010831 0.695579827 0.086501144
0.966161609 0.720888078 0.292403042
0.972846389 0.738938570 0.330554515
0.979587018 0.758393705 0.386102438
0.986261606 0.777482033 0.444907218
0.992780030 0.792085111 0.496938258
0.196746945 0.012374464 0.087507918
0.264566690 0.012353489 0.075961582
0.331540227 0.007738569 0.071885794
0.409449458 0.002612100 0.075082891
0.493067831 0.001294826 0.082939789
0.605462313 0.000000000 0.100488432
0.724965632 0.000000000 0.125831142
0.845682442 0.000000000 0.172766581
0.133393481 0.035231940 0.135954484
0.242384598 0.054710913 0.116416328
0.308695912 0.067552075 0.100945733
0.380618244 0.072292767 0.104063794
0.483960897 0.061917309 0.118652314
0.615079045 0.018635819 0.147283539
0.746323705 0.006451614 0.191562861
0.879601479 0.007184833 0.258128881
0.005711448 0.171142519 0.138585821
0.155622870 0.137938976 0.149131328
0.288133651 0.148313075 0.143193141
0.362649649 0.164373308 0.137720734
0.481975347 0.159160331 0.166617647
0.633768857 0.122416228 0.212211847
0.785127521 0.077790044 0.273926646
0.932193756 0.124193177 0.358280092
0.049703300 0.296191394 0.055574447
0.131469280 0.282908559 0.084699862
0.220533431 0.271727413 0.130437821
0.347763509 0.274037242 0.184929043
0.527541220 0.269554198 0.221018448
0.695935071 0.255962491 0.276450217
0.862773597 0.264352560 0.355862319
0.981901109 0.314685255 0.447095484
0.162642851 0.383596092 0.046025775
0.286719859 0.386634737 0.049825113
0.419743568 0.386786789 0.090653531
0.528722525 0.382344842 0.152575895
0.675399959 0.414537936 0.253044903
0.827873230 0.425584286 0.330275089
0.973192692 0.441705495 0.418954074
0.990707397 0.464426249 0.498893499
0.340049803 0.479869843 0.036441986
0.479529262 0.490462929 0.030094113
0.609699428 0.497681648 0.028965717
0.714804411 0.508062363 0.111934364
0.822566986 0.535359323 0.256881535
0.937195778 0.566806555 0.360688329
0.987602234 0.592152596 0.464051306
0.993960381 0.584940255 0.510778666
0.537445307 0.589827299 0.033979010
0.672571361 0.603745639 0.019689661
0.782016277 0.615377903 0.019354852
0.866949499 0.629346132 0.106962360
0.952514410 0.651668191 0.256455511
0.980473518 0.683883250 0.419595540
0.987285018 0.699079812 0.473948419
0.993845105 0.702823162 0.519540906
0.728963077 0.704958558 0.038875911
0.832550228 0.710361838 0.019697148
0.917488873 0.721156836 0.043906964
0.964667141 0.739582002 0.224730700
0.972835124 0.759155691 0.351966590
0.979574859 0.780701339 0.421467215
0.986147940 0.804841578 0.496039391
0.992609620 0.821117580 0.549947023
0.292315513 0.001535648 0.113520771
0.357363969 0.001939202 0.094400927
0.413168371 0.000465277 0.083325483
0.470635444 0.000740701 0.080023147
0.547629833 0.000652324 0.085644864
0.650895417 0.000000000 0.101320684
0.757051170 0.000000000 0.127611428
0.869804561 0.000000000 0.176188931
0.243036196 0.017447108 0.164158762
0.341500163 0.021217978 0.136182398
0.401172489 0.036644619 0.117154174
0.458795667 0.052915718 0.111967832
0.544345081 0.049085002 0.122938998
0.656201720 0.010483398 0.148043528
0.772352219 0.006451614 0.194566965
0.896766663 0.008041507 0.264159262
0.002281027 0.144367874 0.271946073
0.245297536 0.121210083 0.200558364
0.374405593 0.130658060 0.173036769
0.447192281 0.149804190 0.156666934
0.541307032 0.154701725 0.173733726
0.662121475 0.125093654 0.214920178
0.796573400 0.098844297 0.277716458
0.933272660 0.141527563 0.362743706
0.008072441 0.303960562 0.160906345
0.148270682 0.230251849 0.144214436
0.298319221 0.229128152 0.206480190
0.451308787 0.250362456 0.222035035
0.538984656 0.270856798 0.223980606
0.671264410 0.265578866 0.276883513
0.822266757 0.272587091 0.355733365
0.963763773 0.300926268 0.444392920
0.020648047 0.420768976 0.057725430
0.129753545 0.409139246 0.085363783
0.247912228 0.401302427 0.140334457
0.379184961 0.404996783 0.210203007
0.541449666 0.414604872 0.292962849
0.727389097 0.421485454 0.355663478
0.884344339 0.431229174 0.433352560
0.991035461 0.472234339 0.528767943
0.179540664 0.518466532 0.042423632
0.330576718 0.527210116 0.041042283
0.474999040 0.530223727 0.097340822
0.617360353 0.536299288 0.162478045
0.730952561 0.542486250 0.274692833
0.858699799 0.586677611 0.407635540
0.982463896 0.600698650 0.493824571
0.994344473 0.598065734 0.554981470
0.399736047 0.623963475 0.029014282
0.547574162 0.639881968 0.046331938
0.688584089 0.652656913 0.062483396
0.802778065 0.657433212 0.122033790
0.885133088 0.667619407 0.271043450
0.973408043 0.696712017 0.419061631
0.987133622 0.724704146 0.523704469
0.993950367 0.728300750 0.572354198
0.610315859 0.739205420 0.071231924
0.741538644 0.750589609 0.083785579
0.854135096 0.754458010 0.047024481
0.938786864 0.762952983 0.145800650
0.972601831 0.779192686 0.360858798
0.979499936 0.800418139 0.453417182
0.985960960 0.829903543 0.543214202
0.992600620 0.850244582 0.604191244
0.372714043 0.000000000 0.133964673
0.433319211 0.000003741 0.112094954
0.485226452 0.000549916 0.096844159
0.546394944 0.000642037 0.090872675
0.622890234 0.000000000 0.093644716
0.708976924 0.000000000 0.106018767
0.803073645 0.000000000 0.133563235
0.907463074 0.000000000 0.185183629
0.331182659 0.010437566 0.191274077
0.422928870 0.007214294 0.160717398
0.486695737 0.012553059 0.139257342
0.549998164 0.021333462 0.130450085
0.626629829 0.012998222 0.134885669
0.715485692 0.006498374 0.156279102
0.817290008 0.006530175 0.201973423
0.931912780 0.020764384 0.275476009
0.139696389 0.091401346 0.295330614
0.351771474 0.102730654 0.235119790
0.475694418 0.095464386 0.210354954
0.555747032 0.112427227 0.194535032
0.631193876 0.119449802 0.197703317
0.726891279 0.110329330 0.228046447
0.838208497 0.116952650 0.287406683
0.957640111 0.170360044 0.370917469
0.000792142 0.260013878 0.292247415
0.121011719 0.226244465 0.335919797
0.409061193 0.217476070 0.301157773
0.556363225 0.220432445 0.273550034
0.635772645 0.247334942 0.259093016
0.727923572 0.269842446 0.291335076
0.850745380 0.287361771 0.362065047
0.970246851 0.315856248 0.447414279
0.000000000 0.433835238 0.158189207
0.024809739 0.426642984 0.244167358
0.343260586 0.339470565 0.172908947
0.497670472 0.353466928 0.305392802
0.647073328 0.385845810 0.345047325
0.735074162 0.421405047 0.356559604
0.857682824 0.435694605 0.429360181
0.986689150 0.460213006 0.518754840
0.024496477 0.561867476 0.056385152
0.164607123 0.553455651 0.086899839
0.292980641 0.542734504 0.152239233
0.437165856 0.551800966 0.232204795
0.569434822 0.564786732 0.331984699
0.738280296 0.581959009 0.437589645
0.898678362 0.588184297 0.507768810
0.994345546 0.603717089 0.584813774
0.222209468 0.664050162 0.050282747
0.386445522 0.676903248 0.038916901
0.537810087 0.686382830 0.106648609
0.677206755 0.694261432 0.204778180
0.805088222 0.695120871 0.299551070
0.893783152 0.699376285 0.423393369
0.985398650 0.750747561 0.570980787
0.994189739 0.751480043 0.626121998
0.462262213 0.778438926 0.057195976
0.609812260 0.788270295 0.091762066
0.744190037 0.795582831 0.132486969
0.862514079 0.797994852 0.179426908
0.954490125 0.802812219 0.298023075
0.979367971 0.817826986 0.476680368
0.985915363 0.848896682 0.582003951
0.992518246 0.879145801 0.659173608
0.445432544 0.000000000 0.158848241
0.510826528 0.000000000 0.135801166
0.574453175 0.000000000 0.118724719
0.637413144 0.000000000 0.108712144
0.702703536 0.000000000 0.107313499
0.776433110 0.000000000 0.119366251
0.860537589 0.000000000 0.148951709
0.953053892 0.038264461 0.208321154
0.411029696 0.009283021 0.224015430
0.505973399 0.006451614 0.198989093
0.578168273 0.006451614 0.174963742
0.644368052 0.006451614 0.158243552
0.710526705 0.006451614 0.157430708
0.787167668 0.006460966 0.178042203
0.878094494 0.008509116 0.223046973
0.966593444 0.089734711 0.298851371
0.293632567 0.062388148 0.306446761
0.467208356 0.044384472 0.278780907
0.579374433 0.021695793 0.256294191
0.658186316 0.028219953 0.238657326
0.729151011 0.053253274 0.236985400
0.806703031 0.088571303 0.259681851
0.901389241 0.138141364 0.312995106
0.975149393 0.210211039 0.389274597
0.001033428 0.212162822 0.422893643
0.321687132 0.186595261 0.375403851
0.533564866 0.177199692 0.358056694
0.656854630 0.178975374 0.334238559
0.740741193 0.222344130 0.320907384
0.818817019 0.264104307 0.335382849
0.912769794 0.298792243 0.386794627
0.983868778 0.347597092 0.464900523
0.000000000 0.406309247 0.335869819
0.076019235 0.361443758 0.358486205
0.323365748 0.341722041 0.433289498
0.597458601 0.343809098 0.437217563
0.746793032 0.368516922 0.417549670
0.825230062 0.412922174 0.407916367
0.910820842 0.444318026 0.446876705
0.990596116 0.481507331 0.529319882
0.004197309 0.578023434 0.160125181
0.023240374 0.575362444 0.257906914
0.163096815 0.527948976 0.311963439
0.583597541 0.470094323 0.221305817
0.705789864 0.509676278 0.435453296
0.825650513 0.549636543 0.493690938
0.903446615 0.585649073 0.506395221
0.992536783 0.604670405 0.580072880
0.058607116 0.713008404 0.072009005
0.209888488 0.709914804 0.097359397
0.349045545 0.697719157 0.174782962
0.499829352 0.707236052 0.264187872
0.629268706 0.715997577 0.365979105
0.753770232 0.722496271 0.471096158
0.903438628 0.737294793 0.576810420
0.994506001 0.750353515 0.654725850
0.267102659 0.819806278 0.087316372
0.442221045 0.825693488 0.083859332
0.591081202 0.831387639 0.145112693
0.726733565 0.835405052 0.236047879
0.846581697 0.839564443 0.335397631
0.962919831 0.843360186 0.446274728
0.985810161 0.855374157 0.600413084
0.992459834 0.907849967 0.714473546
0.531366467 0.000000000 0.197619349
0.602746069 0.000000000 0.169249594
0.664925098 0.000000000 0.145713761
0.722982228 0.000000000 0.133223504
0.783325553 0.000000000 0.132142872
0.850281239 0.000000000 0.145512268
0.926704884 0.012453523 0.181666479
0.971712053 0.167959183 0.275499731
0.504177451 0.006451614 0.270406097
0.596165955 0.006451614 0.243785024
0.667918921 0.006451614 0.217195287
0.731905699 0.006451614 0.199067056
0.795445979 0.006451614 0.196488753
0.866737962 0.006481539 0.215410292
0.947066307 0.050156325 0.264463246
0.977122486 0.227040529 0.367069066
0.430365145 0.017189397 0.354353040
0.567930400 0.012927544 0.330710977
0.671842396 0.012903227 0.312043816
0.750548363 0.014829800 0.297051251
0.820400298 0.029270206 0.292919755
0.894748449 0.093048811 0.312798321
0.962219834 0.174267903 0.357791781
0.981625497 0.291520298 0.438584715
0.121591687 0.159539342 0.473254919
0.478031784 0.135158256 0.437607586
0.642544508 0.108843230 0.418664962
0.760496080 0.136843920 0.404971808
0.842261910 0.201750457 0.394473165
0.914468527 0.261509180 0.400678307
0.971507370 0.311369658 0.431722134
0.986759245 0.378352344 0.495904922
0.000000000 0.352927268 0.490184128
0.113597147 0.324445814 0.523533046
0.515948296 0.307924122 0.511566341
0.718856335 0.320000559 0.510958314
0.844950378 0.349817812 0.492499053
0.923706591 0.403659463 0.481879920
0.979695559 0.452597111 0.500063241
0.991756022 0.491404831 0.548483193
0.000000000 0.556357563 0.353529751
0.006451614 0.547461867 0.460965365
0.306815296 0.478111267 0.438304454
0.522879541 0.495196611 0.565830886
0.780413330 0.503947377 0.585266173
0.920751691 0.533918679 0.567027926
0.979770780 0.581298113 0.559421360
0.994595528 0.610127509 0.592794001
0.007584719 0.734325886 0.179175526
0.042055815 0.730514407 0.274462461
0.193566531 0.683074117 0.328179985
0.372780114 0.686480999 0.437516242
0.806514978 0.617571115 0.317523181
0.883967340 0.663257658 0.566354096
0.976856828 0.709795475 0.634808183
0.994463503 0.744085252 0.650707781
0.096628994 0.861116171 0.126983672
0.250812858 0.854592562 0.149081856
0.406346917 0.846518338 0.210141078
0.550547898 0.848572016 0.293844730
0.678241253 0.855388105 0.392504185
0.798112512 0.865175188 0.499955356
0.922310710 0.879977942 0.610897422
0.992760599 0.906389475 0.741415739
