Desert Affinity Presets/Desert Affinity Preset #18.cube
TITLE "32x32x32 Adobe/IRIDAS cube 3D LUT exported with GrossGrade v0.1.027.1 (beta) 64 bit"
LUT_3D_SIZE 5
DOMAIN_MIN 0.000000 0.000000 0.000000
DOMAIN_MAX 0.903226 0.903226 0.903226
0.037066437 0.037675291 0.038110200
0.231190011 0.067381002 0.019460293
0.419584364 0.059134614 0.000000000
0.659099817 0.051000431 0.000000000
0.832048357 0.261449426 0.081030659
0.040633406 0.219160467 0.047252007
0.212068126 0.220297396 0.053130869
0.407898337 0.231856838 0.014350191
0.673680723 0.220771939 0.000000000
0.837946653 0.340815276 0.107941233
0.001891974 0.415667206 0.021706223
0.173638940 0.407891035 0.033206284
0.421961814 0.427545309 0.034059204
0.691463828 0.443292588 0.000000000
0.868793726 0.533563972 0.175496638
0.000000000 0.656460881 0.000000000
0.101674743 0.658062160 0.000000000
0.416789979 0.693274856 0.010375429
0.733551741 0.737029016 0.027174054
0.890744448 0.779261172 0.203882277
0.016693888 0.950323820 0.043110859
0.086638510 0.949017763 0.051822063
0.451244354 0.976201892 0.104509242
0.784321010 0.980679393 0.149296269
0.935959935 0.990304053 0.299205691
0.000000000 0.082720175 0.118005596
0.230912030 0.034173351 0.151245922
0.443592101 0.042952761 0.066640966
0.699188828 0.038314022 0.011290320
0.850495577 0.239860386 0.130732313
0.004098648 0.222756207 0.194411948
0.175767869 0.176460937 0.166157693
0.414401233 0.209547862 0.122618616
0.697398245 0.198263183 0.040001433
0.852986872 0.326608330 0.160348624
0.000000000 0.412105173 0.189360961
0.124796383 0.362896174 0.151653826
0.414357036 0.402317673 0.164297998
0.709718347 0.441784531 0.105418891
0.882975996 0.532428682 0.237442717
0.000000000 0.660847783 0.124810554
0.054948349 0.609308898 0.110774480
0.407518566 0.657431245 0.150384605
0.744834542 0.732316613 0.168637574
0.900814354 0.780192435 0.276947975
0.008333845 0.941346526 0.156787425
0.031840112 0.933989704 0.148751140
0.420454532 0.953631997 0.185426190
0.782887876 0.975338340 0.229913980
0.939600468 0.989058614 0.347606987
0.000000000 0.122956783 0.229855075
0.011290320 0.122956783 0.229855075
0.411234140 0.021708116 0.313928574
0.732625961 0.006939400 0.205987945
0.914262831 0.141364634 0.263345838
0.000000000 0.251716614 0.150892705
0.011290320 0.251716614 0.150892705
0.391900331 0.168787703 0.331987470
0.732417345 0.121524505 0.219961837
0.912230432 0.262712896 0.289715827
0.000000000 0.405343890 0.348731428
0.011290320 0.405343890 0.348731428
0.374695688 0.369395524 0.355852455
0.731082618 0.414971352 0.304989219
0.922869384 0.508921444 0.379265279
0.000000000 0.648619056 0.353485137
0.011290320 0.648619056 0.353485137
0.338675588 0.619118631 0.340166122
0.732759535 0.698867977 0.384889305
0.929758132 0.777079284 0.444589794
0.000000000 0.949760675 0.394798964
0.011290320 0.949785531 0.394800335
0.302839160 0.923794806 0.350230306
0.752031386 0.953153074 0.406312168
0.950158298 0.982390285 0.491243452
0.000000000 0.168202147 0.331261873
0.011290320 0.168202147 0.331261873
0.022580640 0.145097107 0.417253673
0.639460325 0.000000000 0.534275830
0.942539215 0.000000000 0.576638162
0.000000000 0.288317651 0.216416836
0.011290320 0.288317651 0.216416836
0.022580640 0.274353623 0.275358558
0.643864214 0.079292297 0.556764185
0.960212171 0.116428368 0.593571246
0.000000000 0.457120270 0.277641177
0.011290320 0.457120270 0.277641177
0.022580640 0.456634820 0.285262585
0.666506648 0.353561401 0.588724017
0.986396611 0.392261147 0.606272817
0.000000000 0.647747934 0.547825754
0.011290320 0.647747934 0.547825754
0.022580640 0.649610937 0.551011503
0.652078092 0.642883837 0.627830446
0.992653549 0.760835648 0.683100164
0.000000000 0.944319189 0.673365355
0.011290320 0.944319189 0.673365355
0.022580640 0.944326282 0.672918081
0.620858252 0.921499252 0.610379398
0.958606124 0.963727236 0.712638676
0.000000000 0.230981797 0.434568495
0.011290320 0.230981797 0.434568495
0.022580640 0.230981797 0.434568495
0.099778011 0.114220858 0.836563289
0.843293488 0.000000000 0.915797591
0.000000000 0.319935232 0.348226100
0.011290320 0.319935232 0.348226100
0.022580640 0.319935232 0.348226100
0.068784893 0.142741874 0.831544876
0.846781015 0.011290320 0.923058927
0.000000000 0.522088051 0.297976106
0.011290320 0.522088051 0.297976106
0.022580640 0.522088051 0.297976106
0.041144237 0.486420870 0.628202558
0.895410299 0.265470088 0.949004829
0.000000000 0.697672188 0.502911389
0.011290320 0.697672188 0.502911389
0.022580640 0.697672188 0.502911389
0.155998975 0.736942291 0.565537095
0.968154788 0.657462478 0.973493278
0.000000000 0.940687060 0.795768797
0.011290320 0.940687060 0.795768797
0.022580640 0.940687060 0.795768797
0.228601366 0.978605986 0.871211648
0.941440582 0.938637674 0.929438353
