Desert Affinity Presets/Desert Affinity Preset #11.cube
TITLE "32x32x32 Adobe/IRIDAS cube 3D LUT exported with GrossGrade v0.1.027.1 (beta) 64 bit"
LUT_3D_SIZE 5
DOMAIN_MIN 0.000000 0.000000 0.000000
DOMAIN_MAX 0.903226 0.903226 0.903226
0.000000000 0.030717203 0.158441946
0.016413046 0.003198019 0.124533050
0.282834709 0.000000000 0.105860427
0.573162854 0.000000000 0.085044228
0.893770814 0.000000000 0.055929121
0.000000000 0.243317366 0.186582729
0.141299263 0.197324499 0.111193888
0.473082662 0.172528356 0.069962695
0.736406505 0.165398881 0.056601077
0.973654032 0.165288165 0.050551057
0.000000000 0.488130659 0.134740517
0.141068578 0.433080971 0.100672603
0.471370757 0.407668442 0.070668839
0.733626008 0.400616854 0.058192402
0.969738603 0.400739491 0.052989215
0.000000000 0.721120834 0.113312081
0.136535466 0.669436574 0.095480926
0.465623289 0.644178808 0.068646371
0.726300180 0.637346983 0.058890097
0.960112929 0.637822211 0.056582373
0.000000000 0.953465044 0.093482301
0.137013778 0.904449165 0.091214426
0.461360306 0.879693806 0.071314119
0.719564378 0.873168051 0.065778486
0.950500309 0.874357402 0.066619754
0.000000000 0.089448236 0.029528713
0.036695372 0.014487685 0.140095994
0.328911304 0.000000000 0.167706877
0.625040829 0.000000000 0.189965412
0.943365693 0.000000000 0.197975695
0.000000000 0.238267571 0.184006467
0.150851235 0.203094169 0.260524899
0.482433081 0.177419946 0.228446484
0.745622694 0.170283452 0.214920729
0.982690156 0.170349300 0.208584026
0.000000000 0.456643343 0.198058024
0.168644398 0.434078246 0.243879631
0.480072618 0.412595659 0.230838746
0.742532015 0.405501097 0.218209788
0.978723943 0.405542374 0.212794662
0.000000000 0.694510043 0.176253662
0.182319179 0.666632295 0.223105937
0.474754751 0.648991346 0.227854028
0.735131860 0.642409563 0.218269557
0.968761444 0.642930806 0.215206504
0.000000000 0.930263162 0.160359889
0.198256642 0.898487568 0.204591796
0.471895874 0.884496510 0.227377743
0.729100108 0.878368497 0.222053304
0.959526718 0.879625320 0.221827194
0.000000000 0.144393563 0.022580640
0.041414514 0.029003868 0.217030957
0.369733006 0.000000000 0.281969011
0.670378864 0.000000000 0.342389256
0.980828464 0.000000000 0.378188103
0.000000000 0.297332197 0.133999884
0.058475498 0.245794356 0.344304204
0.491683215 0.180011868 0.410200864
0.754957318 0.172853887 0.397353709
0.991882622 0.172739133 0.391618043
0.000000000 0.463147998 0.235792637
0.272505730 0.420774043 0.305112988
0.487153828 0.415903658 0.411953062
0.749990523 0.408785760 0.398437947
0.985958934 0.408917308 0.392173052
0.029893683 0.662090838 0.261758745
0.345127374 0.633429766 0.307266623
0.500989497 0.648382783 0.391333848
0.742301345 0.645794749 0.398028255
0.975944757 0.646431148 0.394086391
0.066059522 0.888211966 0.238919735
0.345468700 0.870186329 0.286082566
0.516760707 0.880179048 0.372664779
0.737083733 0.881828725 0.398104519
0.967078924 0.883399904 0.397379905
0.000000000 0.195243776 0.033870984
0.016363945 0.060847025 0.318184495
0.398583770 0.000000000 0.448461443
0.709596097 0.000000000 0.537662685
0.991247952 0.000000000 0.577612758
0.000000000 0.360992372 0.165247664
0.011941707 0.287051290 0.446475834
0.472246468 0.188665852 0.616394222
0.762633979 0.174019709 0.596984625
0.992895722 0.174087614 0.591102600
0.000000000 0.510582328 0.218073562
0.177779794 0.474053264 0.290666491
0.393318236 0.457127064 0.514577508
0.757632375 0.410035223 0.598259509
0.992380857 0.410200953 0.592045784
0.034668945 0.681180894 0.293253928
0.389157921 0.638479173 0.362253398
0.603640318 0.633603334 0.469088227
0.748166919 0.647891581 0.595077097
0.981965363 0.648610473 0.589396119
0.165291250 0.873310149 0.328029901
0.504809380 0.836392820 0.386359841
0.678906024 0.845768094 0.470781863
0.762364745 0.880103052 0.574825168
0.973220468 0.885764241 0.589990318
0.000000000 0.242152810 0.045161311
0.011290320 0.098300867 0.431949824
0.382924825 0.001882152 0.664150834
0.740413547 0.000000000 0.770493448
0.992752552 0.000000000 0.793444932
0.000000000 0.416306645 0.263551384
0.011290320 0.327028662 0.565168679
0.389207751 0.217309952 0.811868787
0.761971235 0.175700560 0.817284286
0.993507385 0.174071223 0.807135463
0.000000000 0.568498492 0.222914770
0.040115990 0.534073055 0.335357159
0.298213661 0.497083426 0.633289278
0.736768782 0.417491615 0.820468605
0.992972851 0.410331637 0.807137966
0.000000000 0.724544048 0.293020725
0.314484596 0.684620738 0.359729469
0.508116782 0.685804427 0.469245285
0.653205693 0.687998891 0.711344421
0.988350749 0.648930430 0.802072227
0.154809698 0.896946967 0.361368448
0.509345233 0.854290366 0.430414945
0.722381592 0.849784613 0.537618160
0.864294529 0.864488542 0.664018214
0.978260934 0.887032151 0.798264146
