Desert Affinity Presets/Desert Affinity Preset #1.cube
TITLE "32x32x32 Adobe/IRIDAS cube 3D LUT exported with GrossGrade v0.1.027.1 (beta) 64 bit"
LUT_3D_SIZE 5
DOMAIN_MIN 0.000000 0.000000 0.000000
DOMAIN_MAX 0.903226 0.903226 0.903226
0.002087435 0.001710532 0.002957198
0.181942046 0.026248680 0.021163357
0.434723258 0.006478811 0.013004854
0.667955220 0.000000000 0.000000000
0.903404176 0.000000000 0.025308229
0.029369958 0.145413831 0.030795267
0.175118044 0.169904649 0.040540807
0.386688083 0.169232756 0.010213687
0.639114082 0.152950957 0.000000000
0.889728248 0.134637624 0.008766844
0.014329132 0.340160668 0.036241561
0.152418956 0.358940661 0.039453179
0.392752051 0.388757527 0.034729779
0.682360232 0.398332775 0.000000000
0.933109760 0.427719235 0.024118662
0.003059597 0.560566008 0.026556812
0.160209924 0.585902929 0.031396151
0.422756702 0.629200578 0.035970859
0.714682341 0.676092207 0.047512449
0.961018980 0.687614739 0.040904619
0.022542777 0.813121736 0.060169421
0.188641340 0.838366568 0.075563341
0.461294562 0.865831673 0.101289272
0.733150244 0.903336227 0.148270026
0.975651503 0.934921801 0.266442001
0.003669374 0.024449769 0.112487569
0.165652812 0.001424359 0.122028425
0.448951095 0.000016367 0.092603929
0.709299207 0.000000000 0.052809872
0.951104879 0.050393887 0.093769684
0.011284519 0.171803817 0.097070143
0.137146845 0.137870431 0.129825890
0.406582505 0.145023733 0.102678157
0.698796153 0.100262515 0.079138502
0.956524491 0.150875226 0.120018624
0.007066620 0.357739508 0.073649138
0.132679164 0.317323774 0.129836813
0.398808867 0.370849520 0.156334519
0.701832950 0.392995924 0.118645608
0.955924690 0.428600401 0.157181218
0.005455188 0.580103695 0.057797458
0.147165105 0.546203077 0.135315865
0.419093668 0.598280609 0.193953827
0.727212429 0.672421157 0.223480999
0.975093067 0.692709804 0.216198474
0.027803928 0.830990016 0.088835388
0.180338278 0.807440579 0.172368005
0.461110532 0.835286975 0.236871168
0.738322437 0.894883633 0.289316475
0.982539713 0.939447284 0.398978561
0.008322618 0.033847887 0.243881434
0.071419537 0.000000000 0.369216800
0.348654211 0.000000000 0.276451975
0.678131938 0.000000000 0.264384508
0.955399990 0.017453726 0.277548045
0.000000000 0.203603104 0.212750137
0.011290320 0.174794227 0.312961280
0.325895190 0.122200675 0.283498198
0.697950423 0.014639379 0.283714771
0.969996095 0.136444107 0.328834683
0.000317979 0.384943455 0.165499449
0.011290320 0.384077191 0.275780350
0.336918354 0.327747077 0.310695648
0.709113955 0.348720968 0.317639768
0.982311606 0.403449088 0.368094355
0.005783930 0.613482118 0.149456799
0.024643078 0.609057963 0.278590560
0.385207862 0.563730299 0.339967102
0.707787335 0.651663840 0.422572851
0.983693480 0.685339570 0.434802473
0.036275696 0.858550787 0.174426168
0.066565685 0.849258959 0.308696151
0.436012208 0.812710643 0.377463728
0.708823383 0.866414666 0.463301271
0.982276797 0.940208137 0.565661728
0.032231756 0.027811902 0.393804342
0.110406995 0.000512039 0.506201208
0.137225300 0.000000000 0.570641100
0.549752831 0.000000000 0.498213172
0.904948711 0.000000000 0.531665504
0.000000000 0.206489295 0.343327582
0.013216896 0.174608663 0.444020361
0.050697878 0.118307181 0.560316324
0.582479417 0.012225556 0.520015180
0.945300817 0.016875518 0.575828314
0.000000000 0.409808576 0.286416322
0.011290320 0.399954468 0.411924720
0.022580640 0.378738791 0.534664452
0.600904703 0.319065601 0.559157670
0.972551346 0.342696935 0.609187424
0.000375028 0.642064929 0.282483041
0.011290320 0.640420020 0.414227247
0.049470425 0.624938369 0.521107912
0.609543502 0.598151267 0.588999450
0.974999309 0.634159923 0.616217017
0.047759369 0.880766571 0.293253571
0.045951840 0.886096001 0.432168514
0.243781269 0.834471345 0.500961781
0.646777153 0.818815589 0.599667132
0.976583600 0.938227415 0.732196331
0.078770265 0.013730155 0.527822196
0.137967885 0.000000000 0.650811493
0.164173886 0.000000000 0.759004116
0.176001757 0.000000000 0.765540063
0.768441081 0.000000000 0.749801755
0.000176758 0.207614899 0.471899807
0.032967091 0.174401239 0.586895287
0.087505311 0.103417046 0.720264912
0.174009249 0.021409515 0.783946276
0.824981272 0.011290320 0.795185804
0.000000000 0.426873893 0.435495675
0.011290320 0.411467433 0.560564160
0.022652661 0.397146225 0.690899312
0.078387424 0.344563007 0.812671244
0.865853131 0.168297291 0.835790813
0.000000000 0.667752504 0.424744010
0.011290320 0.670537174 0.555427611
0.022580640 0.662159681 0.681997120
0.033870984 0.638425529 0.792611241
0.886046290 0.577647567 0.857527912
0.051375933 0.905201018 0.434554994
0.019723754 0.913858950 0.573151529
0.022580640 0.905638635 0.685848057
0.366491795 0.872271776 0.750191927
0.904751420 0.895854473 0.884033799
