Desert Affinity Presets/Desert Affinity Preset #14.cube
TITLE "32x32x32 Adobe/IRIDAS cube 3D LUT exported with GrossGrade v0.1.027.1 (beta) 64 bit"
LUT_3D_SIZE 8
DOMAIN_MIN 0.000000 0.000000 0.000000
DOMAIN_MAX 0.903226 0.903226 0.903226
0.000000000 0.206149042 0.080177814
0.079074144 0.199129164 0.073150933
0.267146647 0.165751532 0.040082544
0.386137903 0.151521042 0.026437066
0.505735636 0.135504141 0.010359525
0.634732664 0.116279088 0.000000000
0.758034170 0.098354638 0.000000000
0.875170410 0.082551897 0.000000000
0.000000000 0.268506378 0.083546482
0.089997172 0.260070980 0.062361155
0.284626245 0.222346395 0.032828942
0.394743830 0.207154676 0.028449727
0.512999535 0.190961286 0.014183680
0.644405127 0.172353894 0.000000000
0.772381604 0.156116128 0.000000000
0.895365894 0.143276438 0.000000000
0.000000000 0.329433292 0.075438030
0.087464467 0.317441374 0.080926403
0.278060198 0.287291259 0.007791377
0.418239295 0.268773228 0.000000000
0.551268935 0.252424896 0.000000000
0.681686103 0.238917291 0.000000000
0.809941292 0.228546917 0.000000000
0.933824360 0.220887110 0.000000000
0.000000000 0.406451166 0.047767859
0.071112059 0.396850556 0.063810311
0.263640374 0.369855404 0.025239073
0.396488845 0.363502741 0.000000000
0.556246042 0.347663194 0.000000000
0.725100279 0.328995764 0.000000000
0.862976372 0.319204956 0.000000000
0.980653822 0.317317963 0.000000000
0.000000000 0.510119855 0.009843787
0.041938003 0.502893388 0.033040732
0.249636889 0.473881781 0.021209633
0.373187482 0.474398375 0.000000000
0.521417320 0.470572859 0.000000000
0.704368293 0.456068724 0.000000000
0.879487693 0.444040418 0.000000000
0.995161295 0.440598220 0.000000000
0.000000000 0.636689067 0.000000000
0.008890698 0.633082151 0.000000000
0.223220900 0.604444325 0.000000000
0.354621887 0.606730163 0.000000000
0.487702847 0.614023089 0.000000000
0.659836113 0.611168504 0.000000000
0.842390358 0.603178084 0.000000000
0.994075537 0.597974718 0.000000000
0.000000000 0.782966018 0.000000000
0.006451614 0.783730030 0.000000000
0.198340774 0.756768167 0.000000000
0.339766204 0.758416057 0.000000000
0.471126854 0.766400695 0.000000000
0.621888161 0.772385001 0.000000000
0.792879403 0.770792902 0.000000000
0.965456367 0.766766489 0.000000000
0.000000000 0.941326320 0.000000000
0.006451614 0.942885399 0.000000000
0.178540930 0.915764213 0.000000000
0.324970573 0.915910065 0.000000000
0.460091501 0.921618760 0.000000000
0.600867569 0.929340959 0.000000000
0.751442194 0.935912251 0.000000000
0.916300654 0.936412871 0.000000000
0.000000000 0.204854935 0.197509408
0.077979401 0.197433755 0.157587484
0.265926808 0.164506301 0.124575801
0.384400100 0.149742737 0.110645525
0.503255129 0.133603930 0.094662115
0.631861806 0.114393972 0.075720400
0.755317152 0.096555471 0.058157247
0.872590959 0.080678083 0.042551477
0.000000000 0.280718863 0.156856403
0.086192571 0.256667405 0.165721446
0.271783441 0.222058401 0.130102724
0.388838410 0.206150502 0.114036039
0.509197474 0.189847440 0.097748332
0.641158044 0.171548039 0.079542726
0.769699454 0.155909747 0.063938357
0.893657267 0.143752635 0.051783159
0.000000000 0.341897935 0.131231606
0.080126278 0.318065822 0.158227310
0.275072306 0.284615546 0.111802109
0.405727446 0.268345952 0.104217902
0.526197255 0.256972224 0.103702530
0.664482713 0.243231192 0.091832586
0.801180363 0.231408820 0.080498882
0.930830598 0.222991258 0.072519079
0.000000000 0.418929756 0.105297804
0.060480334 0.401222587 0.137372375
0.266689390 0.368097186 0.124297030
0.395564586 0.362930715 0.076826289
0.553296268 0.347495735 0.059302427
0.704594374 0.333409041 0.066018306
0.833505452 0.327329099 0.075510874
0.957698405 0.325104982 0.079427153
0.000000000 0.523801148 0.067740530
0.028937841 0.510173559 0.104542606
0.250071853 0.476255059 0.106676109
0.377524137 0.473905355 0.092000484
0.522343755 0.471906602 0.041472744
0.705304384 0.457710356 0.020910267
0.873150468 0.447774559 0.023736538
0.993267417 0.448317766 0.046111461
0.000000000 0.651839793 0.018523097
0.006808872 0.643072903 0.060171761
0.220991105 0.610449553 0.075773284
0.361514062 0.608745396 0.086294152
0.493338794 0.615690112 0.052941434
0.662400663 0.614172637 0.010209369
0.845208704 0.606231570 0.008116320
0.994034827 0.601278186 0.008335161
0.000000000 0.799729764 0.006451614
0.006451614 0.795902789 0.023867015
0.194518134 0.765145957 0.047748603
0.344194263 0.763364494 0.069184542
0.480675727 0.768135428 0.063526832
0.626959145 0.774558902 0.015220795
0.795914352 0.774277031 0.006451614
0.968452811 0.770072341 0.006451614
0.000000000 0.957976758 0.006451614
0.006451614 0.955576897 0.009728658
0.173342571 0.924931049 0.024874251
0.326291263 0.922379136 0.050117515
0.468834609 0.924653113 0.060425632
0.610403359 0.930911303 0.035012648
0.755931377 0.938589871 0.007332601
0.919309139 0.939887166 0.006451614
0.000000000 0.200266704 0.357674271
0.080648653 0.187752917 0.309250265
0.262077689 0.159166440 0.254520684
0.378545284 0.144473940 0.239348263
0.496070236 0.128521606 0.223829851
0.623329759 0.109624855 0.205305561
0.746270597 0.091992974 0.187934101
0.863806009 0.076291904 0.172555685
0.000000000 0.279303521 0.324824750
0.067952827 0.251755029 0.325540185
0.266760081 0.216416821 0.258925855
0.383020312 0.200806156 0.243124560
0.502562940 0.184985042 0.227895796
0.634190559 0.167238042 0.210632697
0.763165116 0.152056918 0.195785254
0.888438523 0.140448749 0.184451729
0.000000000 0.350640416 0.266316503
0.031138869 0.327183008 0.276154071
0.268820465 0.278618634 0.260708332
0.389642686 0.266575843 0.248651177
0.516815484 0.254905611 0.236963332
0.658117712 0.241152808 0.223237455
0.795505583 0.229621977 0.211668655
0.925440848 0.221502289 0.203556240
0.000000000 0.433640033 0.212227285
0.018250026 0.412744969 0.239828125
0.258322388 0.367488444 0.248991102
0.391019791 0.358923227 0.228722632
0.535701156 0.346524656 0.225623056
0.672915220 0.337529719 0.227418885
0.812294781 0.330582052 0.222224012
0.946591675 0.326857388 0.218712226
0.000000000 0.540626943 0.164452150
0.007323248 0.521760523 0.207597792
0.238003165 0.479034454 0.227449223
0.379886150 0.470239580 0.239045709
0.519545555 0.469792247 0.196428701
0.699624360 0.456468791 0.181901172
0.849397898 0.451514274 0.197351336
0.972744346 0.455694169 0.215301618
0.000000000 0.669868171 0.114169568
0.006451614 0.655642629 0.165200591
0.207384974 0.616269171 0.195565879
0.361713827 0.609499395 0.220629171
0.497847259 0.613264740 0.211531773
0.661190689 0.613764644 0.162120819
0.843492031 0.605878174 0.147730947
0.993135571 0.602495313 0.157629594
0.000000000 0.817992747 0.076229565
0.006451614 0.809022903 0.131349504
0.180001765 0.772589684 0.166822955
0.340923190 0.766271234 0.198790148
0.486964494 0.766721606 0.211553037
0.630195856 0.772657275 0.176538751
0.795024455 0.773882985 0.129389137
0.968156636 0.769407511 0.115885116
0.000000000 0.975463450 0.052863728
0.006451614 0.968255520 0.108499184
0.158381999 0.932847142 0.143902436
0.320909530 0.926480174 0.177918971
0.471068621 0.925440371 0.198607117
0.617220700 0.928561091 0.190406516
0.757481217 0.937496722 0.142106861
0.918332934 0.939475119 0.099629983
0.000000000 0.196739420 0.504211187
0.076407775 0.181672975 0.447565585
0.269398421 0.152375951 0.365362436
0.377175331 0.141481116 0.332410872
0.492740750 0.126059249 0.315375537
0.619334757 0.107296221 0.296876460
0.742065012 0.089906514 0.279772639
0.860037148 0.074501365 0.264662325
0.000000000 0.276293099 0.471270472
0.051533919 0.248531476 0.462763458
0.271561086 0.209003076 0.376045048
0.381243348 0.198071390 0.335904568
0.499747276 0.182984382 0.319770187
0.631368518 0.165887371 0.303043425
0.761191428 0.151313096 0.288878858
0.887037218 0.140047789 0.277775794
0.000000000 0.353504628 0.400245696
0.008873854 0.328698039 0.413991600
0.254709572 0.277324915 0.388634831
0.389142781 0.265573233 0.342882633
0.516236603 0.254548371 0.331231475
0.657803953 0.241014078 0.317953289
0.795894206 0.229824513 0.307023764
0.926477611 0.221998394 0.299516410
0.000000000 0.445725828 0.321077019
0.006451614 0.426982582 0.339208871
0.214406893 0.381738514 0.332352817
0.389601886 0.357869238 0.343060046
0.522042096 0.350262970 0.335605234
0.669054687 0.340176076 0.325527072
0.812481821 0.332903564 0.318213493
0.947855532 0.329545468 0.314778090
0.000000000 0.560418010 0.245153934
0.006451614 0.542884827 0.274662733
0.197435066 0.496098101 0.292108953
0.375425488 0.474797457 0.328418046
0.519964755 0.470917791 0.312908292
0.686564922 0.461018026 0.313085586
0.823055685 0.461113453 0.323055476
0.958572805 0.463628918 0.326133251
0.000000000 0.694079459 0.178378955
0.006451614 0.679208577 0.223063260
0.171932071 0.634099901 0.260886073
0.352591366 0.618216574 0.304969668
0.505950451 0.614421248 0.322886109
0.663237810 0.616246223 0.281594574
0.842957258 0.608558476 0.273178279
0.982897520 0.609797776 0.293916911
0.000000000 0.843609393 0.136362836
0.006451614 0.832516968 0.190359101
0.148491099 0.790342689 0.234501809
0.329277158 0.776721060 0.280922264
0.489526004 0.771398604 0.308156490
0.638611615 0.773466706 0.297369331
0.797045350 0.776604116 0.250536233
0.970001400 0.771814764 0.240098208
0.000000000 0.992232084 0.112921372
0.006451614 0.989441395 0.170238420
0.129682139 0.949660063 0.213917136
0.308150083 0.937637925 0.259118527
0.469104499 0.932494104 0.290156096
0.626300216 0.930378199 0.299281895
0.763531506 0.938877165 0.265707791
0.920381308 0.941860080 0.221275747
0.000000000 0.190084577 0.693455160
0.063506752 0.174198940 0.628110707
0.271243006 0.143349946 0.510353684
0.383452982 0.133677617 0.449774265
0.490820140 0.122270361 0.415705532
0.615064740 0.104549803 0.394566476
0.737602592 0.087453410 0.376868308
0.855954289 0.072427988 0.361760229
0.000000000 0.269328117 0.659503579
0.031819746 0.242140979 0.640619278
0.265323818 0.200964421 0.532003045
0.387737304 0.190004051 0.457721978
0.498182088 0.179939732 0.421307415
0.628610075 0.164019540 0.402795434
0.759138405 0.150212020 0.388906419
0.885525942 0.139247879 0.378365874
0.000000000 0.350448966 0.573603749
0.006451614 0.324142128 0.590070486
0.238412708 0.273947567 0.546124995
0.395111173 0.258764654 0.476125956
0.516080081 0.253139913 0.435954601
0.656893730 0.240430668 0.421525270
0.795250237 0.229583606 0.411239177
0.926414251 0.222174674 0.404921263
0.000000000 0.450535148 0.467292458
0.006451614 0.430790067 0.492042691
0.186097443 0.384475172 0.485350102
0.375303566 0.357666790 0.489648819
0.522712052 0.350140393 0.441678435
0.669822991 0.340769798 0.431662291
0.813643098 0.333745182 0.425486356
0.949739873 0.330923229 0.423818439
0.000000000 0.573611975 0.362267077
0.006451614 0.557458460 0.389782399
0.145185515 0.512819409 0.396963447
0.328893811 0.492098719 0.419175297
0.519878089 0.471362233 0.439505726
0.671958566 0.466906428 0.435037524
0.820075989 0.465162814 0.433049411
0.959663272 0.467129916 0.434655875
0.000000000 0.714567482 0.270182252
0.006451614 0.702066302 0.305754334
0.113589853 0.658448040 0.330989867
0.310104400 0.638722956 0.373835713
0.501207352 0.620869637 0.421734154
0.664816022 0.618566632 0.406100839
0.829434812 0.613694489 0.412291974
0.956815541 0.619326413 0.428547651
0.000000000 0.868281901 0.212546319
0.006451614 0.858455360 0.257447749
0.094014384 0.815469623 0.295627117
0.293345183 0.795856953 0.350395590
0.478001595 0.780786753 0.399756014
0.647292018 0.774271429 0.417138726
0.799147129 0.779075623 0.373270959
0.970075130 0.774536669 0.367916405
0.000000000 0.994701147 0.178906530
0.006451614 0.993719220 0.231263652
0.081458412 0.973242462 0.275617003
0.277325839 0.955071688 0.330598176
0.455132097 0.943246901 0.378170788
0.628474593 0.934860587 0.402611911
0.771558642 0.939228296 0.391005695
0.922413468 0.944547176 0.342554331
0.000000000 0.182381406 0.895430088
0.046093218 0.165610686 0.830769658
0.264971197 0.132719725 0.694179833
0.387197405 0.123056568 0.602296889
0.497363478 0.113302797 0.542429149
0.613087654 0.100048728 0.503271401
0.733310878 0.084242277 0.482152760
0.851829290 0.069666281 0.466390431
0.000000000 0.260784745 0.864505768
0.011434052 0.234254897 0.839090526
0.251099795 0.191965774 0.721892416
0.388569713 0.179487213 0.621131957
0.505905807 0.171219125 0.553122759
0.627807796 0.160569817 0.515268207
0.756895125 0.148154810 0.499465138
0.883857071 0.137656137 0.489879698
0.000000000 0.343628168 0.779743910
0.006451614 0.316962570 0.793227315
0.219889075 0.268344194 0.735309243
0.389060825 0.251068115 0.656275749
0.525751352 0.245151341 0.578002214
0.657300293 0.238156393 0.540328979
0.794286668 0.228234574 0.529092789
0.925649464 0.221120119 0.524118900
0.000000000 0.449702561 0.656189322
0.006451614 0.428583771 0.688121557
0.165487126 0.381205380 0.676627100
0.358766377 0.354937524 0.669865310
0.531632185 0.342993647 0.596021295
0.671115816 0.339870602 0.552534759
0.814281464 0.333857745 0.546617210
0.950485528 0.331403017 0.546734631
0.000000000 0.580126345 0.519227028
0.006451614 0.563336015 0.555273592
0.110868573 0.518197656 0.562523484
0.300312012 0.495650560 0.592319012
0.503338456 0.472582847 0.608741701
0.674349487 0.468099922 0.556136727
0.822246969 0.467056453 0.555239797
0.961863339 0.469033808 0.558479011
0.000000000 0.729412615 0.394708633
0.006451614 0.717903376 0.432820112
0.063108735 0.675768375 0.451547354
0.257498533 0.657788634 0.485621631
0.444346249 0.642762959 0.521350265
0.664998353 0.619274139 0.548168719
0.813642204 0.620023966 0.548685551
0.953148603 0.623164713 0.551457882
0.000000000 0.889043450 0.313294888
0.006451614 0.880635083 0.353996962
0.035524115 0.839696050 0.379604965
0.235695660 0.821007490 0.421210229
0.427886903 0.803906977 0.472525209
0.640606940 0.780678868 0.524875104
0.800249517 0.780616045 0.507879317
0.956194282 0.778914809 0.518850684
0.000000000 0.995161295 0.260701209
0.006451614 0.995161295 0.306154966
0.026160127 0.992093205 0.340546221
0.225226000 0.980009139 0.391528934
0.414522648 0.963322878 0.450867802
0.614752293 0.944714546 0.500866830
0.779711604 0.938964427 0.520477593
0.924157083 0.946626782 0.470327616
0.000000000 0.176431388 0.988709688
0.028646518 0.158527449 0.988166273
0.254442960 0.122847594 0.882324636
0.386075199 0.111776263 0.774619460
0.503918469 0.102303699 0.689844847
0.621331930 0.090668745 0.630874872
0.732498407 0.079442702 0.593752742
0.848696828 0.066498622 0.574847639
0.000000000 0.253702164 0.988709688
0.007656190 0.227725118 0.988709688
0.234723434 0.184085399 0.909023046
0.382848144 0.169321328 0.802931786
0.512440026 0.160525739 0.709796786
0.638441861 0.151966631 0.648949087
0.758203447 0.144633740 0.616184950
0.882770240 0.135593876 0.604586005
0.000000000 0.337190151 0.973626614
0.006451614 0.310934573 0.978414178
0.201726973 0.263250321 0.920916796
0.376597553 0.244691998 0.845812976
0.530353427 0.235865340 0.749445200
0.669685364 0.230024427 0.681921244
0.796421528 0.225842595 0.651227117
0.925886273 0.219930544 0.645018816
0.000000000 0.446647853 0.855875611
0.006451614 0.424780160 0.888501346
0.147609860 0.377018631 0.870984793
0.342002898 0.351715535 0.855781078
0.527427971 0.336889446 0.781556547
0.685242891 0.332533956 0.701709688
0.817479670 0.333075523 0.671301246
0.952233434 0.331765532 0.670709252
0.000000000 0.582326055 0.704627275
0.006451614 0.564579248 0.747050405
0.085040279 0.518749535 0.755217433
0.281782299 0.494654000 0.785770714
0.486373603 0.473013073 0.792154133
0.687935770 0.462185055 0.717473507
0.826064050 0.468237013 0.679645061
0.964175105 0.470947862 0.682394445
0.000000000 0.738390863 0.554920077
0.006451614 0.726283431 0.600403786
0.028449098 0.684321821 0.619235337
0.223969340 0.665045798 0.659111202
0.412565023 0.649065077 0.703727007
0.646619678 0.622101367 0.723875046
0.816805661 0.621974051 0.670982480
0.955577374 0.625534236 0.673954844
0.000000000 0.904727459 0.443959624
0.006451614 0.896112204 0.488399327
0.014769949 0.856484294 0.507907391
0.185519606 0.838562846 0.545880377
0.369205773 0.825002789 0.587916553
0.573183775 0.806177258 0.624818206
0.800370812 0.781252980 0.655369461
0.940197647 0.784993351 0.658885956
0.000000000 0.995161295 0.363336921
0.006451614 0.995161295 0.407480150
0.012903227 0.994243860 0.431910247
0.167780057 0.992498636 0.472804368
0.353408098 0.989610672 0.520332336
0.556714833 0.970241904 0.571936071
0.772687018 0.945680797 0.628032923
0.924539328 0.947525978 0.610089421
0.000000000 0.171309426 0.995161295
0.011588363 0.152355850 0.995161295
0.241990387 0.114568532 0.995161295
0.380979449 0.101231933 0.950250626
0.507474422 0.090673395 0.852445364
0.630407751 0.079521731 0.774921834
0.742103755 0.070088491 0.722894967
0.849658549 0.061717242 0.690001786
0.000000000 0.247481406 0.995161295
0.006451614 0.221889704 0.995161295
0.218113959 0.177651212 0.995161295
0.373357564 0.160831839 0.981712103
0.514201105 0.150154829 0.881271601
0.649494708 0.141596869 0.800825834
0.770683408 0.136281908 0.751674891
0.885220051 0.132065982 0.724466383
0.000000000 0.331434906 0.995161295
0.006451614 0.305953652 0.995161295
0.184690550 0.259355783 0.995161295
0.362440467 0.239861593 0.995007038
0.527943254 0.227995202 0.930332959
0.681005836 0.220411345 0.843537271
0.810398042 0.218103141 0.792031169
0.929335296 0.217713237 0.768752337
0.000000000 0.443547130 0.995161295
0.006451614 0.421360016 0.995161295
0.131618962 0.373963326 0.995161295
0.326354742 0.349552780 0.995161295
0.516165078 0.333198726 0.965681911
0.694158316 0.324718833 0.874685347
0.833382189 0.326485813 0.816826522
0.956550896 0.331599683 0.796400845
0.000000000 0.582798004 0.896495402
0.006451614 0.564560831 0.939358056
0.064381085 0.518037438 0.947441518
0.266558260 0.493491977 0.972449183
0.469924271 0.473466873 0.971899867
0.686614096 0.458315700 0.903066456
0.843535125 0.462382346 0.831306159
0.968968034 0.472081035 0.807597041
0.000000000 0.743727565 0.738974392
0.006451614 0.731155813 0.788823366
0.017040685 0.688612223 0.809138656
0.199654907 0.667953432 0.851952493
0.393760324 0.650403500 0.896013379
0.628169894 0.624662161 0.905052125
0.832044780 0.616136253 0.833607256
0.959640443 0.627402663 0.797168553
0.000000000 0.914990485 0.609632850
0.006451614 0.905757248 0.659106553
0.012903227 0.866043925 0.677887321
0.148643240 0.847423732 0.719347000
0.333862931 0.832979798 0.766580999
0.534922719 0.814201355 0.811840057
0.780950129 0.784759641 0.833087921
0.943448007 0.787270963 0.780263782
0.000000000 0.995161295 0.501173913
0.006451614 0.995161295 0.548410952
0.012903227 0.995161295 0.568170369
0.118616447 0.994047344 0.607416451
0.301905036 0.992794633 0.651030779
0.488311976 0.991508305 0.693353891
0.700317562 0.972596884 0.728468537
0.924080849 0.947559714 0.760511696
