Desert Affinity Presets/Desert Affinity Preset #20.cube
TITLE "32x32x32 Adobe/IRIDAS cube 3D LUT exported with GrossGrade v0.1.027.1 (beta) 64 bit"
DOMAIN_MIN 0 0 0
DOMAIN_MAX 1 1 1
LUT_3D_SIZE 32
0.037486807 0.037283890 0.037936255
0.057945069 0.041252539 0.039490104
0.076234132 0.044813875 0.040944353
0.094095238 0.047610693 0.041889459
0.114066534 0.049350258 0.041608870
0.140049756 0.049400751 0.039129119
0.173715100 0.046457544 0.033070676
0.212781459 0.040839612 0.024099924
0.253397554 0.033421405 0.013939628
0.293985158 0.025498107 0.004320767
0.330350906 0.019099256 0.000000000
0.362895310 0.014377326 0.000000000
0.394360423 0.010527905 0.000000000
0.427127957 0.006107991 0.000000000
0.466082036 0.001383207 0.000000000
0.508861184 0.000000000 0.000000000
0.553158104 0.000000000 0.000000000
0.597040594 0.000000000 0.000000000
0.638238072 0.000000000 0.000000000
0.676331282 0.000000000 0.000000000
0.711917281 0.000000000 0.000000000
0.744062066 0.000000000 0.000000000
0.773269773 0.000000000 0.000000000
0.798057556 0.000000000 0.000000000
0.821689606 0.000000000 0.000000000
0.847523510 0.000000000 0.000000000
0.882723987 0.031501312 0.000000000
0.922424853 0.100939542 0.014014416
0.952345490 0.170178279 0.077890605
0.963255167 0.199101716 0.109274074
0.965335608 0.200654253 0.110981852
0.966948569 0.200654253 0.110981852
0.040199459 0.055417210 0.041747779
0.055687957 0.054927625 0.042078793
0.074253283 0.056191556 0.041841738
0.092498280 0.057247855 0.041941348
0.111915469 0.058193915 0.041723918
0.136864156 0.058274746 0.039683685
0.169194639 0.055720173 0.034042861
0.207863167 0.050381467 0.025185313
0.247660160 0.043238148 0.014922515
0.286760062 0.035541166 0.004979171
0.323738456 0.028841659 0.000000000
0.358095616 0.023513207 0.000000000
0.391056329 0.019173281 0.000000000
0.425022990 0.014275934 0.000000000
0.464481026 0.006889475 0.000000000
0.508173883 0.001935558 0.000000000
0.552954137 0.001612904 0.000000000
0.596838415 0.001612904 0.000000000
0.637975156 0.001612904 0.000000000
0.676086009 0.001612904 0.000000000
0.711733222 0.001612904 0.000000000
0.743946135 0.001612904 0.000000000
0.773197591 0.001612904 0.000000000
0.798126280 0.001612904 0.000000000
0.822244346 0.001612904 0.000000000
0.848680675 0.001612904 0.000000000
0.883964837 0.035454154 0.000000000
0.922921002 0.104169533 0.014337120
0.952614307 0.173025578 0.078187570
0.963459611 0.201880038 0.109554462
0.965537310 0.203429744 0.111262254
0.967150271 0.203429744 0.111262254
0.043022908 0.071176343 0.044911668
0.056285035 0.070164457 0.044926580
0.072308458 0.070850417 0.045165993
0.090895377 0.071196496 0.043646269
0.110447988 0.071718305 0.042394001
0.134217724 0.071883909 0.040353291
0.165006161 0.070149027 0.035265643
0.200590655 0.066051796 0.027006183
0.237917244 0.060249623 0.017076839
0.275012851 0.053977001 0.006801935
0.311323017 0.047825050 0.000000000
0.347067297 0.042223997 0.000000000
0.382924557 0.037058692 0.000000000
0.420551777 0.031393051 0.000000000
0.460834622 0.024289062 0.000000000
0.504624844 0.015490430 0.000000000
0.550087869 0.007019106 0.000000000
0.595474899 0.003225807 0.000000000
0.637604594 0.003225807 0.000000000
0.675647378 0.003225807 0.000000000
0.711382210 0.003225807 0.000000000
0.743716478 0.003225807 0.000000000
0.772996247 0.003225807 0.000000000
0.798120856 0.003225807 0.000000000
0.824372590 0.003225807 0.000000000
0.852887571 0.004417290 0.000000000
0.887764215 0.043825053 0.000000000
0.925105572 0.111357719 0.016014876
0.953588724 0.178579912 0.079300009
0.963940263 0.207026497 0.110247873
0.965989053 0.208559349 0.111930378
0.967601955 0.208559349 0.111930378
0.045433953 0.085957758 0.047257669
0.056552574 0.084875241 0.047031295
0.072156504 0.085163258 0.047555991
0.089302115 0.086764954 0.047387630
0.109999798 0.087521046 0.044399593
0.134172663 0.087843634 0.040874682
0.163147032 0.086321577 0.035886675
0.196878597 0.083134830 0.028397793
0.231242850 0.078756541 0.019437866
0.266794443 0.073682442 0.009406087
0.302926332 0.068343192 0.001423890
0.339208037 0.063133493 0.000000000
0.376459390 0.058176324 0.000000000
0.416641682 0.052756622 0.000000000
0.459833890 0.046130985 0.000000000
0.503962278 0.038218927 0.000000000
0.548815072 0.027104674 0.000000000
0.593026459 0.013098698 0.000000000
0.636372328 0.005585026 0.000000000
0.676309764 0.004838713 0.000000000
0.712619603 0.004838713 0.000000000
0.745394528 0.004838713 0.000000000
0.774037480 0.004838713 0.000000000
0.800027668 0.005202050 0.000000000
0.829223275 0.006933157 0.000000000
0.861016214 0.022328889 0.000000000
0.894428909 0.060457308 0.000000000
0.928615689 0.122884750 0.018702723
0.954872966 0.187588722 0.080858544
0.965112448 0.215166241 0.111764438
0.967171431 0.216658950 0.113459110
0.968784392 0.216658950 0.113459110
0.046546865 0.101544879 0.049298290
0.055750556 0.100548871 0.048996247
0.071170740 0.100518465 0.049429260
0.088829920 0.101965249 0.050116193
0.108353145 0.104458570 0.049095426
0.133571520 0.105290249 0.043164119
0.162356943 0.103928022 0.036563314
0.193636969 0.100895442 0.029381651
0.225344285 0.097025447 0.021110510
0.259542853 0.093002990 0.012152880
0.295990318 0.088649459 0.003584270
0.333026558 0.084167391 0.000000000
0.371622175 0.079670787 0.000000000
0.413653493 0.074863255 0.000000000
0.459343851 0.069214448 0.000000000
0.505741060 0.062032357 0.000000000
0.550995290 0.052328359 0.000000000
0.595208347 0.039331496 0.000000000
0.637843728 0.024450107 0.000000000
0.678233087 0.013082387 0.000000000
0.715885878 0.009601468 0.000000000
0.749935925 0.009618299 0.000000000
0.780318379 0.010145774 0.000000000
0.809484839 0.013600985 0.000000000
0.841314971 0.027996026 0.000000000
0.873228431 0.050646309 0.000000000
0.904118955 0.084225722 0.000000000
0.933708906 0.139521152 0.022520352
0.957174242 0.200528204 0.083527252
0.966546953 0.226581901 0.113723837
0.968562961 0.227984756 0.115382038
0.970175862 0.227984756 0.115382038
0.046287347 0.119059235 0.050204083
0.052063875 0.118364297 0.049903452
0.068955660 0.117935255 0.050142813
0.087947488 0.119293235 0.051337596
0.107442029 0.121856473 0.051884692
0.130737394 0.124597892 0.049256697
0.159253642 0.123309903 0.039320849
0.190702617 0.120199911 0.030033022
0.222274825 0.116360098 0.022160284
0.255858034 0.112556174 0.013809611
0.291328222 0.108969741 0.005552463
0.328042239 0.105390556 0.000000000
0.367638528 0.101777971 0.000000000
0.411781043 0.097823322 0.000000000
0.458653659 0.092875004 0.000000000
0.507062554 0.086196959 0.000000000
0.554039359 0.077448785 0.000000000
0.599629700 0.066736653 0.000000000
0.643595576 0.055213679 0.000000000
0.685639203 0.045109890 0.000000000
0.725518286 0.039263323 0.000000000
0.761624992 0.038070433 0.000000000
0.793371320 0.041032322 0.000000000
0.823215365 0.048805967 0.000000000
0.854744196 0.062227920 0.000000000
0.885594010 0.081330411 0.000000000
0.914343238 0.111183129 0.000000000
0.938965797 0.160808519 0.026476370
0.959826529 0.217380509 0.086690232
0.968492150 0.242389590 0.116394758
0.970471621 0.243754134 0.118025824
0.972084522 0.243754134 0.118025824
0.044101752 0.139166489 0.049310032
0.047213349 0.138949156 0.049215104
0.064572237 0.138139412 0.049456399
0.085376076 0.139152035 0.050632887
0.105665095 0.141759858 0.051981952
0.127406448 0.143605232 0.051630318
0.153077692 0.144163162 0.046299480
0.185719237 0.141606152 0.033407368
0.219210207 0.138217673 0.023228329
0.253520787 0.134721324 0.015981227
0.289739013 0.131241754 0.008700481
0.325999856 0.128092825 0.002098657
0.365312129 0.124959730 0.000000000
0.409845203 0.121643566 0.000000000
0.457822174 0.117890261 0.000000000
0.508350730 0.112224981 0.000000000
0.557848454 0.104587801 0.000000000
0.604710996 0.095376819 0.000000000
0.650301218 0.085904717 0.000000000
0.694257081 0.078635693 0.000000000
0.735910773 0.074936852 0.000000000
0.773851097 0.074745111 0.000000000
0.806897104 0.078026854 0.000000000
0.837000608 0.085710652 0.000000000
0.868227601 0.098214641 0.000000000
0.898091614 0.115380041 0.000000000
0.924103796 0.141575634 0.000000000
0.944370985 0.186341330 0.030831752
0.962799549 0.238487691 0.090397775
0.970873833 0.261744201 0.119813554
0.972832799 0.263031095 0.121439017
0.974445701 0.263031095 0.121439017
0.039089371 0.162544146 0.045404468
0.041110970 0.162503451 0.045432992
0.057174072 0.161480144 0.046265364
0.079593539 0.161210522 0.047649030
0.100947246 0.163600966 0.049190298
0.123006031 0.165300548 0.050591785
0.147478327 0.165756792 0.049219783
0.177140608 0.165231198 0.041748192
0.213369459 0.162962154 0.027798325
0.250078082 0.160029158 0.018595163
0.287646711 0.157005742 0.012429702
0.326557517 0.154084057 0.006054211
0.366207391 0.151233196 0.000870698
0.409732312 0.147734061 0.000000000
0.456201702 0.144104272 0.000000000
0.507108092 0.139706656 0.000000000
0.559364796 0.133279741 0.000000000
0.608603895 0.125455320 0.000000000
0.656020582 0.117623642 0.000000000
0.701832533 0.112493962 0.000000000
0.744913340 0.110435113 0.000000000
0.784242392 0.111416571 0.000000000
0.818389475 0.115473621 0.000000000
0.848987997 0.123548694 0.000000000
0.879737735 0.135828510 0.000000000
0.908566356 0.151911154 0.000000000
0.932338417 0.175493985 0.000831419
0.949265957 0.214914784 0.035060853
0.965737820 0.263025403 0.094273061
0.973021030 0.284074605 0.123316906
0.974931419 0.285226822 0.124915279
0.976544321 0.285226822 0.124915279
0.031577580 0.188244879 0.039160922
0.033568315 0.188183621 0.039191317
0.048441861 0.186734632 0.040209770
0.070526026 0.186037496 0.042475801
0.093082003 0.186857074 0.044645067
0.116336875 0.188997552 0.046898045
0.141417682 0.190000907 0.048254635
0.170218036 0.190074682 0.045973610
0.204012260 0.190127820 0.037053350
0.243444830 0.188018471 0.024136420
0.283817768 0.185597122 0.016113108
0.325375110 0.183168620 0.009871827
0.367981315 0.180417061 0.003544054
0.411771774 0.177081525 0.000000000
0.456610292 0.173248723 0.000000000
0.505357385 0.168998510 0.000000000
0.558093786 0.163596883 0.000000000
0.609981358 0.157169670 0.000000000
0.659336030 0.150926948 0.000000000
0.706865907 0.147612363 0.000000000
0.751275003 0.147182599 0.000000000
0.791509211 0.149253994 0.000000000
0.826648057 0.154332995 0.000000000
0.857839108 0.162881374 0.000000000
0.888062775 0.175132811 0.000000000
0.916069746 0.190354943 0.000000000
0.938906550 0.211885870 0.004633134
0.953792632 0.246509045 0.039636016
0.968461335 0.290163785 0.098112397
0.975226283 0.309495419 0.127143934
0.977116048 0.310553193 0.128753528
0.978728950 0.310553193 0.128753528
0.022747148 0.213497877 0.033087067
0.024643892 0.213494599 0.033092212
0.038091205 0.212047726 0.033941392
0.059662849 0.210997239 0.036424402
0.084057055 0.212590843 0.039634146
0.108827986 0.215437725 0.042723212
0.134633616 0.216945887 0.045015413
0.163664401 0.217161641 0.045988087
0.196591765 0.216944039 0.042848531
0.234485269 0.218028948 0.032459490
0.277598262 0.216261968 0.020980515
0.323065966 0.214398384 0.013142811
0.368817598 0.212377980 0.006580278
0.413532734 0.209422290 0.001077383
0.458683938 0.205783397 0.000000000
0.506358683 0.201403871 0.000000000
0.557629585 0.195866480 0.000000000
0.609718859 0.190373421 0.000000000
0.660436690 0.186140060 0.000000000
0.709172130 0.184548929 0.000000000
0.754864514 0.185528532 0.000000000
0.795982599 0.188748688 0.000000000
0.831745923 0.194644168 0.000000000
0.863387167 0.203399137 0.000000000
0.893735111 0.215578124 0.000000000
0.921774447 0.229938462 0.000000000
0.944061458 0.249572396 0.009599224
0.957645357 0.280287772 0.044002153
0.970714808 0.319736660 0.101833671
0.976805091 0.337589651 0.130719051
0.978658378 0.338576317 0.132319272
0.980271280 0.338576317 0.132319272
0.014529271 0.238298997 0.028234113
0.016281525 0.238305062 0.028237386
0.026363388 0.238370374 0.028442236
0.048715975 0.238135964 0.030609649
0.074679494 0.239995509 0.034567077
0.100196883 0.243312389 0.038288798
0.127041698 0.245725542 0.041281052
0.156488433 0.246645823 0.043050054
0.189765796 0.246397167 0.043245077
0.226677179 0.246800140 0.039200667
0.269760549 0.249295518 0.027432607
0.319369018 0.248408005 0.016987499
0.368791610 0.246845216 0.009783430
0.414595217 0.244283602 0.003773655
0.460359335 0.241108507 0.000000000
0.508432090 0.236830741 0.000000000
0.559709072 0.231319606 0.000000000
0.612013936 0.226412103 0.000000000
0.662466407 0.223327905 0.000000000
0.711207092 0.223139882 0.000000000
0.757309794 0.225229084 0.000000000
0.799018443 0.229378030 0.000000000
0.835239410 0.235991925 0.000000000
0.866944909 0.244950712 0.000000000
0.897554755 0.257106841 0.000000000
0.926027954 0.270842195 0.000000000
0.948197246 0.288540691 0.013736680
0.960422993 0.315789044 0.047470916
0.972419441 0.351474792 0.105049081
0.978059173 0.367450327 0.134150967
0.979886293 0.368360341 0.135754913
0.981499195 0.368360341 0.135754913
0.006398851 0.263547450 0.023592114
0.008012222 0.263547450 0.023592114
0.013340797 0.263709992 0.023716491
0.034996126 0.265115887 0.025019765
0.065571301 0.268213004 0.029419100
0.090521023 0.271944493 0.033437781
0.118165210 0.274892271 0.036888771
0.148322821 0.276888877 0.039389603
0.182767481 0.278006077 0.040455736
0.220615029 0.278632075 0.040409423
0.263100296 0.280618429 0.035118848
0.312289089 0.284254998 0.022189718
0.366154373 0.283575177 0.013268577
0.414692432 0.281212360 0.007055847
0.461334676 0.278373301 0.001596908
0.509814024 0.274676472 0.000000000
0.561822712 0.269566000 0.000000000
0.615425944 0.265437573 0.000000000
0.666495025 0.263413072 0.000000000
0.714092433 0.263565511 0.000000000
0.759441197 0.266256750 0.000000000
0.801005900 0.270961255 0.000000000
0.837359846 0.278063178 0.000000000
0.869203269 0.287175447 0.000000000
0.899671316 0.299263328 0.000000000
0.928532064 0.312338203 0.000000000
0.950958192 0.328379542 0.016887913
0.962222934 0.352340907 0.050142862
0.973373473 0.384333193 0.107652329
0.978899240 0.398325771 0.137510240
0.980707645 0.399085194 0.139149740
0.982320607 0.399085194 0.139149740
0.000924009 0.293045223 0.018642884
0.002536913 0.293045223 0.018642884
0.004634733 0.293019056 0.018691514
0.020612773 0.293442219 0.019866137
0.055886049 0.297071069 0.023843247
0.080375135 0.301162541 0.028111605
0.108087987 0.304917604 0.032093845
0.139832154 0.308138996 0.035163280
0.175529212 0.310544968 0.037249774
0.215381697 0.312886745 0.037784226
0.258484781 0.314868629 0.037357766
0.306056887 0.317834169 0.031225972
0.359101772 0.321520507 0.017833434
0.411800951 0.319819808 0.010634053
0.460966438 0.316931725 0.004813162
0.510402679 0.313560009 0.000172083
0.563096225 0.310006171 0.000000000
0.617820144 0.306791484 0.000000000
0.670710862 0.305853307 0.000000000
0.718243062 0.306186289 0.000000000
0.761900246 0.308356106 0.000000000
0.802222371 0.312704116 0.000000000
0.838057399 0.319756866 0.000000000
0.869889736 0.328999937 0.000000000
0.899735093 0.340467483 0.000000000
0.928893864 0.353070170 0.000000000
0.952031136 0.367966235 0.019044073
0.963081539 0.388983577 0.052011430
0.974031806 0.417661399 0.110093020
0.979785442 0.430543393 0.141001716
0.981620014 0.431259781 0.142718807
0.983232915 0.431259781 0.142718807
0.000000000 0.328119040 0.013031982
0.001612904 0.328119040 0.013031982
0.003259475 0.328162998 0.013086224
0.012301850 0.328275770 0.014179935
0.046243824 0.329712301 0.018257581
0.071577385 0.332545340 0.022861237
0.097981431 0.336631238 0.027098751
0.131373227 0.341359615 0.030963134
0.169237033 0.345373869 0.033431202
0.210649252 0.348505735 0.034934126
0.255209774 0.351488888 0.034931298
0.302062929 0.353996575 0.033759486
0.352503479 0.357280016 0.026953805
0.405481994 0.359578580 0.015050654
0.457649112 0.357221186 0.008536319
0.509732604 0.353910446 0.002312358
0.563986361 0.351362228 0.000000000
0.619785011 0.349923939 0.000000000
0.673805535 0.349710494 0.000000000
0.721782565 0.350182980 0.000000000
0.764890194 0.351765126 0.000000000
0.803702056 0.355253279 0.000000000
0.838100731 0.361255586 0.000000000
0.869278550 0.369979769 0.000000000
0.898249030 0.380547345 0.000000000
0.927536249 0.392695725 0.000000000
0.951466918 0.406806320 0.020200517
0.963562667 0.425951451 0.053549413
0.975348234 0.452389687 0.113013387
0.981378317 0.464356393 0.144840643
0.983221292 0.465013921 0.146609232
0.984834194 0.465013921 0.146609232
0.000000000 0.364389569 0.007812440
0.001612904 0.364389569 0.007812440
0.003225807 0.364450365 0.007873231
0.007281061 0.365470678 0.008993627
0.037160851 0.367163181 0.012849137
0.065060250 0.368015051 0.018184599
0.090764143 0.371443123 0.022513341
0.123640075 0.376661777 0.026844380
0.163241848 0.381647259 0.029746398
0.205946699 0.385368258 0.031574760
0.251420617 0.388429582 0.032465130
0.299576104 0.391718209 0.032009635
0.348915011 0.394656420 0.029824955
0.399724901 0.397531539 0.022816803
0.451678008 0.398518384 0.012567618
0.506240964 0.395904928 0.006051409
0.563493073 0.393861324 0.000371754
0.621041954 0.393351167 0.000000000
0.675945461 0.393790752 0.000000000
0.724231899 0.394544333 0.000000000
0.766997099 0.395881742 0.000000000
0.805260301 0.398727924 0.000000000
0.838588476 0.403582543 0.000000000
0.868339241 0.410693794 0.000000000
0.896264911 0.419855058 0.000000000
0.925217032 0.431576461 0.000000000
0.950655937 0.445626497 0.021160506
0.964354813 0.463554621 0.055057939
0.977422357 0.488390625 0.116286404
0.983794212 0.499371707 0.149447292
0.985659599 0.499996454 0.151271954
0.987272561 0.499996454 0.151271954
0.000000000 0.399702191 0.003340641
0.001612904 0.399702191 0.003340641
0.003225807 0.399757355 0.003390208
0.006200873 0.400895447 0.004487704
0.028886383 0.403968573 0.008065893
0.060028255 0.405608296 0.014200987
0.085780367 0.407841742 0.018803300
0.117285810 0.412809968 0.023252601
0.157508969 0.418409944 0.026552130
0.201622352 0.422716260 0.028455332
0.247866452 0.425934643 0.029688872
0.296878546 0.429039687 0.030333741
0.347164392 0.432477355 0.029452706
0.397178352 0.435755312 0.026383748
0.447001338 0.438060194 0.019300345
0.500824094 0.439178228 0.010188395
0.560267448 0.437649995 0.002805694
0.620538712 0.437070966 0.000000000
0.676888525 0.437443405 0.000000000
0.725859642 0.438444018 0.000000000
0.768452942 0.439855993 0.000000000
0.806364477 0.442483634 0.000000000
0.839387715 0.446703821 0.000000000
0.868601322 0.452621043 0.000000000
0.895338595 0.459664822 0.000000000
0.923573911 0.470442176 0.000000000
0.950056553 0.484567881 0.021976929
0.966073632 0.502034783 0.056935914
0.979955196 0.525404394 0.119509317
0.986668169 0.535555243 0.154443413
0.988541067 0.536103308 0.156367242
0.990153968 0.536103308 0.156367242
0.000000000 0.434556991 0.000617251
0.001612904 0.434556991 0.000617251
0.003225807 0.434607506 0.000617251
0.005178201 0.435613215 0.001104039
0.019997954 0.438868225 0.004064980
0.056097977 0.443085313 0.011171775
0.083197288 0.445638537 0.016233269
0.112267107 0.449458569 0.020403927
0.152144343 0.455033839 0.023884824
0.197501585 0.459754288 0.025756709
0.244852066 0.463527501 0.027071165
0.294442028 0.466725320 0.028228521
0.345722109 0.469816267 0.028377207
0.396699339 0.473841757 0.027716484
0.445885479 0.477974951 0.023920378
0.497002006 0.480981469 0.016016753
0.555161417 0.482368022 0.007090915
0.617286980 0.481668174 0.000497546
0.676297903 0.481355816 0.000000000
0.727252960 0.482125610 0.000000000
0.770154655 0.483864665 0.000000000
0.808105767 0.486796349 0.000000000
0.841029167 0.490928978 0.000000000
0.870056331 0.496094733 0.000000000
0.896452785 0.501751125 0.000000000
0.923459828 0.510429204 0.000000000
0.949697435 0.523748934 0.021485958
0.967631876 0.540950656 0.058013275
0.982193589 0.563268781 0.122067235
0.988941908 0.572912633 0.158696279
0.990838170 0.573442042 0.160736993
0.992451131 0.573442042 0.160736993
0.000000000 0.471330643 0.000000000
0.001612904 0.471330643 0.000000000
0.003225807 0.471330643 0.000000000
0.004838713 0.471856713 0.000000000
0.012712051 0.474704593 0.001326158
0.051538732 0.481088638 0.008465249
0.080822274 0.484474808 0.013981235
0.108324602 0.487305820 0.017812889
0.146726698 0.492301553 0.021348024
0.193476841 0.497272611 0.023365811
0.241680130 0.501176596 0.024218721
0.291937083 0.504729509 0.025467733
0.344013810 0.508631587 0.026545106
0.396031410 0.512651503 0.026571769
0.445746928 0.517865539 0.026161233
0.495191544 0.522574127 0.021449033
0.550558448 0.525942266 0.011883519
0.611136317 0.527069807 0.002845911
0.672849119 0.526950538 0.000000000
0.727482438 0.527505934 0.000000000
0.772204638 0.529137194 0.000000000
0.810205519 0.532454252 0.000000000
0.843211234 0.536871076 0.000000000
0.872036994 0.541600823 0.000000000
0.898277640 0.546686709 0.000000000
0.924625039 0.553684354 0.001899917
0.949564040 0.564400613 0.020616660
0.968564212 0.580814660 0.057653688
0.983459651 0.602218390 0.123086222
0.990108192 0.611439526 0.161362946
0.991985798 0.611940861 0.163498178
0.993598759 0.611940861 0.163498178
0.000000000 0.511036158 0.000000000
0.001612904 0.511036158 0.000000000
0.003225807 0.511036158 0.000000000
0.004838713 0.511071324 0.000000000
0.010076565 0.512982309 0.000284310
0.045005672 0.520283341 0.005046504
0.077800535 0.524771631 0.011591726
0.104396783 0.526961744 0.015361167
0.140585080 0.530497015 0.018590031
0.188033998 0.535616577 0.020336600
0.237250939 0.540108979 0.020991275
0.288134664 0.543801844 0.021233464
0.340784013 0.548316419 0.022558223
0.393958896 0.553680122 0.023898887
0.444645464 0.558997393 0.024346838
0.493819773 0.564565837 0.024500715
0.546918809 0.569214582 0.018498369
0.605228901 0.572436810 0.007653470
0.666169167 0.574150681 0.000303950
0.724686742 0.575325251 0.000000000
0.772837698 0.576877296 0.000000000
0.811779916 0.579613984 0.000000000
0.844694614 0.584034920 0.000000000
0.873312831 0.588462949 0.000000000
0.899675369 0.593575954 0.000000000
0.925680578 0.599895716 0.005697884
0.949824750 0.608165503 0.021777272
0.968513727 0.621821702 0.055998333
0.983648241 0.642125964 0.122443326
0.990573168 0.650615275 0.163664520
0.992447913 0.651096880 0.165904507
0.994060814 0.651096880 0.165904507
0.000000000 0.553502262 0.000000000
0.001612904 0.553502262 0.000000000
0.003225807 0.553502262 0.000000000
0.004838713 0.553542972 0.000000000
0.008958031 0.554892004 0.000000000
0.036507674 0.562357962 0.001867653
0.072233088 0.566903055 0.008538648
0.100792326 0.568840623 0.012936565
0.134666950 0.570597112 0.016097626
0.181035191 0.574849129 0.017687555
0.230882645 0.580107987 0.017479004
0.282599568 0.585448921 0.016865468
0.335910350 0.590633512 0.017239559
0.390295982 0.596702099 0.019555662
0.442378342 0.602371514 0.021787133
0.492660046 0.607993364 0.023356419
0.545158327 0.613513231 0.024388930
0.601453125 0.618090034 0.017511722
0.660720229 0.621856272 0.006242206
0.719353676 0.624577403 0.000000000
0.771032393 0.626271248 0.000000000
0.811964393 0.628066301 0.000000000
0.845320880 0.631281793 0.000000000
0.873943508 0.635704994 0.000159924
0.900118470 0.640441358 0.002167864
0.926217020 0.646793365 0.009972371
0.949902594 0.654076815 0.025463518
0.967881978 0.663876355 0.053934745
0.983131111 0.682740927 0.122866854
0.990139246 0.690636575 0.167515367
0.992047668 0.691061199 0.170001313
0.993660569 0.691061199 0.170001313
0.000000000 0.597282887 0.000000000
0.001612904 0.597282887 0.000000000
0.003225807 0.597282887 0.000000000
0.004838713 0.597317994 0.000000000
0.007572019 0.598644495 0.000000000
0.026423099 0.606284142 0.000353049
0.063792646 0.611516774 0.004660255
0.094221927 0.613488495 0.009536074
0.126771793 0.614145756 0.012843040
0.171793059 0.616910696 0.014835553
0.223072425 0.622474492 0.014681710
0.275853574 0.628727615 0.013298506
0.330592185 0.635403872 0.013072176
0.386164904 0.641822100 0.015437840
0.440003872 0.647918701 0.019500509
0.491770804 0.653503895 0.022986116
0.545311928 0.658924878 0.025664588
0.600347579 0.664105058 0.027230177
0.657883465 0.669341326 0.020804660
0.715997159 0.673960090 0.009868558
0.767282963 0.675998807 0.000271217
0.810659111 0.676920831 0.000000000
