Desert Affinity Presets/Desert Affinity Preset #13.cube
TITLE "32x32x32 Adobe/IRIDAS cube 3D LUT exported with GrossGrade v0.1.027.1 (beta) 64 bit"
DOMAIN_MIN 0 0 0
DOMAIN_MAX 1 1 1
LUT_3D_SIZE 32
0.274657339 0.131784007 0.060970426
0.281171650 0.133938968 0.062521100
0.287999719 0.136110976 0.063910827
0.295412421 0.138292268 0.065466143
0.303120881 0.140265077 0.066691257
0.311451942 0.141978979 0.067686848
0.320781082 0.143428370 0.068554766
0.330923885 0.144564360 0.068994313
0.342562437 0.145417511 0.069177575
0.355840713 0.145785168 0.068899363
0.370900005 0.145633161 0.068143658
0.387539327 0.144951910 0.066889055
0.405767560 0.143876642 0.065259881
0.425405353 0.142327800 0.063175268
0.446653098 0.140434608 0.060701620
0.469587505 0.138037875 0.057715885
0.494304419 0.135119960 0.054319125
0.520915270 0.131680876 0.050336458
0.549680769 0.127670959 0.045805261
0.580726266 0.123086743 0.040683489
0.613686323 0.118028827 0.034952357
0.648381293 0.112404495 0.028648933
0.684748650 0.106399573 0.022016285
0.722422361 0.099979810 0.014983322
0.761242390 0.093257412 0.007658603
0.801461816 0.086373679 0.001169983
0.842299104 0.079156533 0.000000000
0.883421659 0.071995437 0.000000000
0.924504995 0.064726867 0.000000000
0.966010809 0.057561532 0.000000000
0.997475266 0.049959969 0.000000000
1.000000000 0.042255998 0.000000000
0.270476878 0.147931784 0.057163604
0.281096101 0.149280310 0.056997590
0.285211265 0.151941434 0.061439011
0.291783929 0.154211566 0.062377986
0.299349278 0.155983284 0.063539051
0.307745397 0.157667592 0.064608090
0.316855758 0.159004599 0.065408625
0.327178240 0.160107464 0.065963171
0.338707805 0.160874367 0.066151202
0.351798177 0.161115229 0.065831840
0.366863281 0.160894468 0.065076165
0.383421987 0.160196558 0.063858934
0.401561141 0.159165204 0.062315777
0.421138674 0.157730579 0.060320474
0.442203403 0.155839324 0.057864089
0.465018302 0.153444931 0.055004653
0.489572644 0.150574431 0.051602736
0.515982568 0.147171915 0.047695823
0.544539571 0.143274263 0.043386299
0.575225115 0.138749048 0.038357552
0.608173132 0.133654118 0.032813508
0.642893314 0.128071561 0.026747579
0.679138601 0.122162871 0.020411424
0.716809928 0.115837924 0.013592158
0.756079674 0.109219186 0.006546146
0.796375811 0.102210984 0.000987613
0.837239206 0.095056452 0.000000000
0.878717363 0.087951936 0.000000000
0.920021355 0.080770776 0.000000000
0.961735129 0.073710725 0.000000000
0.997343838 0.066174686 0.000000000
1.000000000 0.058532413 0.000000000
0.265514910 0.164257124 0.052561328
0.274446547 0.166129798 0.051559709
0.286742181 0.166546464 0.051736962
0.291721702 0.168597370 0.059013028
0.295941621 0.171268642 0.060313962
0.303285480 0.173268721 0.060602430
0.312085867 0.174749821 0.061128039
0.322351456 0.175821662 0.061668593
0.333761305 0.176498875 0.061750904
0.346862078 0.176809087 0.061507303
0.361756742 0.176510066 0.060669318
0.378246039 0.175863266 0.059484847
0.396283418 0.174897328 0.057961378
0.415628582 0.173456058 0.055933338
0.436609924 0.171612456 0.053567190
0.459206551 0.169311464 0.050779257
0.483537078 0.166546106 0.047460154
0.509745598 0.163339108 0.043715496
0.538005412 0.159574777 0.039492931
0.568443298 0.155235589 0.034606319
0.601069748 0.150273278 0.029138964
0.635476291 0.144784793 0.023116127
0.671605706 0.139067754 0.016904335
0.709198296 0.132905126 0.010203841
0.748370767 0.126398608 0.003362627
0.788556695 0.119534798 0.000378772
0.829730272 0.112458952 0.000000000
0.871572375 0.105377689 0.000000000
0.913650572 0.098283082 0.000000000
0.955503404 0.091297418 0.000000000
0.996789217 0.083864257 0.000000000
1.000000000 0.076294869 0.000000000
0.258087367 0.180675760 0.045460612
0.267145246 0.182493106 0.047052376
0.278141171 0.184148416 0.041419502
0.290691465 0.184143305 0.044242900
0.297472805 0.185432479 0.052087683
0.300997138 0.188150764 0.056051608
0.307114750 0.190322310 0.056288239
0.316241026 0.191815004 0.056084860
0.327102602 0.192671761 0.055694398
0.340028018 0.193079218 0.055239402
0.354799002 0.192960441 0.054482330
0.371226400 0.192409247 0.053372175
0.389100522 0.191395998 0.051822994
0.408368886 0.190061003 0.049911812
0.429031760 0.188296363 0.047544304
0.451497465 0.186147422 0.044879392
0.475576699 0.183600649 0.041778624
0.501385689 0.180527076 0.038133550
0.529215991 0.176902160 0.033991888
0.559186101 0.172783419 0.029309204
0.591385007 0.168091685 0.024056498
0.625566363 0.162888229 0.018288938
0.661399007 0.157352760 0.012214619
0.698806345 0.151326194 0.005845202
0.737855375 0.145012438 0.001044189
0.778196573 0.138372347 0.000000000
0.819643855 0.131407261 0.000000000
0.861845970 0.124499574 0.000000000
0.904324353 0.117438324 0.000000000
0.946218193 0.110615000 0.000000000
0.990185261 0.103461429 0.000000000
1.000000000 0.096148968 0.000000000
0.248058051 0.197330907 0.035485465
0.257643938 0.199344367 0.038631577
0.266933888 0.201770425 0.034076076
0.279962271 0.202366292 0.030407179
0.292809278 0.202360123 0.034271505
0.301299453 0.203060061 0.041950192
0.305794656 0.205282807 0.048003972
0.311500967 0.207523584 0.049457796
0.320337802 0.209137857 0.049063135
0.332091391 0.209935769 0.047978256
0.346222550 0.210022852 0.046632465
0.362194061 0.209685251 0.045237541
0.379784733 0.208880886 0.043632716
0.398911893 0.207698017 0.041812714
0.419417083 0.206141174 0.039661679
0.441563159 0.204214826 0.037113182
0.465302020 0.201734409 0.034069959
0.490756810 0.198912337 0.030690972
0.518032372 0.195612028 0.026787320
0.547510326 0.191742569 0.022362299
0.579256177 0.187380672 0.017399983
0.612827301 0.182501957 0.011927485
0.648390174 0.177224874 0.006151487
0.685537159 0.171490327 0.001238245
0.724271059 0.165347829 0.000000000
0.764919102 0.158982486 0.000000000
0.806546450 0.152341798 0.000000000
0.849173844 0.145432770 0.000000000
0.892133296 0.138614833 0.000000000
0.934768438 0.131853625 0.000000000
0.978612781 0.124922656 0.000000000
1.000000000 0.118022643 0.000000000
0.241573736 0.211988732 0.029334867
0.251885891 0.214403257 0.033574298
0.260927409 0.217045054 0.031652391
0.272490174 0.218804106 0.024985606
0.286412239 0.218872339 0.024159793
0.299544245 0.218610168 0.028244430
0.309661627 0.219066322 0.035608903
0.315938979 0.220602572 0.042701703
0.322406739 0.222738504 0.045807578
0.331605196 0.224233463 0.045834679
0.344053715 0.225004405 0.044574972
0.359003693 0.224989936 0.042634826
0.375968903 0.224523142 0.040605359
0.394685298 0.223685309 0.038542680
0.414964378 0.222374290 0.036244344
0.436846823 0.220634684 0.033655174
0.460384250 0.218367249 0.030670863
0.485778600 0.215732440 0.027455540
0.513073921 0.212666616 0.023774013
0.542473853 0.209039822 0.019522004
0.574121714 0.204883397 0.014824325
0.607626975 0.200212926 0.009545424
0.643159747 0.195153326 0.003889629
0.680484712 0.189703465 0.000628475
0.719640255 0.183876082 0.000000000
0.760310829 0.177601397 0.000000000
0.802380741 0.171137929 0.000000000
0.845280230 0.164503649 0.000000000
0.888731658 0.157857418 0.000000000
0.932173610 0.151265860 0.000000000
0.976379573 0.144714415 0.000000000
1.000000000 0.137763783 0.000000000
0.235724449 0.225840271 0.023833858
0.246660098 0.228757724 0.028861655
0.256228000 0.231632546 0.029223599
0.266639918 0.234250218 0.023611290
0.279930204 0.235115916 0.018182723
0.294563115 0.234886363 0.019049225
0.308462977 0.234610409 0.023433622
0.320151269 0.234724805 0.030339824
0.328828126 0.235750273 0.037836649
0.336807936 0.237249181 0.042210698
0.347068906 0.238627970 0.043115031
0.359949350 0.239329964 0.042053122
0.375511974 0.239474356 0.040145222
0.393335015 0.239050642 0.037759930
0.413019329 0.238075405 0.035112254
0.434620827 0.236737847 0.032349609
0.457887232 0.234838456 0.029265229
0.483120263 0.232477427 0.025979761
0.510426819 0.229668871 0.022399701
0.539730549 0.226257011 0.018275348
0.571429074 0.222376660 0.013720782
0.605293214 0.217984602 0.008755174
0.640908659 0.213119745 0.003263492
0.678598225 0.207840979 0.000396538
0.718079686 0.202274114 0.000000000
0.759314537 0.196243212 0.000000000
0.801636875 0.189979881 0.000000000
0.844907701 0.183483586 0.000000000
0.888861299 0.177087590 0.000000000
0.932526171 0.170699269 0.000000000
0.976844609 0.164136723 0.000000000
1.000000000 0.157337338 0.000000000
0.229869932 0.239323199 0.018268771
0.241489410 0.242707610 0.024111606
0.251823932 0.245995909 0.026265465
0.261759222 0.249135256 0.022757439
0.274123102 0.251065284 0.015786255
0.288890123 0.251447201 0.012746727
0.304165930 0.251099318 0.014611545
0.319090992 0.250599205 0.018970184
0.332616508 0.250455141 0.025571104
0.343849987 0.250882596 0.032908425
0.354183227 0.251910985 0.038321514
0.365619928 0.253006905 0.040294401
0.379213929 0.253778934 0.039934803
0.395378351 0.254018068 0.038252793
0.413837433 0.253577203 0.035744525
0.434676021 0.252644122 0.032805525
0.457652181 0.251328707 0.029681431
0.482588500 0.249386281 0.026212199
0.509661913 0.246900380 0.022498373
0.538949370 0.243853629 0.018410452
0.570641577 0.240243971 0.013856363
0.604677975 0.236153603 0.008953432
0.640780151 0.231648222 0.003778802
0.678714693 0.226612806 0.000538692
0.718323767 0.221108422 0.000000000
0.759764373 0.215235248 0.000000000
0.802638650 0.209171832 0.000000000
0.846381724 0.202907100 0.000000000
0.890334189 0.196553141 0.000000000
0.934009731 0.190290257 0.000000000
0.978767753 0.183807418 0.000000000
1.000000000 0.177193388 0.000000000
0.223574191 0.252510399 0.012257112
0.235920876 0.256485432 0.018843474
0.246923164 0.260255575 0.022374947
0.257190764 0.263913155 0.021087578
0.268955082 0.266869605 0.015266239
0.283057004 0.268199801 0.009194260
0.298853695 0.268101186 0.007867626
0.315197736 0.267659605 0.010317431
0.331623852 0.267040908 0.014690599
0.347158134 0.266529083 0.020868281
0.361306876 0.266610056 0.028058285
0.373902559 0.267107189 0.034019008
0.386808932 0.267909616 0.037127703
0.401467562 0.268732607 0.037673898
0.418495029 0.269030809 0.036494546
0.437945724 0.268753171 0.034230839
0.459890574 0.267911553 0.031290475
0.484210044 0.266514838 0.027840432
0.510940611 0.264504045 0.023984469
0.540137172 0.261878103 0.019817052
0.571832478 0.258655250 0.015271816
0.605766654 0.254894644 0.010333827
0.641754627 0.250541687 0.004993665
0.679624021 0.245736599 0.000793074
0.719540417 0.240499720 0.000000000
0.761175632 0.234887868 0.000000000
0.804368794 0.228914574 0.000000000
0.848233700 0.222734615 0.000000000
0.892380536 0.216539890 0.000000000
0.936331213 0.210440844 0.000000000
0.981405258 0.204136088 0.000000000
1.000000000 0.197757751 0.000000000
0.216614768 0.265945941 0.005633827
0.229696065 0.270567477 0.012981940
0.241551563 0.274812847 0.017767500
0.252440631 0.279039890 0.018418917
0.263944566 0.282675385 0.014421744
0.277378917 0.285111189 0.007616983
0.293045878 0.285788149 0.003351400
0.310114771 0.285541415 0.003295283
0.327898532 0.285010993 0.006051412
0.346207052 0.284205168 0.010315618
0.364023566 0.283433318 0.016183229
0.380665272 0.283177137 0.023102067
0.395689160 0.283398777 0.029501844
0.410548896 0.283929855 0.033646762
0.426605701 0.284622490 0.035198782
0.444829643 0.284986466 0.034683004
0.465419471 0.284785926 0.032703139
0.488492072 0.283948928 0.029815646
0.514353395 0.282459527 0.026235102
0.542999983 0.280319005 0.022083599
0.574347317 0.277469188 0.017391047
0.607935488 0.273977011 0.012221586
0.643712699 0.269940704 0.006750026
0.681470931 0.265420139 0.001480468
0.721494853 0.260490239 0.000000000
0.763156474 0.255132169 0.000000000
0.806200922 0.249346972 0.000000000
0.850105405 0.243351161 0.000000000
0.894389629 0.237329900 0.000000000
0.938502431 0.231492221 0.000000000
0.984118283 0.225445554 0.000000000
1.000000000 0.219230250 0.000000000
0.209061727 0.279719204 0.000471356
0.222817197 0.284938514 0.006454029
0.235588193 0.289897412 0.012415213
0.247209013 0.294668823 0.014728953
0.258799821 0.298917234 0.012584914
0.271900713 0.302354515 0.006788836
0.287217647 0.304042608 0.001318208
0.304547787 0.304486156 0.000000000
0.323147833 0.304147363 0.000225859
0.342700094 0.303481340 0.002219303
0.363051236 0.302457005 0.005965835
0.383092850 0.301525414 0.011629613
0.402085304 0.300996274 0.018274408
0.419682682 0.300979316 0.024917318
0.436703533 0.301197529 0.029810462
0.454466343 0.301582754 0.032178491
0.474054456 0.301775336 0.032235533
0.496006876 0.301488578 0.030633956
0.520553291 0.300576985 0.027825449
0.548073590 0.298886657 0.024056014
0.578322351 0.296465546 0.019552877
0.611247778 0.293412715 0.014468017
0.646827638 0.289857745 0.009046489
0.684417844 0.285720259 0.003242441
0.724062741 0.281061888 0.000229132
0.765509486 0.275912881 0.000000000
0.808289230 0.270455778 0.000000000
0.852263987 0.264754266 0.000000000
0.896629333 0.259034455 0.000000000
0.940513372 0.253560692 0.000000000
0.986391842 0.247624725 0.000000000
1.000000000 0.241615355 0.000000000
0.201272696 0.294161618 0.000000000
0.215714023 0.299871594 0.001234505
0.229137868 0.305330396 0.006453088
0.241556585 0.310729861 0.010248228
0.253670484 0.315754086 0.010016313
0.266770065 0.319992751 0.005945262
0.281807899 0.323016584 0.000649985
0.298859537 0.324177384 0.000000000
0.317910761 0.324340671 0.000000000
0.338339239 0.323912889 0.000000000
0.359978527 0.323034585 0.000000000
0.382369667 0.321844846 0.002151034
0.404519409 0.320733100 0.007372888
0.425774246 0.319784611 0.013583294
0.445765793 0.319325238 0.020084094
0.465268135 0.319203794 0.025343830
0.485148817 0.319261521 0.028412782
0.506529570 0.319131941 0.029107669
0.530093729 0.318531901 0.027790366
0.556284726 0.317356884 0.025037060
0.585455298 0.315456182 0.021195143
0.617341876 0.313000679 0.016634939
0.651836514 0.309973449 0.011529526
0.688790739 0.306319505 0.005840515
0.727867544 0.302034914 0.000782790
0.768908024 0.297243297 0.000000000
0.811483324 0.292111337 0.000000000
0.855280936 0.286804438 0.000000000
0.899607182 0.281452447 0.000000000
0.943309903 0.276229024 0.000000000
0.989016473 0.270487249 0.000000000
1.000000000 0.264761955 0.000000000
0.193637401 0.309221387 0.000000000
0.208498359 0.315459579 0.000000000
0.222741902 0.321518004 0.001583344
0.235932291 0.327555597 0.005571168
0.248608992 0.333219349 0.006943151
0.261924565 0.338289827 0.004694861
0.276834548 0.342362344 0.000426465
0.293564439 0.344615579 0.000000000
0.312553734 0.345375866 0.000000000
0.333578199 0.345287174 0.000000000
0.356025040 0.344612271 0.000000000
0.379525483 0.343467653 0.000000000
0.403863311 0.342053831 0.000000000
0.427972555 0.340596199 0.002953456
0.451661378 0.339340359 0.008845404
0.474365443 0.338473827 0.015088074
0.496549964 0.337869734 0.020443205
0.518778205 0.337360173 0.023883440
0.542336166 0.336740822 0.024973942
0.568017662 0.335857987 0.024034485
0.596185625 0.334449679 0.021528104
0.626951337 0.332565963 0.017910587
0.660173297 0.330073446 0.013423347
0.695729792 0.326934278 0.008180463
0.733830154 0.323187828 0.002348369
0.774228573 0.318988919 0.000005611
0.816200256 0.314336687 0.000000000
0.859596074 0.309411615 0.000000000
0.903423548 0.304396689 0.000000000
0.947025836 0.299516618 0.000000000
0.992664635 0.294145823 0.000000000
1.000000000 0.288685888 0.000000000
0.186314359 0.325219184 0.000000000
0.201646566 0.331868887 0.000000000
0.216464221 0.338572741 0.000000000
0.230475053 0.345212907 0.001603453
0.243704185 0.351428717 0.003639451
0.257190973 0.357152939 0.003019860
0.272000968 0.362010926 0.000159924
0.288606286 0.365550488 0.000000000
0.307309449 0.367082745 0.000000000
0.328434467 0.367430031 0.000000000
0.351421773 0.366917610 0.000000000
0.375615448 0.365936995 0.000000000
0.401027411 0.364649951 0.000000000
0.427402288 0.363058746 0.000000000
0.453854799 0.361270338 0.000280101
0.480073869 0.359632641 0.004030372
0.505641758 0.358138293 0.009719362
0.530777514 0.356894881 0.014880457
0.556037128 0.355878919 0.018581621
0.582201123 0.354835302 0.020117769
0.610137701 0.353599399 0.019608038
0.640067220 0.352093846 0.017493971
0.672117531 0.350101233 0.014086437
0.706375003 0.347540021 0.009711424
0.743152142 0.344477803 0.004563927
0.782306373 0.340880185 0.000491000
0.823212743 0.336870521 0.000000000
0.865608633 0.332460612 0.000000000
0.908814907 0.327874482 0.000000000
0.951979101 0.323403925 0.000000000
0.995973170 0.318505138 0.000000000
1.000000000 0.313489348 0.000000000
0.179559991 0.342390567 0.000000000
0.195198894 0.349338919 0.000000000
0.210378513 0.356419057 0.000000000
0.224893153 0.363411993 0.000000000
0.238691926 0.370176703 0.000834695
0.252405375 0.376542926 0.001104973
0.267131060 0.382087797 0.000000000
0.283616811 0.386641026 0.000000000
0.302124262 0.389277667 0.000000000
0.322988272 0.390236497 0.000000000
0.346278220 0.390154868 0.000000000
0.371131599 0.389406830 0.000000000
0.397344410 0.388195634 0.000000000
0.424726814 0.386708975 0.000000000
0.453201950 0.384779423 0.000000000
0.482242674 0.382588983 0.000025719
0.511220217 0.380385876 0.000776709
0.540146708 0.378362924 0.003985014
0.568639338 0.376532704 0.008876272
0.597121298 0.374944776 0.012609702
0.626009226 0.373393714 0.014469866
0.655824065 0.371862471 0.014451651
0.687440097 0.370252907 0.012786032
0.720716834 0.368256867 0.009809637
0.756178319 0.365809739 0.005771311
0.793773353 0.362854898 0.001140053
0.833119690 0.359492689 0.000000000
0.874141872 0.355787635 0.000000000
0.916363418 0.351923704 0.000000000
0.958785534 0.347973287 0.000000000
0.997130573 0.343554884 0.000000000
1.000000000 0.338909626 0.000000000
0.173364028 0.360723943 0.000000000
0.189069331 0.367790848 0.000000000
0.204396293 0.375039369 0.000000000
0.219201490 0.382267207 0.000000000
0.233467773 0.389529765 0.000000000
0.247545198 0.396459222 0.000000000
0.262314886 0.402756810 0.000000000
0.278654665 0.408099383 0.000000000
0.296959579 0.411907732 0.000000000
0.317459375 0.413658530 0.000000000
0.340816915 0.414202034 0.000000000
0.366077513 0.413884789 0.000000000
0.392847896 0.412904859 0.000000000
0.420980841 0.411408275 0.000000000
0.450521469 0.409489334 0.000000000
0.481525689 0.407216728 0.000000000
0.513447821 0.404629350 0.000000000
0.545738101 0.401870221 0.000025251
0.578221917 0.399216980 0.000653726
0.610168159 0.396758169 0.003101230
0.641717315 0.394595891 0.005981262
0.673162937 0.392712772 0.008231419
0.705018342 0.391002178 0.008743016
0.737850368 0.389298022 0.007673106
0.772461414 0.387261450 0.005200352
0.808545232 0.384934783 0.001505729
0.846300721 0.382276624 0.000100538
0.885893106 0.379442215 0.000000000
0.926561952 0.376368999 0.000000000
0.968053877 0.373043865 0.000000000
0.997383118 0.369128197 0.000000000
1.000000000 0.365021408 0.000000000
0.167558119 0.380076200 0.000000000
0.183187604 0.387149245 0.000000000
0.198602349 0.394618362 0.000000000
0.213654041 0.402123958 0.000000000
0.228172660 0.409669608 0.000000000
0.242568612 0.417126417 0.000000000
0.257364213 0.423962802 0.000000000
0.273546547 0.430024981 0.000000000
0.291756272 0.434975177 0.000000000
0.312034905 0.437863916 0.000000000
0.335032910 0.438970864 0.000000000
0.360510200 0.439195067 0.000000000
0.387708098 0.438526809 0.000000000
0.416457295 0.437234193 0.000000000
0.446750641 0.435457677 0.000000000
0.478858054 0.433219314 0.000000000
0.512811959 0.430489630 0.000000000
0.547996402 0.427383840 0.000000000
0.583877206 0.424008429 0.000000000
0.619926333 0.420659423 0.000000000
0.655267000 0.417775333 0.000276828
0.689634562 0.415227026 0.001475325
0.723363459 0.413063824 0.002563001
0.756716013 0.411205620 0.002791199
0.790945828 0.409372568 0.002237543
0.826346338 0.407518297 0.000914661
0.862793744 0.405521572 0.000107552
0.900673389 0.403362334 0.000000000
0.939551651 0.401031494 0.000000000
0.979941249 0.398352444 0.000000000
0.997711420 0.395149797 0.000000000
1.000000000 0.391721189 0.000000000
0.161951602 0.400185347 0.000000000
0.177554876 0.407460064 0.000000000
0.193054333 0.415097892 0.000000000
0.208144069 0.422930598 0.000000000
0.222933292 0.430801302 0.000000000
0.237388015 0.438555568 0.000000000
0.252305895 0.445910782 0.000000000
0.268302411 0.452616066 0.000000000
0.286265939 0.458485663 0.000000000
0.306581378 0.462689161 0.000000000
0.329189926 0.464680046 0.000000000
0.354396135 0.465277225 0.000000000
0.381863922 0.465101242 0.000000000
0.411183476 0.464242041 0.000000000
0.442221344 0.462680280 0.000000000
0.475139529 0.460529387 0.000000000
0.510084927 0.457870036 0.000000000
0.547409773 0.454526722 0.000000000
0.586265802 0.450803131 0.000000000
0.625871122 0.446915895 0.000000000
0.665182233 0.443116546 0.000000000
0.703403711 0.439809501 0.000000000
0.740130007 0.436981529 0.000000000
0.775561631 0.434654891 0.000000000
0.810612619 0.432769984 0.000009820
0.846044183 0.431111217 0.000008417
0.881718218 0.429564476 0.000000000
0.918186307 0.427896708 0.000000000
0.955462635 0.426178992 0.000000000
0.990669727 0.424102455 0.000000000
0.998122454 0.421735346 0.000000000
1.000000000 0.419040143 0.000000000
0.156322628 0.420896500 0.000000000
0.172070608 0.428561360 0.000000000
0.187571034 0.436424583 0.000000000
0.202768147 0.444627821 0.000000000
0.217583016 0.452726841 0.000000000
0.232157871 0.460905164 0.000000000
0.247094512 0.468746871 0.000000000
0.262999594 0.476127744 0.000000000
0.280708969 0.482662976 0.000000000
0.300751567 0.487956196 0.000000000
0.323159724 0.491109163 0.000000000
0.348021567 0.492429882 0.000000000
0.375452518 0.492727190 0.000000000
0.405118972 0.492254734 0.000000000
0.436755031 0.491063386 0.000000000
0.470307142 0.489147931 0.000000000
0.506273806 0.486507535 0.000000000
0.544691145 0.483336359 0.000000000
0.585808218 0.479503304 0.000000000
0.628419638 0.475152194 0.000000000
0.671330631 0.470756680 0.000000000
0.713371694 0.466628462 0.000000000
0.753891170 0.463063866 0.000000000
0.792586446 0.460288256 0.000000000
0.829828799 0.457891285 0.000000000
0.866196573 0.456047952 0.000000000
0.901901126 0.454663604 0.000000000
0.937618494 0.453458697 0.000000000
0.974386752 0.452190757 0.000000000
0.994917691 0.450704634 0.000000000
0.998387098 0.448974639 0.000000000
1.000000000 0.447003245 0.000000000
0.150737017 0.442410856 0.000000000
0.166524604 0.450368911 0.000000000
0.182000384 0.458552510 0.000000000
0.197147787 0.467038482 0.000000000
0.212095395 0.475515664 0.000000000
0.226690069 0.484094083 0.000000000
0.241699934 0.492558807 0.000000000
0.257453114 0.500558615 0.000000000
0.274793118 0.507685304 0.000000000
0.294475824 0.513808846 0.000000000
0.316862792 0.518310726 0.000000000
0.341479421 0.520693123 0.000000000
0.368640929 0.521604538 0.000000000
0.398403943 0.521539152 0.000000000
0.430316478 0.520643473 0.000000000
0.464592814 0.518988192 0.000000000
0.501295269 0.516729057 0.000000000
0.540652096 0.513613284 0.000000000
0.582994103 0.509771943 0.000000000
0.627886891 0.505311251 0.000000000
0.673626065 0.500517726 0.000000000
0.719278634 0.495772600 0.000000000
0.763903201 0.491690993 0.000000000
0.806331515 0.488132775 0.000000000
0.846646488 0.485266179 0.000000000
0.885001004 0.482991606 0.000000000
0.921882033 0.481396824 0.000000000
0.958037257 0.480379313 0.000000000
0.988243699 0.479411960 0.000000000
0.996172786 0.478283316 0.000000000
0.998387098 0.476964206 0.000000000
1.000000000 0.475585967 0.000000000
0.145005763 0.464606404 0.000000000
0.160751998 0.472836047 0.000000000
0.176130131 0.481354803 0.000000000
0.191207096 0.490198702 0.000000000
0.206270859 0.499203622 0.000000000
0.220925674 0.508297026 0.000000000
0.235931411 0.517296195 0.000000000
0.251462549 0.525796175 0.000000000
0.268498629 0.533642054 0.000000000
0.287968218 0.540673256 0.000000000
0.309976697 0.546324253 0.000000000
0.334515750 0.549989820 0.000000000
0.361362875 0.551695108 0.000000000
0.390953630 0.552184224 0.000000000
0.423200309 0.551662445 0.000000000
0.457925171 0.550480604 0.000000000
0.495322764 0.548424304 0.000000000
0.535631537 0.545536518 0.000000000
0.578819573 0.541767180 0.000000000
0.625034511 0.537273407 0.000000000
0.673223615 0.532310426 0.000000000
0.721975863 0.527338684 0.000000000
