Desert Affinity Presets/Desert Affinity Preset #3.cube
TITLE "32x32x32 Adobe/IRIDAS cube 3D LUT exported with GrossGrade v0.1.027.1 (beta) 64 bit"
DOMAIN_MIN 0 0 0
DOMAIN_MAX 1 1 1
LUT_3D_SIZE 32
0.000000000 0.052852683 0.053374514
0.002282061 0.050452858 0.050974701
0.025135014 0.047493782 0.048015703
0.045255158 0.045734167 0.046255998
0.064083815 0.044149909 0.044671755
0.083454840 0.042270970 0.042792901
0.105109803 0.039631762 0.040153675
0.131281227 0.035665017 0.036186848
0.162338734 0.030360388 0.030885970
0.195709899 0.024453931 0.024986079
0.230366260 0.018087827 0.018609662
0.266334265 0.011315357 0.011837203
0.303537965 0.004246882 0.004712630
0.341669858 0.000000000 0.000218844
0.380490273 0.000000000 0.000000000
0.419723958 0.000000000 0.000000000
0.458977938 0.000000000 0.000000000
0.497894287 0.000000000 0.000000000
0.536143064 0.000000000 0.000000000
0.573596239 0.000000000 0.000000000
0.609900653 0.000000000 0.000000000
0.644683719 0.000000000 0.000000000
0.677893281 0.000000000 0.000000000
0.709759712 0.000000000 0.000000000
0.740701258 0.000000000 0.000000000
0.771004498 0.000000000 0.000000000
0.800684869 0.000000000 0.000000000
0.830034971 0.000000000 0.000000000
0.859371781 0.000000000 0.000000000
0.888956785 0.000000000 0.000000000
0.919085681 0.000000000 0.000000000
0.949176848 0.000000000 0.000000000
0.000000000 0.065276355 0.054744188
0.002210048 0.063674331 0.052289210
0.023574043 0.060867686 0.048126034
0.043318752 0.058724653 0.045561172
0.061867256 0.056807429 0.043488689
0.081030257 0.054700788 0.041305371
0.102585070 0.051921248 0.038488977
0.128738686 0.047920804 0.034446891
0.159687921 0.042495541 0.029007571
0.192920700 0.036442261 0.022948666
0.227550164 0.030031739 0.016522212
0.263544947 0.023295287 0.009770330
0.300862789 0.016278688 0.003331759
0.339161932 0.009061992 0.000000000
0.378065467 0.003449696 0.000000000
0.417394906 0.001612904 0.000000000
0.456859350 0.001612904 0.000000000
0.496100903 0.001612904 0.000000000
0.534750223 0.001612904 0.000000000
0.572485983 0.001612904 0.000000000
0.609084129 0.001612904 0.000000000
0.644346178 0.001612904 0.000000000
0.678212821 0.001612904 0.000000000
0.710765541 0.001612904 0.000000000
0.742308140 0.001612904 0.000000000
0.773225665 0.001612904 0.000000000
0.803893924 0.001612904 0.000000000
0.834502101 0.001612904 0.000000000
0.864962935 0.001612904 0.000000000
0.895515144 0.001612904 0.000000000
0.926569402 0.001612904 0.000000000
0.957908690 0.001612904 0.000000000
0.000000000 0.076936476 0.056334101
0.002230624 0.075043052 0.054089531
0.022778230 0.072380930 0.050073657
0.041437104 0.070504397 0.046521626
0.059680272 0.068641439 0.043618713
0.078746431 0.066491812 0.040913548
0.100291871 0.063702919 0.037809506
0.126392633 0.059622101 0.033544373
0.157421514 0.054247320 0.028046135
0.190790311 0.048303418 0.022011558
0.225557715 0.042007457 0.015654825
0.261713803 0.035393059 0.008995060
0.299217194 0.028540613 0.002878639
0.337709755 0.021517046 0.000000000
0.376958072 0.014447615 0.000000000
0.416657776 0.007468014 0.000000000
0.456438333 0.003628891 0.000000000
0.496079594 0.003245447 0.000000000
0.535260856 0.003225807 0.000000000
0.573647022 0.003225807 0.000000000
0.610894799 0.003225807 0.000000000
0.646752477 0.003225807 0.000000000
0.681453764 0.003225807 0.000000000
0.715101659 0.003225807 0.000000000
0.747826576 0.003225807 0.000000000
0.779785216 0.003225807 0.000000000
0.811330438 0.003225807 0.000000000
0.842998087 0.003225807 0.000000000
0.874973238 0.003225807 0.000000000
0.906863809 0.003225807 0.000000000
0.938815653 0.003225807 0.000000000
0.970694602 0.003225807 0.000000000
0.000000000 0.087782845 0.057458222
0.002266629 0.085770279 0.055200111
0.023404365 0.083056279 0.051707964
0.040905435 0.081404589 0.048534214
0.058174983 0.079862386 0.045234296
0.076914273 0.078035422 0.042000283
0.098356903 0.075399071 0.038428158
0.124552011 0.071493052 0.033919841
0.155717045 0.066272542 0.028295392
0.189269483 0.060514815 0.022259921
0.224376783 0.054542899 0.016083628
0.260896087 0.048282012 0.009679179
0.298725843 0.041741993 0.003389745
0.337554663 0.035025608 0.000000000
0.377215624 0.028351774 0.000000000
0.417551130 0.021868765 0.000000000
0.458104938 0.015593859 0.000000000
0.498363256 0.009471384 0.000000000
0.538122237 0.006213502 0.000000000
0.577328384 0.005707072 0.000000000
0.615736663 0.005432116 0.000000000
0.652923048 0.005228703 0.000000000
0.688609660 0.005092626 0.000000000
0.723114192 0.004995830 0.000000000
0.756925583 0.004935508 0.000000000
0.790277421 0.004934106 0.000000000
0.823136389 0.004938314 0.000000000
0.855781496 0.004957954 0.000000000
0.888112187 0.004987414 0.000000000
0.920352697 0.005030903 0.000000000
0.952734411 0.005087016 0.000000000
0.985011995 0.005183812 0.000000000
0.000000000 0.098585278 0.057746239
0.002523351 0.096601270 0.055537287
0.023767207 0.093951344 0.052401882
0.041067660 0.092526034 0.049899250
0.057697136 0.091365345 0.047116436
0.075681664 0.089849845 0.043809947
0.096771747 0.087599643 0.039985802
0.122990586 0.084132321 0.035309598
0.154409096 0.079371989 0.029658949
0.188314438 0.074049167 0.023702964
0.223691940 0.068400361 0.017579081
0.260649323 0.062572889 0.011414984
0.299134582 0.056690309 0.005261142
0.338716716 0.050719365 0.000614448
0.379068762 0.044717971 0.000000000
0.420080334 0.038909223 0.000000000
0.461485267 0.033473693 0.000000000
0.502946913 0.028533831 0.000000000
0.543947101 0.024044717 0.000000000
0.584152222 0.019979253 0.000000000
0.623566866 0.016719047 0.000000000
0.661875784 0.014350573 0.000000000
0.698858082 0.012717647 0.000000000
0.734525859 0.011621563 0.000000000
0.769118667 0.010961292 0.000000000
0.803046644 0.010810724 0.000000000
0.836323082 0.010874313 0.000000000
0.869233847 0.011097375 0.000000000
0.901888967 0.011447142 0.000000000
0.934396267 0.011938148 0.000000000
0.967109025 0.012591866 0.000000000
0.998384058 0.013607061 0.000000000
0.000000000 0.110253528 0.056827910
0.002177313 0.108417645 0.054794256
0.023172894 0.105930172 0.051943619
0.040582731 0.104717791 0.049965646
0.057150949 0.103925675 0.047890369
0.074915729 0.102988496 0.045310054
0.095693849 0.101304144 0.041819282
0.121703893 0.098347366 0.037197866
0.153324068 0.094280675 0.031717859
0.187675551 0.089693792 0.026029790
0.223690972 0.084835723 0.020314163
0.261241823 0.079708755 0.014521809
0.300396174 0.074541152 0.008851940
0.341001749 0.069616243 0.003624018
0.382596135 0.064868085 0.000240822
0.424741268 0.060179319 0.000000000
0.467092097 0.055682272 0.000000000
0.509515107 0.051703803 0.000000000
0.551762760 0.048448727 0.000000000
0.593376458 0.045777675 0.000000000
0.633769870 0.043481227 0.000000000
0.672649264 0.041676249 0.000000000
0.710036039 0.040437974 0.000000000
0.746150672 0.039778188 0.000000000
0.781277120 0.039640255 0.000000000
0.815432787 0.039701041 0.000000000
0.848925650 0.039978795 0.000000000
0.882135034 0.040497869 0.000000000
0.915212035 0.041258167 0.000000000
0.948086202 0.042101312 0.000000000
0.981248736 0.043200623 0.000000000
1.000000000 0.044248600 0.000000000
0.000000000 0.123659432 0.053746320
0.002026742 0.122222140 0.052115288
0.020864684 0.120095029 0.049697183
0.038564540 0.119188026 0.048219562
0.055360917 0.118773915 0.046818566
0.073333293 0.118467800 0.045112252
0.094388753 0.117718771 0.042688578
0.120638482 0.115735531 0.038900923
0.152313188 0.112366043 0.033826374
0.186994433 0.108634792 0.028551180
0.223842978 0.104953587 0.023596337
0.262528867 0.101194412 0.018784573
0.302796572 0.097268380 0.014023322
0.344230711 0.093263239 0.009346684
0.386699408 0.089446433 0.004996939
0.430042177 0.085993245 0.001718954
0.473676652 0.082785301 0.000359127
0.517074645 0.079784617 0.000000000
0.559894741 0.077107988 0.000000000
0.601831734 0.074753538 0.000000000
0.642613649 0.072840050 0.000000000
0.681925714 0.071452670 0.000000000
0.719649851 0.070547387 0.000000000
0.756138682 0.070255116 0.000000000
0.791498303 0.070337430 0.000000000
0.825979292 0.070708230 0.000000000
0.859814405 0.071325473 0.000000000
0.893331587 0.072141930 0.000000000
0.926810741 0.073299758 0.000000000
0.960058391 0.074504793 0.000000000
0.992745340 0.075736448 0.000000000
1.000000000 0.077064544 0.000000000
0.000000000 0.140188918 0.047292732
0.001770957 0.139101982 0.046027869
0.015364141 0.137574241 0.044229358
0.033853285 0.137442932 0.043658409
0.051352013 0.137777686 0.043228213
0.069808863 0.138150275 0.042451482
0.091370195 0.138280898 0.041117895
0.118287347 0.137518868 0.038655389
0.150798917 0.135619879 0.034958899
0.186155945 0.133148745 0.030741001
0.223473355 0.130437627 0.026409052
0.262961239 0.127852902 0.022410937
0.304176897 0.125154629 0.018522250
0.346635669 0.122352928 0.014727979
0.389876634 0.119427010 0.010974014
0.433691174 0.116520986 0.007395338
0.477724195 0.113774940 0.004087892
0.521519125 0.111203372 0.001394428
0.564607859 0.108816162 0.000019640
0.606795788 0.106731534 0.000000000
0.647880495 0.105127119 0.000000000
0.687597632 0.104144707 0.000000000
0.725783229 0.103693381 0.000000000
0.762488842 0.103605457 0.000000000
0.798045278 0.103881046 0.000000000
0.832792878 0.104513213 0.000000000
0.867032945 0.105525993 0.000000000
0.900998235 0.106790446 0.000000000
0.934641004 0.108098790 0.000042553
0.968078136 0.109491400 0.000360063
0.997493029 0.110972330 0.000693940
1.000000000 0.112649232 0.001109650
0.000000000 0.160603732 0.037970353
0.001612904 0.160250142 0.037446670
0.007889801 0.159423679 0.036379084
0.026883982 0.160184696 0.036766216
0.045669544 0.161819562 0.037798256
0.065307610 0.163447022 0.038487047
0.087629408 0.164556295 0.038343079
0.115092658 0.164697930 0.036961209
0.148260266 0.163933992 0.034495492
0.184442520 0.162814349 0.031566877
0.222586215 0.161465228 0.028449748
0.262301266 0.159580186 0.024896776
0.303651869 0.157393485 0.021204488
0.346318573 0.155103758 0.017603828
0.389824212 0.152656674 0.014022840
0.433915496 0.150186270 0.010597588
0.478141606 0.147739574 0.007339224
0.522090673 0.145402536 0.004310481
0.565511942 0.143394664 0.001727371
0.608110726 0.141752765 0.000276828
0.649510086 0.140490308 0.000000000
0.689467013 0.139769137 0.000000000
0.727867186 0.139536098 0.000000000
0.764882863 0.139762059 0.000000000
0.800799966 0.140401930 0.000000000
0.835851133 0.141342387 0.000097264
0.870427966 0.142676741 0.000381574
0.904568791 0.144112378 0.000718256
0.938459992 0.145662904 0.001221409
0.972169399 0.147322997 0.002614898
0.997636557 0.149054155 0.004237525
1.000000000 0.151076615 0.006129970
0.000000000 0.184695229 0.028970666
0.001612904 0.185629383 0.029728191
0.004021686 0.186018944 0.029889051
0.021478772 0.187858701 0.031411596
0.041038759 0.190266684 0.033321317
0.061689671 0.192929834 0.035218880
0.085166387 0.195299193 0.036526367
0.113457382 0.196475998 0.036370646
0.146928668 0.196348220 0.034681618
0.183240816 0.195792541 0.032416068
0.221267328 0.194787160 0.029605208
0.261032343 0.193431392 0.026454883
0.302458316 0.191765532 0.023089912
0.345074564 0.189796910 0.019545367
0.388763696 0.187843263 0.016183227
0.432963908 0.185720056 0.012811275
0.477346569 0.183608338 0.009625396
0.521504939 0.181619093 0.006704670
0.565169632 0.179956689 0.004238468
0.608058155 0.178670362 0.002258115
0.649798155 0.177793652 0.000927748
0.689943433 0.177297220 0.000395603
0.728528798 0.177286699 0.000345100
0.765795648 0.177779451 0.000454520
0.802071750 0.178793550 0.000711241
0.837503195 0.180114210 0.001204577
0.872202337 0.181572393 0.002260451
0.906498969 0.183163792 0.003612325
0.940585911 0.184923172 0.005141424
0.974636257 0.186911389 0.006930531
0.997719347 0.188978240 0.008824840
1.000000000 0.191079140 0.010757501
0.000000000 0.213272810 0.022323018
0.001612904 0.215246499 0.024126127
0.003829965 0.216770858 0.025426125
0.017997852 0.219607681 0.027971823
0.038395789 0.222839519 0.030784963
0.059562050 0.226027504 0.033330668
0.083308145 0.228722990 0.035127234
0.112031564 0.230448589 0.035689805
0.145706415 0.230742306 0.034581523
0.181942791 0.230394378 0.032656826
0.219905213 0.229721323 0.030251918
0.259723902 0.228827581 0.027562141
0.301132739 0.227571875 0.024505833
0.343923151 0.226193041 0.021405529
0.387455344 0.224445105 0.018029358
0.431660146 0.222635016 0.014727536
0.476259023 0.220993727 0.011746980
0.520622849 0.219407499 0.008980081
0.564480066 0.218094304 0.006629849
0.607513785 0.217078224 0.004701871
0.649351776 0.216380194 0.003206437
0.689752638 0.216205031 0.002330594
0.728697181 0.216601640 0.002108945
0.766199589 0.217371866 0.002342749
0.802648842 0.218588859 0.003091868
0.838204861 0.220049128 0.004130912
0.873108268 0.221736267 0.005443042
0.907669067 0.223594174 0.006968867
0.942008674 0.225614935 0.008680331
0.976311505 0.227852628 0.010646209
0.997783899 0.229976416 0.012526035
1.000000000 0.232166246 0.014506857
0.000000000 0.246088371 0.017871760
0.001612904 0.248667464 0.020274876
0.003620474 0.250573963 0.021963915
0.014876069 0.253759772 0.024870088
0.035721060 0.257433385 0.028180834
0.057249669 0.260967553 0.031183846
0.081371710 0.264066637 0.033507910
0.110121347 0.265884280 0.034317803
0.143999860 0.266501606 0.033696849
0.180499628 0.266654164 0.032404818
0.218604416 0.266382724 0.030516554
0.258308381 0.265727967 0.028128892
0.299816966 0.264946967 0.025552329
0.342461884 0.263805211 0.022612464
0.386058539 0.262503892 0.019562209
0.430390626 0.261171460 0.016563386
0.474930763 0.259774357 0.013616041
0.519478321 0.258626550 0.011054440
0.563394845 0.257583797 0.008746741
0.606505513 0.256809860 0.006840272
0.648473144 0.256381869 0.005402826
0.689100564 0.256540775 0.004665863
0.728225648 0.257193506 0.004520437
0.765974522 0.258268416 0.004885176
0.802501202 0.259613961 0.005607640
0.838157117 0.261214644 0.006658373
0.873209476 0.263081133 0.008026599
0.908032715 0.265229166 0.009734800
0.942606926 0.267490745 0.011602459
0.976871192 0.269708633 0.013457494
0.997812390 0.271912962 0.015344362
1.000000000 0.274204999 0.017340591
0.000000000 0.280947089 0.013556640
0.001612904 0.283874363 0.016323499
0.003420335 0.286147028 0.018375434
0.011597157 0.289649069 0.021622512
0.032801270 0.293660849 0.025300324
0.054694645 0.297562987 0.028745679
0.079021454 0.300869882 0.031384915
0.108022213 0.302981913 0.032622717
0.142123759 0.303907812 0.032436091
0.178741217 0.304300994 0.031541124
0.217133224 0.304526925 0.030283701
0.257000178 0.304289341 0.028408125
0.298344284 0.303665429 0.026050808
0.340926141 0.302799106 0.023383059
0.384600997 0.301933914 0.020715803
0.428897709 0.300908059 0.017925084
0.473579794 0.299981922 0.015313945
0.517974913 0.298978716 0.012711668
0.561887145 0.298184812 0.010444681
0.605166018 0.297805220 0.008716345
0.647261500 0.297687411 0.007377096
0.687967956 0.298076093 0.006669129
0.727155328 0.298909456 0.006519491
0.764897287 0.300079793 0.006804272
0.801553547 0.301613271 0.007544969
0.837462306 0.303533196 0.008755168
0.872627974 0.305548728 0.010140205
0.907523751 0.307807148 0.011829724
0.942067504 0.310064584 0.013580468
0.976378143 0.312369764 0.015424287
0.997807741 0.314673156 0.017317224
1.000000000 0.317139834 0.019405559
0.000000000 0.317305982 0.009303228
0.001612904 0.320518881 0.012358600
0.003225807 0.323225588 0.014854740
0.008453841 0.327110350 0.018499771
0.029873060 0.331340104 0.022412801
0.051963776 0.335423768 0.026089188
0.076588012 0.339018136 0.029114662
0.105966516 0.341535777 0.030865902
0.140311792 0.342752725 0.031101527
0.177166238 0.343479604 0.030656841
0.215540454 0.343818963 0.029648658
0.255477935 0.343849897 0.028160747
0.297017366 0.343659163 0.026330508
0.339686096 0.343174547 0.024106488
0.383204758 0.342457443 0.021585550
0.427557886 0.341825515 0.019146971
0.472069830 0.341041505 0.016589109
0.516464293 0.340353638 0.014202913
0.560471594 0.339942187 0.012145841
0.603672564 0.339734674 0.010413338
0.645854294 0.339927077 0.009192363
0.686516225 0.340457231 0.008426425
0.725658476 0.341407269 0.008197295
0.763422370 0.342735142 0.008454482
0.800226688 0.344523817 0.009282172
0.836163580 0.346561134 0.010449350
0.871412277 0.348732471 0.011827385
0.906215012 0.350942403 0.013329836
0.940743625 0.353225529 0.014973488
0.975063086 0.355574042 0.016737778
0.997775018 0.358045191 0.018692467
1.000000000 0.360587507 0.020763999
0.000000000 0.355067283 0.005420133
0.001612904 0.358653963 0.008840733
0.003225807 0.361658275 0.011634719
0.006450580 0.365738213 0.015484590
0.027117841 0.370239913 0.019688446
0.049523745 0.374632508 0.023709483
0.074431345 0.378491849 0.027081491
0.104078829 0.381282449 0.029190883
0.138716221 0.382822812 0.029868914
0.175692841 0.383731216 0.029720217
0.214182377 0.384295315 0.029047301
0.254244506 0.384577602 0.027940467
0.295804054 0.384598315 0.026420288
0.338598341 0.384458303 0.024632571
0.382193774 0.384095818 0.022515703
0.426329941 0.383523643 0.020153278
0.470731437 0.382950991 0.017764734
0.515192330 0.382618308 0.015651552
0.559058189 0.382363051 0.013679178
0.602253795 0.382428288 0.012072430
0.644267857 0.382690042 0.010763074
0.684833765 0.383351386 0.009954574
0.724029660 0.384540170 0.009788136
0.761804402 0.386048019 0.010042503
0.798539877 0.387911737 0.010765445
0.834384680 0.389969498 0.011788607
0.869521022 0.392134041 0.012993146
0.904275596 0.394374907 0.014374462
0.938886762 0.396811515 0.016032629
0.973179519 0.399171203 0.017677702
0.997721672 0.401645154 0.019504236
1.000000000 0.403983831 0.021258734
0.000000000 0.394082785 0.002075747
0.001612904 0.398016393 0.005843788
0.003225807 0.401150346 0.008773841
0.006249976 0.405461788 0.012856605
0.024749395 0.410229295 0.017340127
0.047523279 0.414990604 0.021765132
0.072712421 0.419118881 0.025453698
0.102559559 0.422093451 0.027845982
0.137283504 0.423732102 0.028702650
0.174439460 0.424859434 0.028885989
0.213197172 0.425760031 0.028660612
0.253369063 0.426262587 0.027880145
0.294990957 0.426478058 0.026669981
0.337704211 0.426450789 0.025081944
0.381221771 0.426210642 0.023173118
0.425404340 0.425952882 0.021159137
0.469825447 0.425643504 0.019067965
0.514033318 0.425349832 0.016957626
0.557878971 0.425346851 0.015164283
0.600818276 0.425435007 0.013508487
0.642683268 0.425829977 0.012224413
0.683239698 0.426708996 0.011490214
0.722305894 0.427992821 0.011252719
0.760003090 0.429604948 0.011459405
0.796538651 0.431440711 0.011987304
0.832197309 0.433456391 0.012795364
0.867226064 0.435636163 0.013858231
0.902000248 0.438009202 0.015210116
0.936502755 0.440427601 0.016696177
0.970688701 0.442751050 0.018171525
0.997655749 0.444996238 0.019631445
1.000000000 0.447251111 0.021169901
0.000000000 0.434077680 0.000287584
0.001612904 0.438137442 0.003374310
0.003225807 0.441544443 0.006592903
0.006157388 0.446160644 0.010987059
0.023166999 0.451230317 0.015783891
0.046167638 0.456213504 0.020441795
0.071501300 0.460483730 0.024318308
0.101493768 0.463597327 0.026908889
0.136426911 0.465444058 0.028070454
0.173777863 0.466789365 0.028557245
0.212631837 0.467825532 0.028576409
0.252960294 0.468565822 0.028131738
0.294566184 0.468877941 0.027118858
0.337232888 0.468932122 0.025711844
0.380740404 0.468855828 0.024059700
0.424867809 0.468734443 0.022253318
0.469170272 0.468566537 0.020336129
0.513323724 0.468452424 0.018439919
0.556869686 0.468419015 0.016590077
0.599638045 0.468583137 0.014961815
0.641473413 0.469215631 0.013822699
0.681752801 0.470082194 0.012997820
0.720615864 0.471381605 0.012658351
0.758076608 0.472977370 0.012701392
0.794404984 0.474792063 0.013056753
0.829960942 0.476880848 0.013779227
0.864852846 0.479075074 0.014706948
0.899407387 0.481365353 0.015816143
0.933645129 0.483629882 0.017000146
0.967618227 0.485836864 0.018203316
0.997564077 0.487949550 0.019399501
1.000000000 0.490171254 0.020773377
0.000000000 0.474765301 0.000000000
0.001612904 0.479026288 0.001934054
0.003225807 0.482635230 0.005360740
0.006118104 0.487589568 0.010095792
0.022507641 0.492893189 0.015139482
0.045546655 0.497917116 0.019854454
0.071021989 0.502335727 0.023896527
0.101224355 0.505649030 0.026741518
0.136404648 0.507729173 0.028222924
0.173832104 0.509168923 0.028873866
0.212781951 0.510332227 0.029109508
0.253035396 0.511042714 0.028741488
0.294655740 0.511444628 0.027922234
0.337440044 0.511723757 0.026831767
0.380885988 0.511723161 0.025352219
0.424867809 0.511623323 0.023646828
0.469047576 0.511516452 0.021853063
0.512934625 0.511363745 0.019951297
0.556332648 0.511415958 0.018214066
0.599017322 0.511748552 0.016736889
0.640506148 0.512261033 0.015454214
0.680627346 0.513215899 0.014632108
0.719121754 0.514401257 0.014118677
0.756284118 0.515917480 0.013964398
0.792444110 0.517775655 0.014236547
0.827814102 0.519871593 0.014819666
0.862455547 0.521988511 0.015528539
0.896658123 0.524077952 0.016300594
0.930575252 0.526157737 0.017143261
0.964301884 0.528240263 0.018078912
0.997065604 0.530339301 0.019119406
1.000000000 0.532434225 0.020228110
0.000000000 0.515932560 0.000000000
0.001612904 0.520569444 0.001869058
0.003225807 0.524365842 0.005485127
0.006185446 0.529428005 0.010335228
0.022741463 0.534735262 0.015390127
0.045939006 0.539912760 0.020270165
0.071615845 0.544530332 0.024535257
0.101977743 0.547998548 0.027576212
0.137264922 0.550183475 0.029219897
0.174730018 0.551656067 0.029990051
0.213623717 0.552782953 0.030266425
0.253906190 0.553553939 0.030048020
0.295618892 0.554106712 0.029466290
0.338284612 0.554343581 0.028442226
0.381719500 0.554444075 0.027139489
0.425517291 0.554288566 0.025480805
0.469454587 0.554097533 0.023675838
0.513200641 0.553995430 0.021871775
0.556464314 0.554111779 0.020246832
0.598799407 0.554319084 0.018657839
0.640059769 0.554838598 0.017368170
0.679800093 0.555639327 0.016366072
0.718021929 0.556779504 0.015734747
0.755044103 0.558392763 0.015616926
0.790813625 0.560075879 0.015619729
0.825779021 0.561971247 0.015903573
0.860103607 0.563954771 0.016340317
0.894000351 0.565912306 0.016837409
0.927653968 0.567883193 0.017440632
0.961143494 0.569871485 0.018146271
0.994651496 0.571750760 0.018830903
1.000000000 0.573570967 0.019525755
0.000000000 0.557546198 0.000000000
0.001612904 0.562308192 0.003052593
0.003225807 0.566251338 0.006813154
0.006362201 0.571316302 0.011665117
0.024160208 0.576718211 0.016823838
0.047484469 0.582024872 0.021841358
0.073319815 0.586789608 0.026278086
0.103748977 0.590319514 0.029414387
0.138951585 0.592425585 0.031017398
0.176445052 0.593910098 0.031883862
0.215424091 0.595133603 0.032333739
0.255758762 0.595987022 0.032275289
0.297302157 0.596406281 0.031643059
0.339936465 0.596674204 0.030726997
0.383131891 0.596619010 0.029364377
0.426768631 0.596408188 0.027730983
0.470667064 0.596299469 0.026092472
0.514175534 0.596103191 0.024277626
0.557083368 0.596053004 0.022520324
0.599205077 0.596238017 0.020961815
0.640062571 0.596563697 0.019491121
0.679455221 0.597238719 0.018355759
0.717509985 0.598432541 0.017741790
0.754083335 0.599806070 0.017338665
0.789561808 0.601427376 0.017209655
0.824072897 0.603080809 0.017183462
0.857964754 0.604819953 0.017274624
0.891563177 0.606664419 0.017542589
0.924993515 0.608587980 0.017966667
0.958108842 0.610347033 0.018316019
0.991161108 0.611913741 0.018554989
1.000000000 0.613426805 0.018821986
0.000000000 0.599207759 0.001299967
0.001612904 0.603935063 0.005552927
0.003225807 0.607929170 0.009365398
0.006679241 0.613092780 0.014311380
0.026997665 0.618688166 0.019670708
0.050364956 0.624035358 0.024743844
0.076189093 0.628790200 0.029182004
0.106492072 0.632185638 0.032214940
0.141678751 0.634270132 0.033836152
0.179228500 0.635810673 0.034814887
0.218191415 0.637007892 0.035305895
0.258481801 0.637839675 0.035292771
0.299907744 0.638170302 0.034656357
0.342274427 0.638215244 0.033607967
0.385311633 0.638061404 0.032227132
0.428938806 0.637930274 0.030749464
0.472513258 0.637603700 0.028980456
0.515832543 0.637347758 0.027171712
0.558404207 0.637099445 0.025297986
0.600127757 0.637060642 0.023548612
0.640701711 0.637274265 0.022013016
0.679936111 0.637983680 0.020935109
