Desert Affinity Presets/Desert Affinity Preset #14.cube
TITLE "32x32x32 Adobe/IRIDAS cube 3D LUT exported with GrossGrade v0.1.027.1 (beta) 64 bit"
LUT_3D_SIZE 5
DOMAIN_MIN 0.000000 0.000000 0.000000
DOMAIN_MAX 0.903226 0.903226 0.903226
0.000000000 0.206149042 0.080177814
0.228049800 0.171897963 0.046157788
0.444348097 0.143980622 0.018972544
0.666198671 0.111639380 0.000000000
0.875170410 0.082551897 0.000000000
0.000000000 0.313522339 0.079268724
0.239542916 0.276677519 0.019799730
0.477286100 0.242370680 0.002794467
0.700857580 0.217644706 0.000000000
0.923268616 0.200023189 0.000000000
0.000000000 0.455142319 0.030798035
0.218102887 0.422505021 0.035137046
0.456795067 0.413431197 0.000000000
0.763620973 0.384354591 0.000000000
0.993532538 0.374270588 0.000000000
0.000000000 0.671522319 0.000000000
0.169976711 0.644855857 0.000000000
0.413763702 0.647690058 0.000000000
0.694304287 0.650191963 0.000000000
0.993128598 0.639609516 0.000000000
0.000000000 0.941326320 0.000000000
0.129008457 0.919681787 0.000000000
0.392434508 0.918420792 0.000000000
0.636828840 0.931385696 0.000000000
0.916300654 0.936412871 0.000000000
0.000000000 0.200719029 0.326010495
0.223130167 0.165874034 0.237731099
0.436516672 0.137587547 0.209594667
0.655616462 0.105566517 0.177985266
0.864861012 0.076811902 0.149565771
0.000000000 0.331463933 0.250316054
0.230374530 0.267937720 0.244431093
0.448427528 0.242085218 0.218344688
0.686744928 0.217281237 0.193499207
0.916856766 0.199342936 0.175496042
0.000000000 0.479431391 0.171847090
0.206440628 0.425021052 0.218498737
0.453045130 0.410604388 0.184269965
0.734579206 0.388444722 0.178929344
0.959131479 0.387370229 0.195858523
0.000000000 0.699201822 0.088905588
0.152044043 0.656875491 0.162157029
0.425650448 0.647392690 0.196598947
0.695577919 0.652518570 0.124302968
0.992855012 0.642039895 0.111966059
0.000000000 0.969608247 0.038087446
0.108425632 0.935219288 0.116572753
0.396205276 0.924128175 0.167838439
0.649270177 0.930566967 0.151807502
0.917826295 0.938885868 0.069929294
0.000000000 0.193739593 0.594644547
0.232472092 0.153137118 0.451541126
0.432744205 0.132416919 0.373528689
0.648323953 0.101533130 0.340121657
0.857937336 0.073484316 0.312238276
0.000000000 0.332039356 0.502722979
0.203367233 0.263911396 0.478699535
0.446746230 0.239743307 0.385242730
0.685618579 0.216780201 0.360992938
0.917309523 0.199719563 0.344658136
0.000000000 0.506028116 0.344033450
0.126428261 0.452271044 0.365099490
0.451827258 0.410277128 0.389558315
0.708395481 0.398256123 0.377515018
0.955347002 0.394910216 0.373938203
0.000000000 0.741626024 0.205033198
0.076578721 0.693259954 0.273453265
0.419194728 0.659461498 0.357046902
0.698928297 0.656832278 0.334502935
0.977044821 0.651727557 0.346910983
0.000000000 0.993452549 0.144349262
0.046603709 0.968756318 0.233339235
0.380279958 0.940850019 0.318256885
0.665744364 0.932793438 0.351190865
0.921609104 0.943348169 0.281895757
0.000000000 0.180705324 0.942143857
0.218371809 0.135570362 0.773437440
0.442934811 0.115909413 0.607276261
0.643327653 0.094676085 0.525692999
0.850913465 0.068846039 0.493123978
0.000000000 0.319679797 0.855855346
0.169445336 0.253457814 0.803964972
0.456643730 0.225231051 0.648023546
0.685151100 0.213250101 0.560996413
0.915818155 0.197893023 0.545640588
0.000000000 0.512214243 0.635868251
0.074218206 0.455882370 0.669495702
0.423917353 0.409431428 0.685024500
0.711719811 0.399227887 0.585283995
0.958722353 0.397557676 0.585614264
0.000000000 0.772007585 0.404700726
0.013886049 0.728216827 0.458777606
0.330739766 0.695630133 0.520694375
0.700020194 0.658865333 0.575371623
0.950487852 0.663279831 0.579233408
0.000000000 0.995161295 0.283858418
0.011290320 0.993517101 0.350385368
0.304580778 0.978750348 0.435979247
0.654731452 0.944951236 0.532231629
0.924203813 0.946809471 0.503854871
0.000000000 0.171309426 0.995161295
0.194466531 0.121274494 0.995161295
0.444044411 0.096129186 0.899584532
0.659061074 0.076961495 0.759728253
0.849658549 0.061717242 0.690001786
0.000000000 0.308606923 0.995161295
0.137628019 0.244923264 0.995161295
0.446187109 0.211714700 0.967078388
0.707249224 0.197798550 0.817242742
0.919119895 0.194261611 0.758424282
0.000000000 0.510173857 0.973475814
0.039308898 0.451705962 0.993445396
0.395696372 0.407223046 0.992912531
0.734635234 0.387521952 0.868900061
0.965311408 0.399169087 0.804598391
0.000000000 0.786125362 0.703607559
0.011290320 0.741157651 0.767076671
0.279608697 0.704931736 0.842101455
0.666952372 0.664044380 0.887208760
0.955935299 0.666984200 0.793304801
0.000000000 0.995161295 0.501173913
0.011290320 0.995161295 0.561254203
0.211993188 0.993385255 0.628808379
0.539136708 0.988712549 0.702959776
0.924080849 0.947559714 0.760511696
