Desert Affinity Presets/Desert Affinity Preset #12.cube
TITLE "32x32x32 Adobe/IRIDAS cube 3D LUT exported with GrossGrade v0.1.027.1 (beta) 64 bit"
LUT_3D_SIZE 5
DOMAIN_MIN 0.000000 0.000000 0.000000
DOMAIN_MAX 0.903226 0.903226 0.903226
0.157876700 0.127985895 0.005508509
0.259305477 0.127719223 0.005303224
0.401757002 0.116949998 0.000000000
0.641038775 0.077295423 0.000000000
0.907678545 0.030128416 0.000000000
0.144365981 0.231383339 0.000000000
0.255091667 0.228096500 0.000000000
0.409450084 0.212654933 0.000000000
0.648549914 0.179164767 0.000000000
0.926787019 0.140430808 0.000000000
0.105778277 0.354658842 0.000000000
0.234235093 0.355362952 0.000000000
0.389378726 0.360796183 0.000000000
0.703837216 0.321920812 0.000000000
0.990708053 0.292128175 0.000000000
0.029147409 0.543833375 0.000000000
0.176831841 0.553940237 0.000000000
0.331773520 0.575517058 0.000000000
0.620858192 0.575558066 0.000000000
0.992044091 0.554480612 0.000000000
0.000000000 0.816509306 0.000000000
0.117207535 0.848651528 0.000000000
0.312395304 0.885084510 0.000000000
0.573575258 0.910730720 0.000000000
0.932481706 0.904431880 0.000000000
0.134766757 0.125185058 0.201204792
0.256809562 0.124370649 0.152256072
0.396872193 0.113190137 0.140716761
0.631847203 0.074427523 0.102173656
0.900068104 0.027010897 0.054964136
0.071660608 0.249280512 0.118899830
0.248876318 0.222457632 0.143578097
0.389973551 0.213327631 0.133992270
0.636044383 0.180818692 0.100937381
0.922176421 0.141430661 0.061425705
0.041567277 0.377245456 0.052209917
0.225442484 0.359237701 0.116546154
0.387901992 0.360028833 0.101566635
0.674150705 0.329180926 0.086828880
0.955017328 0.305413693 0.076063439
0.000000000 0.574238896 0.011290320
0.159202754 0.568033695 0.047567941
0.346674472 0.578500390 0.091876283
0.627695501 0.583709478 0.034902528
0.992382228 0.565628827 0.027049417
0.000000000 0.851415396 0.011290320
0.104828335 0.872340918 0.011722395
0.324020982 0.899676681 0.069069311
0.594973087 0.917365193 0.069169879
0.939780772 0.912704349 0.012363963
0.109159693 0.120903470 0.418267190
0.265362740 0.113155514 0.342057019
0.393256664 0.108355008 0.291811198
0.621713281 0.071449704 0.253338069
0.891530573 0.024211228 0.206592456
0.025264299 0.250654966 0.333589435
0.225783885 0.219070852 0.347166091
0.387538999 0.210712940 0.286386013
0.632661462 0.180060238 0.254822195
0.920664489 0.141344815 0.216503292
0.000000000 0.399272174 0.214556560
0.155866012 0.381844789 0.252289146
0.386461645 0.359298259 0.285498023
0.646991789 0.338470459 0.264848053
0.949866891 0.312122971 0.238165036
0.000000000 0.616712511 0.059199605
0.081578515 0.604055583 0.143242821
0.341297358 0.591837823 0.241870403
0.634956837 0.592353821 0.232656047
0.987390935 0.581924975 0.243616015
0.000000000 0.899129987 0.022580640
0.051435091 0.910646796 0.104319192
0.314156264 0.921632051 0.215512663
0.617138445 0.923196375 0.258469433
0.946457684 0.920365989 0.195934072
0.070064217 0.102232479 0.821268737
0.248714179 0.093403280 0.683386028
0.401977211 0.092377715 0.515803933
0.614817917 0.065161295 0.428470075
0.882869720 0.019881146 0.375764698
0.000000000 0.237103745 0.681890845
0.192539260 0.205440298 0.686184645
0.395089328 0.196595147 0.530769467
0.630985260 0.176443934 0.435581356
0.917737782 0.139631256 0.396368176
0.000000000 0.405844420 0.451109499
0.108950794 0.384870648 0.520708144
0.359896511 0.357168555 0.561577976
0.649107158 0.339000434 0.450407535
0.952288151 0.314985126 0.426360160
0.000000000 0.647335589 0.223907709
0.011290320 0.640926421 0.296414644
0.254369944 0.631805599 0.381920308
0.641150296 0.599921644 0.451665640
0.970866024 0.599909425 0.452125192
0.000000000 0.946179688 0.113572717
0.011290320 0.961239398 0.213319868
0.245311469 0.964343429 0.326624036
0.604865968 0.940417707 0.429917514
0.952738225 0.927462757 0.399938554
0.032782633 0.085361749 0.995161295
0.218560368 0.071277194 0.995161295
0.393760234 0.065062121 0.901209950
0.628436983 0.039721601 0.735157073
0.875178993 0.007581918 0.627677917
0.000000000 0.217682675 0.995161295
0.155546024 0.188182473 0.995161295
0.374799758 0.174207047 0.944327116
0.650795341 0.151878804 0.765221357
0.913715422 0.129088983 0.671835661
0.000000000 0.394170493 0.868087173
0.067644052 0.370403379 0.951824248
0.324255198 0.344827622 0.971683443
0.668488204 0.317595661 0.810553372
0.952420771 0.310073167 0.710837543
0.000000000 0.658945799 0.517752171
0.011290320 0.649793684 0.645587444
0.202142939 0.637179494 0.773353457
0.597683907 0.605407178 0.850366235
0.976976335 0.604099870 0.729964435
0.000000000 0.982081950 0.304877609
0.011290320 0.990966797 0.419123590
0.159883738 0.991522312 0.534544289
0.471594304 0.988403976 0.639903069
0.951404333 0.927180946 0.700069606
