Desert Affinity Presets/Desert Affinity Preset #16.cube
TITLE "32x32x32 Adobe/IRIDAS cube 3D LUT exported with GrossGrade v0.1.027.1 (beta) 64 bit"
DOMAIN_MIN 0 0 0
DOMAIN_MAX 1 1 1
LUT_3D_SIZE 32
0.000000000 0.086295150 0.099732906
0.001612904 0.084904850 0.106272057
0.004854044 0.081834488 0.111085609
0.033032194 0.074199311 0.111306623
0.065485217 0.070759527 0.115713149
0.092825420 0.068659976 0.121389993
0.118493333 0.066950358 0.127426282
0.143893600 0.065269716 0.133453295
0.169882387 0.063481562 0.139319509
0.197090343 0.061421257 0.144873619
0.225846216 0.058774576 0.149784386
0.256819189 0.055490039 0.154021636
0.290405750 0.051481642 0.157496914
0.326463878 0.046827473 0.160273492
0.364870608 0.041595820 0.162444204
0.405545533 0.035721596 0.163926318
0.448136657 0.029242281 0.164756939
0.492397010 0.022308955 0.165102735
0.537925482 0.015034756 0.165075272
0.584439099 0.007616048 0.164875597
0.631316960 0.001712876 0.164501846
0.677949250 0.000000000 0.164106220
0.724021733 0.000000000 0.163839355
0.769273579 0.000000000 0.163787469
0.813708723 0.000000000 0.164015725
0.857531786 0.000000000 0.164478764
0.900812268 0.000000000 0.164986923
0.943792105 0.000000000 0.165559426
0.986564398 0.000000000 0.166208252
0.996468306 0.000000000 0.166961357
0.998387098 0.000000000 0.167836457
1.000000000 0.000000000 0.168806449
0.000000000 0.099302597 0.123326145
0.001643299 0.102020420 0.123229094
0.006160556 0.099456303 0.118745647
0.050814603 0.090646781 0.116059750
0.085953191 0.086373754 0.118960127
0.115603320 0.083576925 0.123366773
0.143460125 0.081267387 0.128205955
0.171062097 0.079122461 0.133133054
0.198999107 0.076693177 0.137727663
0.228001043 0.073966019 0.141963124
0.258570135 0.070810087 0.145722061
0.291198164 0.067095809 0.148894027
0.326400638 0.062736742 0.151372060
0.363984138 0.057772096 0.153219402
0.403657466 0.052115809 0.154366821
0.445396662 0.045909591 0.154944673
0.488940150 0.039218988 0.155022100
0.533981621 0.032141674 0.154721692
0.580168128 0.024844056 0.154185638
0.627027929 0.017330870 0.153438717
0.674062431 0.009712476 0.152600020
0.720743775 0.003565203 0.151886269
0.766696274 0.001700348 0.151418254
0.811691284 0.001612904 0.151272386
0.855722487 0.001612904 0.151481733
0.898882985 0.001612904 0.151876166
0.941432178 0.001612904 0.152502984
0.982859492 0.001612904 0.153259948
0.994598746 0.001612904 0.154166296
0.996774197 0.001612904 0.155303150
0.998387098 0.001612904 0.156545624
1.000000000 0.001612904 0.157944173
0.000000000 0.114009321 0.143273756
0.002147388 0.116439268 0.143049285
0.007840698 0.116532989 0.138141394
0.057120904 0.109644622 0.124740534
0.095627666 0.105000034 0.120537005
0.128969818 0.101358213 0.121330597
0.160039470 0.098344766 0.123982809
0.190156862 0.095410965 0.127064764
0.220340118 0.092407048 0.130225554
0.251355737 0.089169741 0.133151725
0.283712536 0.085560679 0.135689139
0.318022668 0.081469983 0.137740642
0.354668140 0.076818138 0.139239520
0.393385082 0.071489669 0.140065089
0.434075624 0.065625757 0.140352294
0.476647288 0.059269920 0.140167132
0.520837486 0.052480169 0.139559373
0.566402435 0.045411259 0.138710335
0.612875819 0.038108032 0.137667522
0.659821093 0.030615423 0.136453822
0.706822455 0.023113020 0.135273561
0.753307819 0.015777074 0.134293705
0.799016714 0.008791836 0.133732036
0.843565106 0.004627715 0.133499727
0.886913419 0.003551267 0.133603930
0.929335535 0.003225807 0.134034067
0.970676064 0.003225807 0.134716645
0.991477728 0.003225807 0.135711491
0.995161295 0.003225807 0.136996120
0.996774197 0.003225807 0.138394862
0.998387098 0.003225807 0.139879912
1.000000000 0.003225807 0.141667053
0.000000000 0.129970863 0.158776015
0.003095709 0.131972790 0.157108113
0.023677921 0.131807372 0.153153375
0.066521317 0.126630709 0.140888616
0.099704891 0.124187738 0.129935384
0.133626074 0.121290840 0.122864164
0.167355567 0.117819913 0.120024830
0.200471044 0.114262193 0.119734660
0.233379722 0.110659517 0.120567195
0.266744792 0.106912315 0.121830359
0.301187813 0.102937303 0.123143718
0.337152064 0.098444082 0.124093011
0.375113636 0.093375564 0.124579683
0.414995849 0.087796919 0.124627382
0.456655711 0.081764676 0.124291256
0.500042498 0.075346664 0.123632997
0.544871569 0.068568103 0.122678369
0.590748250 0.061412212 0.121411659
0.637368500 0.054078106 0.120035715
0.684376180 0.046669193 0.118655667
0.731320024 0.039336573 0.117416292
0.777674794 0.032291498 0.116516516
0.822964430 0.025485801 0.115940601
0.866962910 0.018997144 0.115763657
0.909733295 0.012899930 0.116076089
0.951501787 0.007512541 0.116803050
0.986649036 0.006060589 0.117841065
0.993548393 0.005603263 0.119254179
0.995161295 0.005161367 0.120885327
0.996774197 0.004838713 0.122755505
0.998387098 0.004838713 0.124868385
1.000000000 0.004838713 0.127214313
0.000000000 0.147403538 0.169720009
0.011647452 0.148992002 0.166777194
0.036312822 0.148473918 0.161670625
0.079129718 0.143169478 0.151222169
0.107976735 0.141912833 0.141489014
0.136726752 0.140723407 0.130689785
0.168794259 0.138385504 0.121418402
0.203039467 0.135099918 0.115415409
0.238126099 0.131280661 0.112191044
0.273846149 0.127214357 0.110738225
0.310292214 0.122768544 0.110021122
0.348043501 0.117895626 0.109569289
0.387550235 0.112555400 0.109058499
0.428705782 0.106753439 0.108370580
0.471407294 0.100582086 0.107497908
0.515589893 0.094066776 0.106445462
0.560941756 0.087170392 0.105151072
0.607240260 0.080039755 0.103733733
0.654124916 0.072787054 0.102312297
0.701212287 0.065475397 0.100957170
0.748150170 0.058347054 0.099875815
0.794280827 0.051472701 0.099125072
0.839246392 0.044883978 0.098784864
0.882844865 0.038680568 0.098940693
0.925076663 0.032904632 0.099610232
0.966293752 0.027598113 0.100847475
0.989073694 0.022541311 0.102421924
0.993548393 0.017688872 0.104303621
0.995161295 0.013022089 0.106499530
0.996774197 0.009391984 0.108967572
0.998387098 0.008709253 0.111756340
1.000000000 0.008243509 0.115007490
0.000313302 0.166337445 0.176595196
0.018617254 0.167525917 0.172535777
0.044977270 0.166644767 0.166434154
0.089048222 0.160990775 0.155628055
0.117549360 0.159577176 0.147784054
0.143069357 0.159245327 0.138198808
0.170896620 0.158379942 0.127192363
0.202470571 0.156348124 0.116782054
0.237299845 0.153289169 0.108704798
0.273963481 0.149319485 0.103007369
0.311977118 0.144756153 0.099259004
0.351392984 0.139687821 0.096669152
0.392410040 0.134155661 0.094665788
0.434951901 0.128240854 0.093021043
0.478753775 0.121936843 0.091459937
0.523740470 0.115258314 0.089884959
0.569743752 0.108297296 0.088308647
0.616538346 0.101184979 0.086814187
0.663798332 0.094065033 0.085488476
0.711148024 0.086963348 0.084360130
0.758041084 0.079924360 0.083438911
0.803990304 0.073164985 0.082923569
0.848727524 0.066811956 0.082963325
0.892044783 0.060954604 0.083636269
0.933956861 0.055628028 0.084936723
0.974575698 0.050603017 0.086665027
0.990478933 0.045859057 0.088799156
0.993548393 0.041420426 0.091340691
0.995161295 0.037281603 0.094258219
0.996774197 0.033316225 0.097436659
0.998387098 0.029575717 0.100842744
1.000000000 0.025882028 0.104275428
0.001819024 0.186690122 0.179990426
0.022130912 0.187537059 0.175166592
0.050102387 0.186199054 0.168235958
0.095590204 0.180125847 0.156680301
0.125068277 0.178390861 0.149514586
0.150111780 0.178079352 0.141834065
0.175369516 0.177965894 0.132203579
0.203464597 0.177200168 0.121214949
0.235202223 0.175255299 0.110263400
0.270480961 0.172154173 0.100750290
0.308511734 0.168125913 0.093328767
0.348725945 0.163269669 0.087736763
0.390898764 0.157801226 0.083557241
0.434525132 0.151802629 0.080296069
0.479348451 0.145398960 0.077635363
0.525267482 0.138721764 0.075387046
0.572062552 0.131810799 0.073459521
0.619451404 0.124765664 0.071817771
0.667119741 0.117703788 0.070494398
0.714689910 0.110674866 0.069467507
0.761734426 0.103836417 0.068860568
0.807732046 0.097340375 0.068781041
0.852363884 0.091237061 0.069267340
0.895545125 0.085713528 0.070502825
0.937194228 0.080658600 0.072321840
0.977581143 0.075980112 0.074650101
0.991035283 0.071607940 0.077348202
0.993548393 0.067481190 0.080311522
0.995161295 0.063688800 0.083610080
0.996774197 0.060019489 0.087011479
0.998387098 0.056438453 0.090516731
1.000000000 0.052994043 0.094127975
0.001010048 0.208305672 0.180612370
0.022578394 0.208644643 0.175111935
0.052186526 0.206927702 0.167692259
0.099219382 0.200528964 0.155768737
0.129901081 0.198555425 0.148438185
0.155622676 0.197990790 0.142179310
0.180263385 0.198006898 0.134462595
0.206051245 0.197812855 0.124849170
0.234756559 0.196928620 0.113990314
0.267127275 0.195004866 0.103016466
0.303165019 0.191938952 0.092834257
0.342632651 0.187894955 0.084332079
0.384784639 0.182822451 0.077365085
0.428937465 0.177052498 0.071880862
0.474468440 0.170793965 0.067627445
0.521158457 0.164223015 0.064324684
0.568721712 0.157453954 0.061755590
0.616749883 0.150558144 0.059756085
0.664832830 0.143584281 0.058240097
0.712727785 0.136671662 0.057237517
0.760059834 0.130019814 0.056816179
0.806349099 0.123822115 0.057099536
0.851250470 0.118078597 0.058045056
0.894585729 0.112735711 0.059549846
0.936511755 0.107836947 0.061530635
0.977440119 0.103360549 0.063995019
0.991070390 0.099281080 0.066897959
0.993548393 0.095505074 0.070072599
0.995161295 0.091847345 0.073430561
0.996774197 0.088356495 0.076949365
0.998387098 0.085054189 0.080648668
1.000000000 0.082020365 0.084612638
0.000000000 0.230879128 0.179048732
0.020832339 0.230826572 0.173243612
0.051987302 0.228762612 0.165598199
0.100484669 0.222066015 0.153534114
0.132553488 0.219956636 0.146246299
0.159163266 0.219173878 0.140515760
0.184053048 0.218958497 0.134445801
0.209042281 0.218941748 0.126717865
0.235769659 0.218695194 0.117449209
0.265438765 0.217744052 0.107021302
0.298781127 0.215866506 0.096345693
0.335889727 0.212734818 0.085944407
0.376647681 0.208485425 0.076702423
0.420244336 0.203425780 0.069015302
0.465812981 0.197676703 0.062796056
0.512842596 0.191457480 0.057946417
0.560813069 0.184910685 0.054235406
0.609331489 0.178164646 0.051429711
0.658026755 0.171442389 0.049468551
0.706541955 0.164831728 0.048240609
0.754478812 0.158397347 0.047657017
0.801415920 0.152355328 0.047704235
0.847102582 0.146741301 0.048417814
0.891380072 0.141619906 0.049789827
0.934270442 0.136988580 0.051757514
0.976069093 0.132734999 0.054188173
0.990918338 0.128919184 0.057166871
0.993548393 0.125348911 0.060391098
0.995161295 0.121987775 0.063875742
0.996774197 0.118791267 0.067554004
0.998387098 0.115725517 0.071434304
1.000000000 0.113010757 0.075634442
0.000000000 0.254350543 0.175992250
0.017540334 0.254014730 0.170196816
0.050173905 0.251650482 0.162576839
0.100083567 0.244758308 0.150653660
0.133238673 0.242296949 0.143385485
0.160818368 0.241384998 0.137914777
0.186450675 0.241093665 0.133150920
0.211512804 0.241091430 0.127335727
0.237300813 0.241071329 0.119940929
0.265162647 0.240799531 0.111228332
0.295981675 0.239737675 0.101353481
0.330507427 0.237696528 0.091001652
0.368961543 0.234575599 0.080865629
0.410817593 0.230397657 0.071476370
0.455459148 0.225521296 0.063496515
0.502089739 0.219931170 0.056824099
0.550119698 0.213870004 0.051441401
0.599009693 0.207506806 0.047223050
0.648370147 0.201105952 0.044100311
0.697786450 0.194796383 0.041927334
0.746785164 0.188674778 0.040587593
0.794699490 0.182815269 0.039970327
0.841300130 0.177372366 0.040140074
0.886517644 0.172474459 0.041145939
0.930468738 0.168174967 0.043001913
0.973310947 0.164300412 0.045426499
0.990605175 0.160647422 0.048250869
0.993548393 0.157219931 0.051381096
0.995161295 0.154065087 0.054859687
0.996774197 0.151215732 0.058718935
0.998387098 0.148507670 0.062785767
1.000000000 0.145929903 0.067020938
0.000000000 0.278727442 0.172007412
0.013207450 0.278138638 0.166436851
0.047236372 0.275549799 0.159066617
0.098301440 0.268364459 0.147356495
0.132585436 0.265732259 0.140435353
0.161155850 0.264699817 0.135370791
0.187448755 0.264368713 0.131250620
0.213094220 0.264452040 0.127266809
0.238723055 0.264579177 0.121891677
0.265507996 0.264548600 0.115029946
0.294514507 0.264099240 0.106785208
0.326869965 0.263000488 0.097515352
0.362962693 0.260927945 0.087611452
0.402700782 0.257970572 0.077828459
0.445467532 0.253981292 0.068321854
0.490990460 0.249234170 0.059805647
0.538681865 0.244018480 0.052557595
0.587726951 0.238348678 0.046481427
0.637577176 0.232465118 0.041653760
0.687644005 0.226529136 0.037987184
0.737350047 0.220690936 0.035410605
0.786220789 0.215212464 0.033983916
0.833939731 0.210195065 0.033599567
0.880125463 0.205575570 0.034065325
0.924943984 0.201468691 0.035423249
0.968610227 0.197753891 0.037444279
0.989985526 0.194366917 0.040037703
0.993548393 0.191221297 0.043075286
0.995161295 0.188312203 0.046476755
0.996774197 0.185704887 0.050342090
0.998387098 0.183133572 0.054308388
1.000000000 0.180759400 0.058536530
0.000000000 0.304041177 0.167471737
0.008080026 0.303129554 0.162184492
0.043336906 0.300307989 0.155185938
0.095552273 0.292988449 0.143958285
0.130947515 0.290321201 0.137639999
0.160450324 0.289251924 0.133167669
0.187509134 0.288980007 0.129710704
0.213496208 0.288969308 0.126681432
0.239329323 0.289214343 0.123054519
0.265866041 0.289570242 0.118131146
0.293949723 0.289647281 0.111678198
0.324586391 0.289163619 0.103704974
0.358798325 0.288078010 0.094660543
0.396432459 0.286090642 0.084827729
0.437352568 0.283262819 0.074893713
0.481366038 0.279663235 0.065203339
0.527897775 0.275306016 0.056281231
0.576459885 0.270543754 0.048566051
0.626170933 0.265387058 0.042020366
0.676476002 0.260042429 0.036714803
0.726685882 0.254676402 0.032635808
0.776235580 0.249630451 0.029964318
0.824704945 0.244970083 0.028568501
0.871780872 0.240738750 0.028325791
0.917418361 0.236844495 0.028975781
0.961875677 0.233303845 0.030388413
0.989071369 0.230116203 0.032519374
0.993548393 0.227296680 0.035345621
0.995161295 0.224706009 0.038570758
0.996774197 0.222175926 0.042104073
0.998387098 0.219744310 0.045899253
1.000000000 0.217528209 0.050031587
0.000000000 0.330134749 0.162533566
0.003782638 0.329071194 0.157806203
0.039016120 0.326137990 0.151419774
0.092264473 0.318750381 0.140800014
0.128584906 0.316117167 0.135103554
0.158901110 0.315143496 0.131224811
0.186566249 0.314934850 0.128239721
0.212957755 0.315120131 0.125717297
0.239103049 0.315526515 0.123245120
0.265606701 0.316128254 0.119684979
0.293427706 0.316787899 0.114768334
0.323287219 0.316988438 0.108229205
0.355999678 0.316521496 0.100182988
0.391899228 0.315364212 0.091018960
0.431134015 0.313632905 0.081337459
0.473414749 0.311113596 0.071469359
0.518562615 0.307935417 0.061782233
0.565824687 0.303989768 0.052622128
0.614761293 0.299614906 0.044512745
0.664804637 0.295091420 0.037730433
0.715077579 0.290417284 0.032188289
0.764893055 0.285899818 0.028046167
0.813800335 0.281611145 0.025265727
0.861371756 0.277643114 0.023778697
0.907707274 0.274100870 0.023520542
0.953025520 0.270991325 0.024363670
0.987820446 0.268048972 0.025875965
0.993548393 0.265398294 0.028149968
0.995161295 0.262922168 0.030863987
0.996774197 0.260607570 0.034073211
0.998387098 0.258412778 0.037617769
1.000000000 0.256441772 0.041644420
0.000000000 0.357005507 0.157960549
0.002442452 0.355877966 0.153809667
0.034715917 0.353072315 0.148059204
0.088810705 0.345830888 0.137994334
0.125717074 0.343282253 0.132636890
0.156516507 0.342436820 0.129003212
0.184710592 0.342491806 0.126275867
0.211644739 0.343099564 0.124088012
0.238145798 0.343872368 0.122108102
0.264960378 0.344772130 0.119723931
0.292632639 0.345645636 0.115978301
0.322115153 0.346316516 0.110788114
0.354210109 0.346619904 0.104177713
0.388984531 0.346291006 0.096196450
0.426592559 0.345258892 0.087110646
0.467323333 0.343704283 0.077539511
0.510748267 0.341413140 0.067681238
0.556589365 0.338499427 0.057991304
0.604366422 0.335138649 0.048884008
0.653486252 0.331353307 0.040717594
0.703290761 0.327458084 0.033808593
0.752883077 0.323547244 0.028207030
0.801792920 0.319775552 0.024013447
0.849637866 0.316244662 0.021176420
0.896479964 0.313146800 0.019782003
0.942329526 0.310358018 0.019586524
0.984598100 0.307776213 0.020310417
0.993548393 0.305302024 0.021807693
0.995161295 0.302966893 0.023906328
0.996774197 0.300802231 0.026608227
0.998387098 0.298918039 0.029857697
1.000000000 0.297189236 0.033622473
0.000000000 0.384977520 0.153809175
0.002282527 0.384043276 0.150069326
0.030132378 0.381440967 0.144596070
0.084688686 0.374422669 0.134698421
0.122137219 0.372171044 0.129575506
0.153491378 0.371672332 0.126210108
0.182214558 0.372020304 0.123717368
0.209659889 0.372944534 0.121798702
0.236639217 0.374152809 0.120191544
0.263808578 0.375360101 0.118544161
0.291710347 0.376516730 0.115955748
0.321117759 0.377536833 0.111997828
0.352767795 0.378243744 0.106594443
0.386900842 0.378591150 0.099898539
0.423512846 0.378360420 0.091958866
0.462736309 0.377436459 0.082954481
0.504602253 0.375903875 0.073356234
0.549019694 0.373989224 0.063713975
0.595349491 0.371508926 0.054266252
0.643262148 0.368678033 0.045281503
0.692013562 0.365467429 0.037151590
0.740902662 0.362204790 0.030235531
0.789526820 0.359159589 0.024825213
0.837318301 0.356257051 0.020744370
0.884214938 0.353616178 0.018081762
0.930259466 0.351132929 0.016594741
0.975616634 0.348788321 0.016136486
0.993030250 0.346613824 0.016685452
0.995161295 0.344657004 0.018135017
0.996774197 0.342719197 0.020182280
0.998387098 0.340960711 0.022878559
1.000000000 0.339222610 0.025993809
0.000000000 0.414570391 0.149297044
0.002113719 0.414001346 0.145867109
0.024916120 0.411611199 0.140544221
0.079984523 0.404849559 0.130852357
0.117977932 0.402919292 0.126003683
0.149995685 0.402849674 0.123016320
0.179305792 0.403570473 0.120840214
0.207252055 0.404767692 0.119149178
0.234554425 0.406163424 0.117675267
0.262066007 0.407702893 0.116382048
0.290434182 0.409253806 0.114852183
0.320039541 0.410590947 0.112047352
0.351551324 0.411630303 0.107801400
0.385176301 0.412304431 0.102180935
0.421021491 0.412558764 0.095299736
0.459341556 0.412410766 0.087402917
0.500053883 0.411688805 0.078606121
0.542935431 0.410376608 0.069208011
0.587878823 0.408758074 0.059791598
0.634313285 0.406667650 0.050576299
0.681820512 0.404311597 0.041774388
0.729746699 0.401904762 0.033981126
0.777560830 0.399489164 0.027403174
0.824844658 0.397209525 0.022150932
0.871378899 0.395060748 0.018189300
0.917294443 0.392994881 0.015457521
0.962659895 0.391019315 0.013822241
0.991460919 0.389225930 0.013305073
0.995161295 0.387540072 0.013725913
0.996774197 0.385848582 0.014924391
0.998387098 0.384131670 0.016684048
1.000000000 0.382507622 0.019139469
0.000000000 0.445953697 0.144485995
0.001936492 0.445602477 0.141236141
0.019416958 0.443571419 0.136226386
0.075099759 0.437192708 0.126869917
0.113664813 0.435602546 0.122324660
0.146175936 0.435794771 0.119570427
0.175946116 0.436762452 0.117597654
0.204388186 0.438231260 0.116142742
0.232215852 0.439944178 0.114948340
0.260094613 0.441791803 0.113911808
0.288739204 0.443587393 0.112864725
0.318702638 0.445243627 0.111120306
0.350309581 0.446547031 0.107952915
0.383712858 0.447514802 0.103396498
0.419123232 0.448164642 0.097604193
0.456736922 0.448486626 0.090739325
0.496493071 0.448395282 0.082898811
0.538301826 0.447837234 0.074289113
0.581820011 0.446774393 0.065151908
0.626841187 0.445362598 0.055920225
0.673086762 0.443873584 0.047218848
0.719729304 0.442179084 0.038853660
0.766421437 0.440489709 0.031430725
0.812738776 0.438767970 0.025106253
0.858550906 0.437114626 0.019992439
0.904040396 0.435635179 0.016206611
0.949236631 0.434168041 0.013436434
0.989571512 0.432701349 0.011743210
0.995161295 0.431207001 0.010931446
0.996774197 0.429665506 0.011006704
0.998387098 0.428115606 0.011765209
1.000000000 0.426736891 0.013460749
0.000000000 0.479016006 0.139710486
0.001763476 0.478920728 0.136670589
0.013860302 0.477148592 0.131888911
0.070172988 0.471161157 0.122894309
0.109310359 0.469911873 0.118660368
0.142219707 0.470270783 0.116048023
0.172428787 0.471448898 0.114267297
0.201367766 0.473201841 0.113075867
0.229769692 0.475280792 0.112229817
0.258070260 0.477390707 0.111443162
0.287011474 0.479473710 0.110663794
0.317140758 0.481216073 0.109478153
0.348943055 0.482733101 0.107277647
0.382530421 0.484113485 0.103920713
0.417745173 0.485104322 0.099208102
0.454845786 0.485728800 0.093294948
0.493857533 0.486023873 0.086376913
0.534633279 0.485916406 0.078565858
0.577094793 0.485515982 0.070168480
0.620988309 0.484851927 0.061468951
0.665775657 0.483860195 0.052667491
0.711099625 0.482847840 0.044315878
0.756432235 0.481725127 0.036479101
0.801532507 0.480640054 0.029409247
0.846434057 0.479637772 0.023471026
0.891136825 0.478682816 0.018646603
0.935684621 0.477633744 0.014793948
0.980159700 0.476482689 0.011868051
0.995120585 0.475245923 0.009878344
0.996774197 0.473943442 0.008809398
0.998387098 0.472662091 0.008586363
1.000000000 0.471441567 0.009212018
0.000000000 0.513482749 0.135180458
0.001613371 0.513833821 0.132574454
0.008748341 0.512324870 0.128034785
0.065495871 0.506527185 0.119207531
0.104995936 0.505408943 0.115091734
0.138423577 0.506057084 0.112761661
0.169192225 0.507571757 0.111304387
0.198606938 0.509584963 0.110373355
0.227424100 0.511869431 0.109736398
0.256127357 0.514181018 0.109157726
0.285347760 0.516464293 0.108569860
0.315757006 0.518463314 0.107777685
0.347894251 0.520216405 0.106446184
0.381515622 0.521708131 0.103928261
0.416755646 0.523006856 0.100279704
0.453570157 0.523895860 0.095357753
0.492034554 0.524446189 0.089322925
0.532081425 0.524708390 0.082388669
0.573637068 0.524815202 0.074853018
0.616367340 0.524583340 0.066709056
0.659980297 0.524190485 0.058364943
0.703882575 0.523637772 0.050017990
0.747850180 0.523047328 0.042053539
0.791790366 0.522662699 0.034948640
0.835400701 0.522155643 0.028320661
0.878948629 0.521650970 0.022576483
0.922519028 0.520991743 0.017712312
0.966184437 0.520187497 0.013701104
0.993783712 0.519310474 0.010726154
0.996774197 0.518362522 0.008505454
0.998387098 0.517242074 0.007105411
1.000000000 0.516041517 0.006500787
0.000000000 0.549314797 0.131340846
0.001612904 0.549898028 0.128981337
0.006538390 0.548667967 0.124706708
0.061284527 0.543031931 0.116044827
0.101215646 0.542111576 0.112128250
0.135110602 0.542988539 0.110031754
0.166402400 0.544803739 0.108893409
0.196286276 0.547069490 0.108233891
0.225414112 0.549456179 0.107713908
0.254469693 0.551918507 0.107310124
0.284103990 0.554444730 0.107000731
0.314846903 0.556765258 0.106532663
0.347137243 0.558619082 0.105631202
0.380988806 0.560263455 0.103973731
0.416118652 0.561570227 0.101064034
0.452767223 0.562621117 0.097030975
0.491050690 0.563565612 0.092091173
0.530570090 0.564107537 0.086051971
0.571269214 0.564395845 0.079197638
0.613006890 0.564546943 0.071785912
0.655425847 0.564463794 0.063910358
0.698116839 0.564365149 0.055955324
0.740922630 0.564408839 0.048292957
0.783385038 0.564353287 0.040883601
0.825663388 0.564338684 0.034144349
0.867869556 0.564178526 0.027753446
0.910173237 0.563914180 0.022031689
0.952866554 0.563525498 0.017145097
0.992135406 0.563054383 0.013183013
0.996774197 0.562308729 0.009849384
0.998387098 0.561305642 0.007183035
1.000000000 0.560172915 0.005339229
0.000000000 0.586204648 0.128529444
0.001612904 0.586876035 0.126264960
0.006340119 0.585820615 0.122178614
0.057918627 0.580429673 0.113787472
0.098451152 0.579865336 0.110250197
0.132772982 0.580941975 0.108368099
0.164405510 0.582873464 0.107386589
0.194558442 0.585185766 0.106814079
0.224087790 0.587758124 0.106527820
0.253592551 0.590473115 0.106423013
0.283549249 0.593140662 0.106305704
0.314529687 0.595596790 0.106018834
0.346963048 0.597596169 0.105343260
0.380900443 0.599246800 0.104200408
0.416136384 0.600636184 0.102090269
0.452835828 0.601910412 0.099008016
0.490751624 0.602843702 0.094769731
0.529919863 0.603616059 0.089627333
0.569983423 0.604080558 0.083555833
0.610877395 0.604378521 0.076790340
0.652245760 0.604577303 0.069528297
0.693965197 0.604934692 0.062211979
