Desert Affinity Presets/Desert Affinity Preset #27.cube
TITLE "32x32x32 Adobe/IRIDAS cube 3D LUT exported with GrossGrade v0.1.027.1 (beta) 64 bit"
LUT_3D_SIZE 5
DOMAIN_MIN 0.000000 0.000000 0.000000
DOMAIN_MAX 0.903226 0.903226 0.903226
0.002087435 0.001710532 0.002957198
0.151375026 0.025246525 0.026717685
0.362472892 0.018800486 0.030611495
0.556482494 0.004868814 0.011465455
0.771092594 0.000000000 0.005195200
0.049211327 0.137039408 0.025438745
0.213607863 0.163904265 0.028765796
0.440728992 0.152812973 0.013293814
0.697797239 0.115367353 0.007720795
0.929198384 0.138555199 0.066203088
0.053694382 0.318875372 0.032751314
0.230192453 0.344433010 0.029142238
0.502095759 0.366940469 0.000000000
0.790262222 0.368278295 0.000000000
0.986806452 0.436537981 0.212012246
0.041870285 0.529412150 0.023841333
0.288632631 0.555241466 0.009667495
0.558741271 0.607137501 0.019272756
0.853561461 0.634214580 0.000000000
0.991868854 0.657765865 0.256000519
0.090770684 0.766626954 0.039252520
0.387100101 0.791731536 0.026304260
0.647299290 0.833866000 0.083178438
0.888184667 0.867831647 0.144697413
0.990762472 0.886919200 0.334225506
0.183733970 0.023185324 0.038093578
0.240031436 0.023700140 0.049072720
0.407162815 0.007668424 0.060583033
0.580539823 0.001319613 0.058056533
0.780307353 0.000000000 0.062035412
0.077690557 0.101753891 0.156887323
0.174581036 0.144337967 0.107443303
0.389616340 0.151548073 0.105020590
0.637151003 0.136092335 0.113287434
0.874240160 0.128101513 0.150724143
0.020105114 0.326596767 0.091610290
0.220744133 0.330401927 0.083361976
0.496359199 0.370914519 0.080636717
0.784000516 0.377741784 0.114028424
0.987089813 0.435742408 0.257218748
0.023262916 0.544380307 0.037482399
0.288557291 0.557991207 0.038303990
0.558963954 0.608353376 0.091420911
0.855455637 0.649158955 0.078887343
0.992417216 0.670419216 0.312698454
0.057317458 0.783775389 0.058389440
0.387247056 0.800662339 0.040540598
0.655415118 0.836280167 0.107686639
0.890122116 0.878343940 0.200394407
0.990537584 0.902556479 0.382287413
0.436586261 0.005095140 0.038001657
0.453232288 0.004847767 0.040292531
0.534150481 0.002572352 0.053864568
0.688100100 0.000000000 0.071114413
0.858916998 0.000000000 0.108580254
0.456315130 0.018032853 0.133830607
0.434007049 0.100439750 0.104566231
0.488352776 0.137263149 0.129158124
0.679261684 0.103670664 0.173734426
0.892768383 0.126639023 0.242982984
0.153224796 0.205718815 0.365721911
0.316892624 0.260328501 0.278615981
0.444422126 0.340870202 0.233575940
0.720515728 0.364269137 0.276833922
0.963299930 0.413081288 0.360172361
0.000000000 0.525800467 0.319819957
0.215652213 0.522078276 0.195387334
0.533541858 0.586644232 0.224814892
0.842729151 0.654693425 0.297146618
0.993459404 0.676170409 0.427894026
0.018253352 0.795214832 0.218980044
0.329280436 0.791003168 0.167298079
0.639969289 0.829134405 0.218086928
0.879761755 0.877026320 0.322065502
0.990509689 0.915917695 0.480068743
0.678793013 0.000000000 0.033870984
0.685674012 0.000000000 0.033870984
0.737179399 0.000000000 0.039210681
0.838878870 0.000000000 0.078331381
0.963290215 0.095830925 0.177865788
0.719455183 0.011290320 0.134671986
0.711127341 0.011290320 0.106155403
0.736961484 0.025749916 0.126277879
0.838548005 0.060752779 0.199237168
0.972818494 0.187353611 0.316478431
0.730244994 0.022580640 0.415088594
0.762277842 0.151033908 0.343296766
0.753942013 0.285545051 0.277653277
0.816878974 0.353472978 0.334253073
0.983118892 0.410790682 0.442239940
0.350145787 0.356753826 0.638566554
0.521181643 0.440440506 0.575092554
0.651205778 0.519566178 0.518939495
0.780277550 0.622010350 0.474032909
0.992655039 0.659098983 0.548251450
0.000000000 0.723116279 0.627970755
0.184291273 0.759592950 0.509920776
0.558335543 0.800682783 0.418860227
0.843235433 0.856420398 0.460703939
0.990933001 0.926644087 0.614412665
0.909031630 0.059391290 0.118714780
0.912969053 0.043412436 0.110871971
0.938172996 0.087398604 0.136576205
0.964053690 0.228768110 0.262050301
0.978779018 0.264308542 0.312855631
0.924641311 0.166290313 0.236345068
0.931714058 0.126459852 0.194242090
0.945847809 0.156690285 0.218417779
0.967734933 0.272988468 0.336790323
0.980827510 0.286985934 0.390793145
0.933656514 0.239675209 0.498162866
0.947255373 0.289814889 0.447788328
0.961230218 0.345276266 0.413570046
0.976096630 0.403474629 0.433976233
0.989448905 0.434372038 0.495080203
0.935770392 0.235577807 0.765210092
0.954000592 0.381469011 0.695218325
0.969394743 0.492455989 0.615847468
0.982781351 0.590284050 0.552951753
0.994774938 0.640356839 0.589111924
0.554729223 0.533282936 0.942029953
0.728536844 0.620967507 0.873485148
0.858606100 0.714698792 0.817153275
0.969585538 0.800083339 0.764257371
0.992760658 0.906389534 0.741415679
