Desert Affinity Presets/Desert Affinity Preset #14.cube
TITLE "32x32x32 Adobe/IRIDAS cube 3D LUT exported with GrossGrade v0.1.027.1 (beta) 64 bit"
DOMAIN_MIN 0 0 0
DOMAIN_MAX 1 1 1
LUT_3D_SIZE 32
0.000000000 0.206149042 0.080177814
0.010105263 0.205044895 0.079089165
0.031666607 0.203545183 0.077620819
0.054508839 0.201527327 0.075634919
0.079074144 0.199129164 0.073150933
0.108152293 0.195602894 0.069573671
0.153184965 0.187684864 0.061709292
0.228049800 0.171897963 0.046157788
0.267146647 0.165751532 0.040082544
0.298877329 0.161772564 0.036254644
0.328804016 0.158279553 0.032970116
0.357614577 0.154910266 0.029680427
0.386137903 0.151521042 0.026437066
0.414966315 0.147803172 0.022885568
0.444348097 0.143980622 0.018972544
0.474532247 0.139918014 0.014766308
0.505735636 0.135504141 0.010359525
0.537807643 0.130793676 0.005648796
0.570254087 0.125959277 0.001471118
0.602696598 0.121072955 0.000000000
0.634732664 0.116279088 0.000000000
0.666198671 0.111639380 0.000000000
0.697120070 0.107071467 0.000000000
0.727721214 0.102705508 0.000000000
0.758034170 0.098354638 0.000000000
0.787957251 0.094254337 0.000000000
0.817317247 0.090204850 0.000000000
0.846391499 0.086376972 0.000000000
0.875170410 0.082551897 0.000000000
0.903370619 0.078897439 0.000000000
0.931106746 0.075597957 0.000000000
0.958135426 0.072320931 0.000000000
0.000000000 0.221027508 0.081786327
0.013889672 0.219785973 0.077442199
0.037662398 0.217568412 0.077340737
0.058783755 0.215841055 0.078326501
0.083010517 0.213692531 0.076734252
0.112112828 0.210353583 0.073443182
0.157297313 0.202740744 0.065849125
0.231965184 0.187106967 0.050238699
0.271000594 0.180871353 0.044192880
0.302436829 0.176632062 0.040072311
0.331987232 0.172830895 0.036381394
0.360643864 0.169144794 0.032840598
0.389172792 0.165498510 0.029411128
0.417975485 0.161611453 0.025698282
0.447512567 0.157541707 0.021855865
0.477843314 0.153252259 0.017722121
0.509276569 0.148627579 0.013293376
0.541587889 0.143747836 0.008614896
0.574049175 0.138864711 0.003699307
0.606518149 0.133935973 0.000645309
0.638701260 0.129129335 0.000000000
0.670329392 0.124446221 0.000000000
0.701537848 0.119959578 0.000000000
0.732386827 0.115501173 0.000000000
0.762733877 0.111146867 0.000000000
0.792783201 0.107097171 0.000000000
0.822501004 0.103076518 0.000000000
0.851693273 0.099356994 0.000000000
0.880625308 0.095619902 0.000000000
0.909230232 0.092202611 0.000000000
0.937243640 0.089056008 0.000000000
0.964851499 0.085938454 0.000000000
0.000000000 0.236667991 0.082261443
0.015646538 0.234653920 0.084425077
0.038261428 0.234142363 0.073366486
0.065815747 0.231247842 0.069959007
0.090629794 0.228522554 0.072148375
0.117656238 0.225293279 0.072768845
0.161023527 0.217612371 0.066579491
0.234496221 0.201912299 0.051348850
0.272773236 0.195547789 0.045278244
0.303818017 0.191118464 0.041051481
0.333185613 0.187193617 0.037239499
0.361651689 0.183394834 0.033536442
0.389997900 0.179655746 0.029926432
0.418804288 0.175736338 0.026183635
0.448275059 0.171691418 0.022209864
0.478620648 0.167335242 0.018007359
0.510040820 0.162707761 0.013559410
0.542373478 0.157790035 0.008814081
0.575120568 0.152847156 0.004045344
0.607850850 0.147893786 0.000813650
0.640224040 0.143089548 0.000000000
0.672032475 0.138426274 0.000000000
0.703501642 0.133983210 0.000000000
0.734467804 0.129668355 0.000000000
0.765185952 0.125386983 0.000000000
0.795559287 0.121414021 0.000000000
0.825316608 0.117626764 0.000000000
0.854949534 0.114077814 0.000000000
0.884098232 0.110587269 0.000000000
0.913004458 0.107203528 0.000000000
0.941406131 0.104369268 0.000000000
0.969702601 0.101590157 0.000000000
0.000000000 0.253001302 0.083101273
0.017940167 0.250496030 0.086567745
0.039085384 0.249504700 0.082145959
0.063776441 0.248018742 0.068621583
0.093031928 0.244331896 0.062949888
0.124734104 0.239626765 0.061255731
0.168535233 0.231258288 0.058251299
0.240244821 0.215550423 0.046571176
0.276863337 0.209301293 0.042774606
0.306695163 0.205063611 0.039853461
0.335111052 0.201129496 0.036666676
0.362934291 0.197403148 0.033413939
0.390891731 0.193705514 0.029988626
0.419416875 0.189819857 0.026286084
0.448914319 0.185735509 0.022374013
0.479313910 0.181427091 0.018143475
0.510772109 0.176851556 0.013685206
0.543195307 0.172023654 0.009000184
0.576094508 0.167158335 0.004250627
0.608979940 0.162292361 0.000875376
0.641614318 0.157612950 0.000000000
0.673694670 0.153049767 0.000000000
0.705338836 0.148726895 0.000000000
0.736679554 0.144563645 0.000000000
0.767707467 0.140516579 0.000000000
0.798566043 0.136689588 0.000000000
0.828854024 0.133037299 0.000000000
0.858750820 0.129619256 0.000000000
0.888728738 0.126495034 0.000000000
0.918022454 0.123518199 0.000000000
0.946688533 0.120788202 0.000000000
0.975737453 0.118299291 0.000000000
0.000000000 0.268506378 0.083546482
0.019029735 0.265488237 0.087257929
0.041406587 0.263402700 0.087014809
0.062896915 0.262493432 0.076281168
0.089997172 0.260070980 0.062361155
0.123711474 0.255198866 0.054790493
0.172116473 0.245835513 0.046698883
0.247460902 0.229064703 0.034046613
0.284626245 0.222346395 0.032828942
0.313495427 0.218034849 0.033109494
0.340763122 0.214204937 0.032393117
0.367632926 0.210699469 0.030793393
0.394743830 0.207154676 0.028449727
0.422685862 0.203476682 0.025602378
0.451482981 0.199543729 0.022150455
0.481592059 0.195384860 0.018345451
0.512999535 0.190961286 0.014183680
0.545407414 0.186317340 0.009725931
0.578375757 0.181564406 0.005110570
0.611458540 0.176818877 0.001172779
0.644405127 0.172353894 0.000000000
0.676866114 0.168058053 0.000000000
0.708854437 0.163839370 0.000000000
0.740680397 0.159885094 0.000000000
0.772381604 0.156116128 0.000000000
0.803662181 0.152545676 0.000000000
0.834551454 0.149277121 0.000000000
0.865085900 0.146143585 0.000000000
0.895365894 0.143276438 0.000000000
0.925304890 0.140705705 0.000000000
0.954315305 0.138506979 0.000000000
0.984310389 0.136228174 0.000000000
0.000000000 0.283491582 0.083019920
0.019132081 0.280192047 0.087013826
0.042399328 0.277555674 0.088061288
0.064245947 0.275744021 0.083167680
0.088043429 0.274465770 0.068848409
0.120000347 0.270622790 0.054276574
0.169441089 0.261405766 0.041726738
0.247751966 0.244167462 0.024482019
0.289113164 0.236639172 0.019959709
0.320862114 0.231581584 0.020000394
0.348957568 0.227399603 0.021420071
0.375408411 0.223808214 0.022599360
0.401759088 0.220377102 0.022729855
0.429003298 0.216922715 0.021625338
0.457284957 0.213210121 0.019572962
0.486950725 0.209272504 0.016806090
0.518026233 0.205092922 0.013458903
0.550137103 0.200745180 0.009682908
0.582992971 0.196346149 0.005707712
0.616001129 0.191881120 0.001615608
0.648944616 0.187598884 0.000000000
0.681655884 0.183670059 0.000000000
0.714218616 0.179890454 0.000000000
0.746631324 0.176183134 0.000000000
0.778798699 0.172758833 0.000000000
0.810696840 0.169573098 0.000000000
0.842212677 0.166617796 0.000000000
0.873200238 0.163863540 0.000000000
0.903975368 0.161265418 0.000000000
0.934205115 0.158932641 0.000000000
0.963756084 0.156934872 0.000000000
0.993787587 0.154843912 0.000000000
0.000000000 0.298334926 0.081713453
0.018274529 0.294932157 0.085806929
0.042262774 0.291975260 0.087539449
0.065160133 0.289506108 0.085809253
0.088201553 0.287936300 0.076601468
0.117143393 0.285291135 0.059627973
0.165369689 0.277215838 0.041342333
0.244106725 0.260193646 0.020427793
0.287428528 0.252548784 0.012360489
0.322493732 0.246952340 0.008698117
0.354329139 0.242114514 0.008129494
0.383461088 0.237971798 0.009317233
0.410968363 0.234195262 0.011054903
0.438395262 0.230728403 0.012554520
0.466436982 0.227172837 0.012787386
0.495774806 0.223475412 0.011928886
0.526408732 0.219638258 0.010144455
0.558224738 0.215571478 0.007549639
0.590902328 0.211567566 0.004644822
0.624024272 0.207586080 0.001675464
0.656958997 0.203682616 0.000159457
0.689698696 0.200045601 0.000000000
0.722384036 0.196688727 0.000000000
0.755116463 0.193591654 0.000000000
0.787507117 0.190577701 0.000000000
0.819580972 0.187650606 0.000000000
0.851294160 0.184953257 0.000000000
0.882529438 0.182477877 0.000000000
0.913446605 0.180155784 0.000000000
0.943822086 0.178050965 0.000000000
0.973831475 0.176202402 0.000000000
1.000000000 0.174300194 0.000000000
0.000000000 0.313522339 0.079268724
0.016428828 0.310130268 0.083603971
0.040816471 0.306981474 0.085668959
0.064795829 0.304173410 0.085643716
0.088394217 0.302069426 0.080436312
0.115907066 0.299581140 0.067114495
0.161708146 0.292717665 0.045626599
0.239542916 0.276677519 0.019799730
0.283138037 0.269440442 0.008699508
0.319442153 0.263948947 0.003338776
0.353667587 0.258927166 0.000382977
0.386360466 0.254419148 0.000000000
0.417422950 0.250096083 0.000168341
0.447437614 0.246092319 0.001226086
0.477286100 0.242370680 0.002794467
0.507293940 0.238754958 0.003684809
0.538112164 0.235106036 0.003825562
0.569840908 0.231438369 0.003140506
0.602355123 0.227736890 0.001798451
0.635256648 0.224179327 0.000516247
0.668122590 0.220798090 0.000000000
0.700857580 0.217644706 0.000000000
0.733417928 0.214636058 0.000000000
0.765805185 0.211802408 0.000000000
0.798010707 0.209146619 0.000000000
0.830000877 0.206574768 0.000000000
0.861463130 0.204192996 0.000000000
0.892522156 0.202022821 0.000000000
0.923268616 0.200023189 0.000000000
0.953403533 0.198276132 0.000000000
0.983874023 0.196511269 0.000000000
1.000000000 0.194779724 0.000000000
0.000000000 0.329433292 0.075438030
0.013214471 0.326124489 0.080045901
0.038037919 0.322849452 0.082509801
0.062794462 0.319947213 0.083306611
0.087464467 0.317441374 0.080926403
0.115091629 0.314716309 0.071745224
0.159189776 0.308360964 0.052349083
0.235201329 0.293509841 0.023111388
0.278060198 0.287291259 0.007791377
0.314605683 0.282386005 0.000977318
0.349661112 0.277636409 0.000000000
0.384076208 0.273118317 0.000000000
0.418239295 0.268773228 0.000000000
0.452080160 0.264417857 0.000000000
0.485418856 0.260169238 0.000000000
0.518501699 0.256169468 0.000000000
0.551268935 0.252424896 0.000000000
0.583837569 0.248808935 0.000000000
0.616517723 0.245310128 0.000000000
0.649185896 0.242001414 0.000000000
0.681686103 0.238917291 0.000000000
0.714000523 0.236102939 0.000000000
0.746202826 0.233446851 0.000000000
0.778131664 0.230885252 0.000000000
0.809941292 0.228546917 0.000000000
0.841506183 0.226396427 0.000000000
0.872566164 0.224396899 0.000000000
0.903320372 0.222559243 0.000000000
0.933824360 0.220887110 0.000000000
0.963938773 0.219429672 0.000000000
0.993184626 0.218004540 0.000000000
1.000000000 0.216578722 0.000000000
0.000000000 0.346443623 0.069911271
0.008327858 0.343254030 0.074817970
0.033643253 0.340009749 0.077770509
0.059112459 0.337138265 0.079207435
0.084809385 0.334486276 0.078563102
0.113259025 0.331552416 0.072695449
0.157092318 0.325207919 0.057159398
0.231521919 0.311137795 0.028834550
0.272866875 0.306119800 0.010035473
0.309011936 0.302273631 0.000308626
0.344299734 0.298238337 0.000000000
0.379362643 0.294126898 0.000000000
0.414890438 0.290010124 0.000000000
0.451112568 0.285720021 0.000000000
0.487919122 0.281324178 0.000000000
0.524637163 0.276828498 0.000000000
0.560887635 0.272468418 0.000000000
0.596186101 0.268379480 0.000000000
0.630380690 0.264676094 0.000000000
0.663744926 0.261309296 0.000000000
0.696229517 0.258344591 0.000000000
0.728102565 0.255706161 0.000000000
0.759708703 0.253359109 0.000000000
0.791098714 0.251186132 0.000000000
0.822305739 0.249172822 0.000000000
0.853372157 0.247388124 0.000000000
0.884110689 0.245762020 0.000000000
0.914348245 0.244378373 0.000000000
0.944334626 0.243110880 0.000000000
0.974409759 0.241928324 0.000000000
0.997630954 0.240825832 0.000000000
1.000000000 0.239766583 0.000000000
0.000000000 0.364898473 0.062923223
0.003417899 0.361835599 0.068167970
0.027955167 0.358771145 0.071710236
0.053916305 0.355909169 0.073594205
0.080626115 0.353362113 0.074142270
0.110232651 0.350387007 0.070914797
0.154635116 0.344010413 0.058871832
0.228710935 0.330219686 0.033948850
0.268642396 0.326158822 0.015096930
0.303342640 0.323486805 0.001504317
0.338321328 0.320456505 0.000000000
0.373462319 0.317106336 0.000000000
0.409424514 0.313384295 0.000000000
0.446524054 0.309414715 0.000000000
0.484958291 0.304982603 0.000000000
0.524389148 0.300234407 0.000000000
0.563924968 0.295442969 0.000000000
0.602714062 0.290810436 0.000000000
0.640106857 0.286541879 0.000000000
0.675790906 0.282779962 0.000000000
0.709628046 0.279610723 0.000000000
0.742049336 0.276966393 0.000000000
0.773567915 0.274718761 0.000000000
0.804534435 0.272795111 0.000000000
0.835140646 0.271120250 0.000000000
0.865554273 0.269667804 0.000000000
0.895771325 0.268478334 0.000000000
0.925569952 0.267522871 0.000000000
0.954887688 0.266730130 0.000000000
0.984908521 0.265837222 0.000000000
0.997947514 0.265051603 0.000000000
1.000000000 0.264435560 0.000000000
0.000000000 0.384803534 0.055431113
0.002030952 0.381852567 0.061043408
0.021762116 0.379182726 0.065162189
0.048559345 0.376570851 0.067843020
0.075879842 0.374086618 0.068998933
0.106684975 0.371120363 0.067717709
0.152231932 0.364795864 0.058727365
0.226727903 0.351064295 0.037370853
0.265802324 0.347418606 0.020953825
0.299057603 0.345646083 0.005175564
0.332705230 0.343649119 0.000000000
0.367409915 0.341067761 0.000000000
0.403127789 0.338053256 0.000000000
0.440432906 0.334419489 0.000000000
0.479292989 0.330273867 0.000000000
0.520061731 0.325598538 0.000000000
0.561717808 0.320706725 0.000000000
0.603465497 0.315738529 0.000000000
0.644146800 0.310994625 0.000000000
0.683251798 0.306686223 0.000000000
0.719976544 0.303052783 0.000000000
0.754439592 0.300105125 0.000000000
0.787236512 0.297717690 0.000000000
0.818683505 0.295834601 0.000000000
0.849233270 0.294359773 0.000000000
0.879201770 0.293199807 0.000000000
0.908791244 0.292394966 0.000000000
0.938038707 0.291852355 0.000000000
0.967109263 0.291400999 0.000000000
0.993316531 0.290936857 0.000000000
0.998302460 0.290622354 0.000000000
1.000000000 0.290287733 0.000000000
0.000000000 0.406451166 0.047767859
0.001828942 0.403815597 0.053836539
0.015389434 0.401308626 0.058439724
0.042871267 0.399014026 0.061788779
0.071112059 0.396850556 0.063810311
0.102684990 0.393865794 0.063584879
0.149269223 0.387319207 0.056914859
0.224650323 0.373409867 0.038579226
0.263640374 0.369855404 0.025239073
0.295803905 0.368571013 0.010137442
0.327935308 0.367471218 0.000154313
0.361375421 0.365851074 0.000000000
0.396488845 0.363502741 0.000000000
0.433511227 0.360471606 0.000000000
0.472420484 0.356765449 0.000000000
0.513470173 0.352417946 0.000000000
0.556246042 0.347663194 0.000000000
0.599779963 0.342731744 0.000000000
0.643004656 0.337772369 0.000000000
0.685121894 0.333075345 0.000000000
0.725100279 0.328995764 0.000000000
0.762721479 0.325589478 0.000000000
0.798044562 0.322858512 0.000000000
0.831299722 0.320755243 0.000000000
0.862976372 0.319204956 0.000000000
0.893406212 0.318179548 0.000000000
0.922826231 0.317589611 0.000000000
0.951661408 0.317435265 0.000000000
0.980653822 0.317317963 0.000000000
0.995659351 0.317257434 0.000000000
0.998387098 0.317377806 0.000000000
1.000000000 0.317486763 0.000000000
0.000000000 0.429954380 0.039657518
0.001612904 0.427680254 0.046152681
0.008754889 0.425344914 0.051291756
0.036588825 0.423217714 0.055141669
0.065469354 0.421132565 0.057739701
0.097733065 0.418211043 0.058274169
0.145283505 0.411364049 0.053336181
0.221821621 0.397245586 0.037780043
0.261157334 0.393661797 0.027175479
0.292938203 0.392563790 0.014699494
0.323940039 0.392038167 0.002077615
0.355930090 0.391317517 0.000000000
0.389839739 0.389913946 0.000000000
0.426176071 0.387604266 0.000000000
0.464839458 0.384454250 0.000000000
0.505651295 0.380629778 0.000000000
0.548738956 0.376173943 0.000000000
0.593136728 0.371484309 0.000000000
0.637982726 0.366620213 0.000000000
0.682229877 0.361833453 0.000000000
0.724917293 0.357460707 0.000000000
0.765501678 0.353716224 0.000000000
0.803870440 0.350615829 0.000000000
0.839974403 0.348171383 0.000000000
0.873817921 0.346359044 0.000000000
0.905885041 0.345188707 0.000000000
0.936219215 0.344681174 0.000000000
0.965513468 0.344690710 0.000000000
0.990524888 0.344764143 0.000000000
0.996546924 0.345046520 0.000000000
0.998387098 0.345596105 0.000000000
1.000000000 0.346151114 0.000000000
0.000000000 0.455142319 0.030798035
0.001612904 0.453098625 0.037620127
0.004363048 0.450930804 0.043173023
0.029346423 0.448894411 0.047532152
0.058744084 0.446855783 0.050602965
0.091752164 0.443970323 0.051884234
0.140323997 0.437030941 0.048302762
0.218102887 0.422505021 0.035137046
0.258135557 0.418890059 0.027037049
0.289993972 0.417863369 0.017156344
0.320394516 0.417648107 0.005212507
0.351156175 0.417634279 0.000000000
0.383717507 0.417137802 0.000000000
0.418931127 0.415736616 0.000000000
0.456795067 0.413431197 0.000000000
0.497385353 0.410212517 0.000000000
0.540225208 0.406276733 0.000000000
0.584921420 0.401937306 0.000000000
0.630471647 0.397384346 0.000000000
0.676139057 0.392730236 0.000000000
0.720673561 0.388321668 0.000000000
0.763620973 0.384354591 0.000000000
0.804689109 0.381030381 0.000000000
0.843647897 0.378312081 0.000000000
0.880338371 0.376213253 0.000000000
0.914833307 0.374787360 0.000000000
0.947159350 0.374131024 0.000000000
0.978114486 0.374118298 0.000000000
0.993532538 0.374270588 0.000000000
0.996774197 0.374684691 0.000000000
0.998387098 0.375527173 0.000000000
1.000000000 0.376438856 0.000000000
0.000000000 0.481879056 0.020857040
0.001612904 0.479983598 0.028032133
0.003803779 0.477981418 0.034001734
0.020922819 0.476048261 0.038745649
0.050904971 0.474039018 0.042374339
0.084553808 0.471214920 0.044254150
0.134121448 0.464195192 0.041818861
0.213472903 0.449325681 0.030872419
0.254294693 0.445551395 0.024961777
0.286632985 0.444558173 0.017524349
0.316906899 0.444481045 0.007117094
0.346978039 0.444878399 0.000033668
0.378243059 0.445192486 0.000000000
0.412048250 0.444762528 0.000000000
0.448786765 0.443344861 0.000000000
0.488515019 0.441000283 0.000000000
0.531127870 0.437710255 0.000000000
0.575691104 0.433779687 0.000000000
0.621585429 0.429692447 0.000000000
0.667766392 0.425428241 0.000000000
0.713523209 0.421255440 0.000000000
0.758145630 0.417340457 0.000000000
0.801321924 0.413896561 0.000000000
0.842728734 0.411056399 0.000000000
0.882036448 0.408809453 0.000000000
0.919204235 0.407159448 0.000000000
0.953875661 0.406305373 0.000000000
0.986702323 0.406093121 0.000000000
0.994588912 0.406161904 0.000000000
0.996774197 0.406507134 0.000000000
0.998387098 0.407419175 0.000000000
1.000000000 0.408529490 0.000000000
0.000000000 0.510119855 0.009843787
0.001612904 0.508395255 0.017355999
0.003225807 0.506582260 0.023632810
0.011787016 0.504783094 0.028900962
0.041938003 0.502893388 0.033040732
0.076174103 0.500160873 0.035450824
0.126723960 0.493076473 0.034011524
0.207694292 0.477822214 0.025124978
0.249636889 0.473881781 0.021209633
0.282521993 0.472900122 0.015923724
0.313028455 0.472913951 0.007807299
0.342762411 0.473543257 0.000353050
0.373187482 0.474398375 0.000000000
0.405685127 0.474849164 0.000000000
0.441059589 0.474426746 0.000000000
0.479660630 0.472963005 0.000000000
0.521417320 0.470572859 0.000000000
0.565721512 0.467322439 0.000000000
0.611535490 0.463616192 0.000000000
0.658135474 0.459886372 0.000000000
0.704368293 0.456068724 0.000000000
0.749968052 0.452475756 0.000000000
0.794689298 0.449160248 0.000000000
0.837969899 0.446318716 0.000000000
0.879487693 0.444040418 0.000000000
0.918963134 0.442309767 0.000000000
0.955982625 0.441260785 0.000000000
0.989577353 0.440712452 0.000000000
0.995161295 0.440598220 0.000000000
0.996774197 0.440743685 0.000000000
0.998387098 0.441466391 0.000000000
1.000000000 0.442479163 0.000000000
0.000000000 0.539785087 0.002003270
0.001612904 0.538316905 0.005780208
0.003225807 0.536710203 0.012389464
0.006482848 0.535062909 0.018124770
0.031997465 0.533327043 0.022748567
0.066891916 0.530745387 0.025759988
0.118303120 0.523686290 0.025170788
0.200794458 0.508127391 0.017948491
0.243759319 0.504053533 0.015777832
0.277469277 0.503052115 0.012447448
0.308385581 0.503134787 0.006413360
0.338109821 0.503930926 0.000741641
0.368128538 0.505099177 0.000000000
0.399631977 0.506217182 0.000000000
0.433739275 0.506712914 0.000000000
0.470904112 0.506283164 0.000000000
0.511608064 0.504776180 0.000000000
0.555119693 0.502466679 0.000000000
0.600688815 0.499489874 0.000000000
0.647189856 0.496198088 0.000000000
0.693934560 0.492876589 0.000000000
0.740055144 0.489648104 0.000000000
0.785594642 0.486609578 0.000000000
0.830202758 0.483895302 0.000000000
0.873380601 0.481624633 0.000000000
0.914754629 0.479850680 0.000000000
0.953972995 0.478610814 0.000000000
0.989601672 0.477846682 0.000000000
0.995161295 0.477491200 0.000000000
0.996774197 0.477386743 0.000000000
0.998387098 0.477736592 0.000000000
1.000000000 0.478454560 0.000000000
0.000000000 0.570785999 0.000000000
0.001612904 0.569548845 0.000151975
0.003225807 0.568175018 0.003021266
0.005472797 0.566729903 0.006757975
0.021475168 0.565150976 0.011863416
0.056963962 0.562721133 0.015429455
0.109267659 0.555748582 0.015690368
0.193123892 0.540076554 0.009898488
0.237095222 0.535907269 0.009151718
0.271642178 0.534953952 0.007607635
0.303217500 0.535097539 0.003970524
0.333347321 0.536024272 0.000231002
0.363188148 0.537429452 0.000000000
0.394167244 0.538987756 0.000000000
0.427169502 0.540263772 0.000000000
0.463037968 0.540788591 0.000000000
0.502307951 0.540330768 0.000000000
0.544906735 0.538912356 0.000000000
0.589678824 0.536812782 0.000000000
0.635870874 0.534096003 0.000000000
0.682487965 0.531330228 0.000000000
0.729013443 0.528439939 0.000000000
0.774888337 0.525756359 0.000000000
0.820195198 0.523218691 0.000000000
0.864477456 0.521015286 0.000000000
0.907297015 0.519218087 0.000000000
0.948227167 0.517861605 0.000000000
0.987222314 0.516979694 0.000000000
0.995161295 0.516347945 0.000000000
0.996774197 0.515959978 0.000000000
0.998387098 0.515968859 0.000000000
1.000000000 0.516244829 0.000000000
0.000000000 0.603138089 0.000000000
0.001612904 0.602161169 0.000000000
0.003225807 0.601026833 0.000000000
0.004838713 0.599830389 0.000583584
0.012663408 0.598470986 0.002717777
0.046900894 0.596175134 0.004972618
0.100054339 0.589288175 0.006399795
0.185212329 0.573577344 0.002508285
0.230085418 0.569366932 0.002418504
0.265474796 0.568361998 0.002306277
0.297859669 0.568655789 0.001369176
0.328558058 0.569722474 0.000000000
0.358611137 0.571325541 0.000000000
0.389358789 0.573166847 0.000000000
0.421737403 0.574972391 0.000000000
0.456357151 0.576336443 0.000000000
0.494243890 0.576811612 0.000000000
0.535427272 0.576334774 0.000000000
0.579329610 0.575187385 0.000000000
0.624859691 0.573217928 0.000000000
0.670991600 0.570875585 0.000000000
0.717333615 0.568543494 0.000000000
0.763469934 0.566128194 0.000000000
0.808957160 0.563824654 0.000000000
0.853760123 0.561692834 0.000000000
0.897501051 0.559914291 0.000000000
0.939699173 0.558518887 0.000000000
0.980553508 0.557613015 0.000000000
0.994832993 0.556669772 0.000000000
0.996774197 0.555966854 0.000000000
0.998387098 0.555673838 0.000000000
1.000000000 0.555562735 0.000000000
0.000000000 0.636689067 0.000000000
0.001612904 0.636013210 0.000000000
0.003225807 0.635087371 0.000000000
0.004838713 0.634173095 0.000000000
0.008890698 0.633082151 0.000000000
0.037023950 0.630986512 0.000205751
0.090991005 0.624198794 0.001203643
0.177371889 0.608494103 0.000000000
0.223220900 0.604444325 0.000000000
0.259516478 0.603365004 0.000000000
0.292731643 0.603790343 0.000000000
0.324105918 0.604981303 0.000000000
0.354621887 0.606730163 0.000000000
0.385413647 0.608773947 0.000000000
0.417347401 0.610908628 0.000000000
0.451277405 0.612768829 0.000000000
0.487702847 0.614023089 0.000000000
0.527426779 0.614370167 0.000000000
0.569852173 0.613969207 0.000000000
0.614462912 0.612938046 0.000000000
0.659836113 0.611168504 0.000000000
0.705829024 0.609242499 0.000000000
