Desert Affinity Presets/Desert Affinity Preset #10.cube
TITLE "32x32x32 Adobe/IRIDAS cube 3D LUT exported with GrossGrade v0.1.027.1 (beta) 64 bit"
LUT_3D_SIZE 5
DOMAIN_MIN 0.000000 0.000000 0.000000
DOMAIN_MAX 0.903226 0.903226 0.903226
0.000000000 0.096050702 0.000000000
0.123423591 0.041064568 0.000000000
0.449930936 0.000667756 0.000000000
0.708030283 0.000000000 0.000000000
0.918332934 0.000000000 0.000000000
0.000000000 0.259454817 0.000000000
0.141493872 0.201693580 0.000000000
0.495703191 0.152573705 0.000000000
0.745948672 0.140805498 0.000000000
0.968569338 0.146421641 0.000000000
0.000000000 0.474497974 0.000000000
0.114377975 0.425376654 0.000000000
0.470075220 0.411965042 0.000000000
0.804384232 0.396942675 0.000000000
0.995161295 0.403668493 0.000000000
0.000000000 0.757476926 0.000000000
0.092826545 0.709826708 0.000000000
0.437413841 0.696230114 0.000000000
0.742117047 0.700406313 0.000000000
0.995161295 0.695798159 0.000000000
0.000000000 0.995161295 0.000000000
0.073807232 0.988910198 0.000000000
0.428743333 0.959020019 0.000000000
0.693192840 0.964252234 0.000000000
0.953208029 0.971673667 0.000000000
0.000000000 0.086994655 0.281969458
0.115443617 0.031542521 0.138841912
0.439359933 0.000000000 0.094806321
0.697241664 0.000000000 0.067514502
0.908315420 0.000000000 0.054263219
0.000000000 0.287948340 0.157326773
0.127146676 0.188094899 0.149783641
0.458023131 0.150584951 0.112273693
0.731681406 0.138542980 0.100231685
0.961958528 0.144036248 0.105724834
0.000000000 0.510087967 0.055680566
0.095722407 0.428851187 0.114895687
0.463090092 0.405735284 0.057219919
0.773040950 0.395041436 0.071975507
0.989124119 0.410215050 0.117571920
0.000000000 0.790345073 0.016926957
0.062808536 0.720121384 0.078510486
0.443044573 0.688502789 0.095741615
0.734644949 0.693682015 0.011362334
0.994834483 0.687958002 0.011290320
0.000000000 0.995161295 0.011581643
0.035172839 0.992669821 0.047413573
0.421989381 0.956319690 0.072421208
0.693877578 0.952721000 0.031626455
0.943966269 0.963182271 0.011290320
0.000000000 0.081254244 0.625517190
0.130483076 0.012208480 0.458351761
0.434046298 0.000000000 0.349146008
0.689562678 0.000000000 0.319269150
0.901475310 0.000000000 0.306951880
0.000000000 0.291435391 0.522096336
0.086235568 0.183707267 0.494675666
0.456048995 0.147086471 0.370382965
0.730505347 0.137511328 0.359568357
0.962032199 0.144044936 0.366822213
0.000000000 0.547973633 0.333514720
0.014904056 0.468421131 0.346275747
0.459548533 0.402941734 0.373110831
0.744129360 0.401826113 0.371996701
0.981221974 0.414137930 0.384299517
0.000000000 0.841379881 0.216748089
0.011290320 0.761472940 0.263520122
0.428440541 0.696023583 0.338544071
0.729960501 0.689749956 0.297708660
0.987057865 0.687122703 0.320526630
0.000000000 0.995161295 0.171405077
0.011290320 0.995161295 0.233566687
0.392526984 0.967173219 0.299153477
0.700207651 0.945695221 0.326513708
0.937813044 0.957787931 0.220663995
0.000000000 0.076690793 0.959040940
0.120438159 0.000229133 0.800301969
0.453303635 0.000000000 0.639375210
0.686520576 0.000000000 0.564803600
0.896588862 0.000000000 0.550283968
0.000000000 0.287439674 0.876924276
0.046853833 0.180841535 0.829908669
0.476177305 0.132831633 0.683782101
0.732940495 0.136736766 0.610455751
0.962992132 0.145299509 0.616031408
0.000000000 0.563521445 0.690213561
0.011290320 0.480827212 0.708764434
0.426461101 0.406380564 0.714643955
0.747612178 0.403773069 0.624363840
0.983503640 0.416543514 0.635898530
0.000000000 0.877455831 0.515950620
0.011290320 0.802224338 0.533035696
0.308223963 0.736660004 0.559784710
0.725808680 0.686355650 0.601795018
0.956771553 0.692524850 0.607964218
0.000000000 0.995161295 0.396918446
0.011290320 0.995161295 0.420663953
0.284616292 0.993216932 0.471150279
0.684144378 0.951760292 0.556669235
0.932441831 0.953164577 0.523521185
0.000000000 0.076312028 0.995161295
0.097843602 0.000000000 0.995161295
0.466700226 0.000000000 0.920678020
0.709828377 0.000000000 0.804210186
0.900319457 0.000000000 0.755261183
0.000000000 0.285720825 0.995161295
0.023922002 0.182414532 0.995161295
0.475119978 0.126729786 0.985942185
0.762866557 0.128013819 0.863916337
0.971454203 0.148930594 0.825630724
0.000000000 0.574470460 0.994381309
0.011290320 0.488004833 0.995161295
0.396927565 0.413366914 0.994149804
0.774939775 0.396726876 0.897524655
0.991394341 0.421384543 0.844956100
0.000000000 0.900536299 0.827237129
0.011290320 0.822725952 0.847242773
0.238569885 0.752153754 0.877924263
0.694578707 0.691639066 0.897731602
0.961416721 0.695627570 0.814048052
0.000000000 0.995161295 0.662934840
0.011290320 0.995161295 0.673284471
0.151927084 0.995161295 0.694047153
0.565274060 0.991910875 0.731819749
0.930506945 0.951990366 0.782386184
