Desert Affinity Presets/Desert Affinity Preset #28.cube
TITLE "32x32x32 Adobe/IRIDAS cube 3D LUT exported with GrossGrade v0.1.027.1 (beta) 64 bit"
LUT_3D_SIZE 5
DOMAIN_MIN 0.000000 0.000000 0.000000
DOMAIN_MAX 0.903226 0.903226 0.903226
0.002087435 0.001710532 0.002957198
0.181430474 0.018058401 0.042509515
0.427496374 0.000243628 0.062532797
0.661047220 0.000000000 0.081392162
0.898514092 0.000000000 0.146108419
0.168361083 0.118344992 0.021561749
0.321956903 0.124711685 0.045872606
0.569626629 0.095299251 0.064095080
0.841586530 0.019238379 0.120671913
0.979630709 0.271296054 0.324579805
0.380622506 0.242072240 0.000039747
0.561649382 0.256034285 0.005248515
0.778969169 0.270245433 0.072490148
0.971073747 0.349734157 0.257434666
0.985408306 0.373712182 0.360540450
0.662066996 0.402297556 0.000000000
0.837266743 0.443242967 0.000991810
0.967216253 0.516197443 0.231846139
0.980708122 0.546956301 0.320518285
0.992800832 0.553213120 0.377146274
0.919690132 0.607198596 0.015676284
0.957990885 0.653698385 0.251040280
0.969451249 0.684657991 0.271603405
0.981199741 0.714078069 0.328074038
0.992884874 0.735414088 0.394999802
0.103809565 0.013171321 0.052566707
0.207315087 0.022835953 0.055590786
0.405766964 0.002214629 0.078304745
0.611204088 0.000000000 0.104601637
0.837340772 0.000000000 0.167866394
0.044165816 0.150657147 0.043247163
0.174581051 0.144337982 0.107443295
0.418375760 0.131872162 0.131156698
0.705702543 0.027200483 0.194092616
0.962055147 0.100951284 0.325298041
0.248036727 0.293172508 0.041854560
0.423116535 0.300608009 0.043525845
0.635387480 0.314881355 0.149117813
0.910745680 0.336550295 0.280561149
0.987192273 0.393738061 0.434800446
0.532192647 0.460253537 0.011290320
0.721371770 0.486217707 0.011290320
0.899357557 0.528071165 0.149504840
0.982090175 0.587969899 0.381438464
0.993991911 0.590499520 0.452966094
0.822890103 0.657998264 0.011290320
0.951335907 0.684636712 0.072608687
0.969486833 0.724521935 0.303975463
0.981267810 0.757312357 0.391280293
0.992848277 0.784622133 0.483299643
0.245531261 0.006619095 0.101752140
0.358849764 0.003811531 0.078560725
0.475353867 0.000876311 0.079367861
0.654745579 0.000000000 0.105923258
0.855761349 0.000000000 0.174291998
0.021458887 0.123031519 0.218276337
0.318304658 0.114694349 0.148920998
0.446308404 0.139105290 0.141369939
0.675099015 0.070099495 0.209150493
0.918200791 0.078143492 0.337105274
0.032545108 0.357026786 0.055181820
0.204452336 0.334900439 0.121379696
0.444422126 0.340870231 0.233575925
0.752737701 0.339347243 0.334459364
0.987215400 0.396980911 0.491124243
0.315804601 0.524243534 0.034482412
0.566998541 0.543497145 0.046797045
0.765762925 0.558272064 0.188262686
0.958075643 0.614032328 0.411382914
0.994591773 0.622781992 0.534419715
0.670925617 0.721714973 0.075558610
0.866708457 0.733729780 0.024322040
0.968894303 0.759844959 0.296665579
0.981203556 0.797831059 0.460434258
0.992579520 0.835677683 0.576820552
0.391206950 0.000000000 0.139414713
0.491378427 0.000282439 0.104350396
0.604774594 0.000000000 0.094534241
0.747035503 0.000000000 0.113815799
0.918672144 0.001109648 0.189217702
0.250536859 0.055239588 0.259516925
0.484970212 0.052947376 0.206320897
0.614903212 0.070813581 0.184485093
0.768155158 0.056316517 0.227144554
0.960820019 0.140966251 0.353422552
0.000000000 0.347499877 0.287056327
0.274142563 0.276833564 0.337554425
0.626410246 0.291835576 0.324332505
0.777023435 0.349892080 0.345670789
0.981859326 0.392184734 0.484935760
0.029185731 0.597977698 0.058246784
0.269205660 0.579265952 0.138746411
0.520807743 0.597848892 0.288466334
0.780277610 0.622010350 0.474032909
0.994590521 0.637895048 0.598680496
0.417153805 0.787088096 0.059518222
0.676760852 0.803306818 0.116699189
0.889755964 0.809321404 0.242816374
0.980960727 0.827567399 0.507820845
0.992515922 0.886498928 0.673164845
0.531366467 0.000000000 0.197619349
0.650276184 0.000000000 0.150589734
0.752701461 0.000000000 0.131246433
0.868616045 0.000000000 0.151672319
0.971712053 0.167959183 0.275499731
0.452839643 0.011847718 0.332259357
0.650916040 0.011290320 0.291519493
0.779737651 0.011548910 0.266800404
0.907634139 0.067196451 0.297814399
0.980671585 0.276467860 0.423711628
0.000281504 0.254148394 0.502878368
0.550751746 0.220616013 0.473736703
0.804054677 0.249173775 0.449474543
0.936994731 0.346175909 0.444651306
0.989606798 0.433415383 0.523017287
0.000176758 0.604411185 0.307263196
0.046090253 0.580991328 0.482984334
0.614938915 0.536241412 0.562533855
0.937440038 0.578232586 0.583778024
0.994778156 0.641128182 0.603855431
0.096628994 0.861116171 0.126983672
0.366946518 0.847771108 0.193489909
0.615228117 0.851486862 0.341458946
0.826010942 0.867473662 0.525928736
0.992760599 0.906389475 0.741415739
