Desert Affinity Presets/Desert Affinity Preset #28.cube
TITLE "32x32x32 Adobe/IRIDAS cube 3D LUT exported with GrossGrade v0.1.027.1 (beta) 64 bit"
DOMAIN_MIN 0 0 0
DOMAIN_MAX 1 1 1
LUT_3D_SIZE 32
0.002087435 0.001710532 0.002957198
0.026830411 0.004561588 0.010539613
0.051403247 0.007698352 0.017890528
0.075166650 0.011476221 0.023657609
0.099036165 0.015460311 0.028694740
0.123803690 0.017197927 0.033124011
0.151298150 0.017880678 0.037070628
0.181430474 0.018058401 0.042509515
0.215768978 0.017553369 0.048057292
0.251939654 0.015346693 0.052676383
0.290561169 0.011286853 0.055958096
0.328205824 0.006944087 0.058262497
0.363911688 0.003433233 0.060017027
0.396723568 0.001194757 0.061330110
0.427496374 0.000243628 0.062532797
0.456436545 0.000155248 0.063565724
0.485372692 0.000334812 0.064830169
0.516428232 0.000496140 0.066699713
0.551118553 0.000266073 0.069713935
0.588324010 0.000011223 0.073614806
0.625250936 0.000000000 0.077531561
0.661047220 0.000000000 0.081392162
0.695496261 0.000000000 0.085787736
0.729376793 0.000000000 0.091555782
0.762981713 0.000000000 0.099022500
0.796559155 0.000000000 0.107562967
0.830051959 0.000000000 0.118110605
0.864128649 0.000000000 0.131074041
0.898514092 0.000000000 0.146108419
0.932357907 0.005600620 0.164546117
0.961850345 0.045462947 0.188472971
0.973486483 0.113823302 0.220703050
0.025200261 0.019793775 0.008013991
0.040234670 0.022895008 0.015735688
0.063397586 0.024624247 0.021452799
0.088546000 0.026238959 0.026310816
0.113079332 0.027850291 0.031068316
0.139050633 0.028375434 0.035318479
0.167376682 0.028659273 0.040247161
0.200321063 0.027792847 0.046117596
0.235905051 0.026038803 0.051233351
0.274093479 0.021600651 0.055060282
0.313051790 0.016197359 0.057563428
0.349591583 0.010643939 0.059433915
0.383875430 0.006258659 0.060796976
0.415970385 0.003499263 0.062104411
0.445779175 0.002353606 0.063282341
0.474548548 0.002042642 0.064524807
0.504503965 0.002138971 0.066229761
0.538094640 0.002021599 0.068998501
0.574764967 0.001722325 0.072837166
0.611727178 0.001612904 0.076993801
0.648101449 0.001612904 0.081012003
0.682928801 0.001612904 0.085458048
0.716848791 0.001612904 0.090964712
0.750693142 0.001612904 0.098040171
0.784341872 0.001612904 0.106461436
0.817920029 0.001612904 0.116853416
0.852136314 0.001612904 0.129452661
0.886427343 0.001620853 0.144027516
0.920704424 0.003602609 0.161673650
0.952105999 0.033720218 0.184644252
0.970316112 0.091649286 0.213486344
0.977014065 0.167706937 0.254328728
0.048051659 0.037113905 0.012483499
0.061808500 0.038664445 0.018523617
0.078679763 0.039811075 0.023699218
0.100381427 0.040883359 0.028020434
0.125188276 0.040777642 0.032318722
0.152850524 0.040419895 0.036727887
0.184377685 0.039913923 0.042486086
0.220242679 0.038064077 0.048085351
0.259053737 0.034096844 0.052487448
0.299276322 0.029065315 0.055420324
0.336524278 0.022812337 0.057353474
0.371670544 0.017039640 0.058803529
0.405121386 0.012272755 0.060028691
0.436130255 0.009522713 0.061332863
0.465620577 0.008298495 0.062540285
0.495374471 0.007327258 0.064103976
0.528125703 0.005822476 0.066717014
0.564425588 0.003998310 0.070502333
0.601545632 0.003298755 0.074690275
0.638126135 0.003225807 0.078813717
0.673336267 0.003225807 0.083223373
0.707454145 0.003225807 0.088560246
0.741432726 0.003225807 0.095430456
0.775157988 0.003225807 0.103827618
0.808731794 0.003225807 0.113661580
0.842950940 0.003225807 0.126070932
0.877393782 0.003225807 0.140448347
0.911876321 0.004596388 0.157837629
0.944061041 0.027664792 0.179909348
0.967145264 0.077704623 0.206959814
0.974203169 0.152373135 0.244436711
0.982091248 0.233526245 0.299173862
0.069777973 0.052134719 0.015522022
0.084011413 0.053005397 0.019188603
0.099397458 0.054226805 0.025476156
0.118188024 0.055935994 0.029249782
0.140110642 0.056500833 0.033414863
0.166770875 0.056460179 0.038247637
0.198425770 0.055998627 0.044570293
0.235107109 0.053726453 0.049684118
0.276255816 0.048589230 0.053189799
0.316563547 0.041970652 0.055142596
0.354719281 0.034615036 0.056652509
0.389835775 0.027917838 0.057761680
0.423622787 0.022617918 0.058963459
0.455685288 0.018507592 0.060005758
0.486345261 0.015721999 0.061474070
0.519181490 0.012577269 0.063709721
0.555114508 0.008711969 0.067033082
0.592714787 0.005827253 0.071200006
0.629709780 0.004846192 0.075629286
0.665450692 0.004838713 0.080111854
0.699945211 0.004838713 0.085322492
0.733902574 0.004838713 0.091976687
0.767918587 0.004838713 0.100406826
0.801759124 0.004838713 0.110305019
0.835870266 0.004838713 0.122444570
0.870425165 0.004838713 0.136802346
0.904915810 0.006314505 0.154038504
0.937797725 0.024805438 0.175828591
0.963050842 0.071738511 0.202992186
0.971937358 0.144125462 0.239543229
0.979626536 0.224393100 0.291918635
0.984100699 0.258999676 0.321655810
0.091443554 0.067407615 0.018262215
0.106874585 0.068919897 0.020056015
0.123305008 0.070228234 0.025426535
0.141428426 0.072243676 0.030259812
0.161488026 0.073949024 0.035091288
0.186839715 0.075206488 0.040098500
0.216947705 0.075226113 0.046057768
0.251937449 0.073424838 0.050600629
0.289663225 0.069210693 0.053406350
0.327821970 0.062856793 0.054851763
0.365421861 0.055373069 0.056133948
0.402266920 0.047472205 0.056948036
0.437907368 0.040545896 0.057894479
0.472210109 0.034647424 0.059122954
0.506710231 0.028731147 0.061007436
0.542880356 0.022148991 0.063797653
0.581758261 0.014182681 0.067682609
0.620158255 0.008729842 0.072137117
0.657035172 0.006628375 0.076609410
0.692332983 0.006457227 0.081744783
0.726891696 0.006451614 0.088356830
0.761312902 0.006451614 0.096618354
0.795475960 0.006451614 0.106368944
0.829911947 0.006451614 0.118295558
0.864888251 0.006515210 0.132911086
0.899870038 0.008032154 0.150206953
0.933120906 0.025068291 0.171881601
0.959274590 0.070306733 0.199261740
0.969874859 0.140776634 0.236251861
0.977478802 0.219078094 0.286880583
0.982379377 0.259474546 0.320237368
0.984132111 0.259399861 0.327766687
0.114994310 0.083533876 0.019861050
0.131211758 0.085504353 0.020446459
0.148302302 0.086804345 0.025628608
0.167578489 0.089034341 0.030933186
0.188501030 0.091354646 0.036575466
0.212775603 0.092966624 0.041792661
0.241095394 0.092925876 0.046593204
0.274353087 0.091611929 0.050563712
0.307354510 0.087988824 0.052385096
0.342800856 0.083138749 0.054089513
0.378439307 0.077037759 0.055555977
0.414437503 0.070515953 0.056385051
0.451109320 0.064190038 0.057339929
0.487873942 0.057790242 0.058854479
0.525922120 0.049822118 0.061239805
0.565771878 0.039097354 0.064764701
0.606154919 0.025002008 0.068980709
0.645421743 0.013895220 0.073521271
0.682455957 0.009128345 0.078522421
0.718031943 0.008064517 0.084877305
0.753414273 0.008064517 0.092850134
0.788531482 0.008064517 0.102462843
0.823498726 0.008064517 0.114262499
0.858937442 0.008506413 0.128803477
0.894570768 0.010211341 0.146175846
0.928839982 0.026310381 0.167931482
0.955948889 0.071586214 0.195877075
0.967927754 0.140400723 0.233328611
0.975521982 0.216779202 0.283027649
0.980659127 0.260224730 0.318195403
0.982544005 0.261758745 0.327047080
0.984184265 0.260062218 0.334175020
0.140257388 0.100522995 0.021253569
0.157587484 0.102870204 0.021077733
0.176260903 0.104765996 0.025269479
0.196685925 0.106872998 0.030456215
0.218322739 0.108660400 0.036241572
0.241459921 0.109757155 0.041557863
0.269467413 0.110008940 0.046203211
0.296633959 0.108364925 0.048566956
0.327203095 0.105626054 0.050527252
0.360321641 0.102145970 0.052389290
0.394003838 0.097793393 0.054169949
0.429365039 0.092715077 0.055459201
0.466660708 0.087594725 0.057055630
0.506613255 0.081154749 0.059422217
0.547224045 0.071909994 0.062437385
0.587895572 0.058070876 0.066253573
0.629120409 0.037674457 0.070778221
0.668925941 0.019035824 0.075804166
0.706529438 0.011697060 0.081837334
0.743116915 0.010266618 0.089562863
0.779140532 0.010182448 0.098862723
0.814987421 0.010404097 0.110307850
0.851323545 0.011094297 0.124741726
0.888058722 0.014656117 0.142225757
0.923613787 0.030238919 0.163637877
0.952169359 0.075682580 0.191210777
0.965831578 0.141253442 0.228550315
0.973637223 0.215766132 0.278405607
0.978990376 0.262065560 0.315704435
0.981037080 0.265566409 0.325849026
0.982665598 0.263777465 0.333080918
0.984291196 0.261912555 0.340333670
0.168361083 0.118344992 0.021561749
0.186737746 0.120898925 0.021040823
0.206160083 0.122742601 0.024274802
0.227195978 0.124312125 0.028764443
0.249400467 0.125423193 0.033670638
0.273407042 0.126089707 0.038865857
0.296320826 0.125646815 0.043151960
0.321956903 0.124711685 0.045872606
0.350136101 0.123302892 0.048127450
0.380763739 0.121002816 0.050262515
0.413133413 0.118167892 0.052274674
0.448061824 0.114928149 0.054292489
0.486810565 0.110894576 0.056759626
0.527886868 0.104864851 0.060034309
0.569626629 0.095299251 0.064095080
0.610732138 0.078759737 0.068507522
0.651864767 0.054095320 0.073563829
0.692126572 0.030233886 0.079270564
0.730203152 0.019346412 0.086613081
0.767640352 0.016952198 0.095832817
0.804622650 0.017071903 0.106811240
0.841586530 0.019238379 0.120671913
0.879120529 0.026924096 0.137750834
0.915971041 0.040347911 0.158772334
0.947271883 0.082667530 0.185577333
0.963354707 0.143288895 0.221733421
0.971666455 0.214546129 0.271254152
0.977373540 0.265008062 0.312366396
0.979630709 0.271296054 0.324579805
0.981255770 0.269503415 0.331805289
0.982880294 0.267673194 0.339074433
0.984496832 0.265662223 0.346768677
0.198662266 0.136664405 0.020716310
0.217410594 0.138676420 0.019940544
0.237222016 0.139872253 0.021522431
0.258795172 0.140830219 0.025139477
0.280594051 0.141167700 0.028740101
0.302238137 0.141138330 0.033352681
0.325051457 0.141033486 0.038508572
0.349689543 0.141149729 0.042253699
0.375853390 0.140974209 0.045124374
0.404981285 0.140058771 0.047685094
0.436623365 0.138835341 0.050231695
0.471965790 0.136585191 0.053057950
0.511702836 0.133429483 0.056540750
0.553398311 0.127676740 0.060757227
0.594159663 0.117259264 0.065438084
0.634509325 0.100921497 0.070856802
0.675312042 0.077892415 0.076913364
0.715594292 0.053079337 0.083953299
0.754263580 0.039062101 0.092698656
0.791971087 0.035249613 0.103183515
0.829932451 0.038030967 0.116312377
0.868138313 0.047561441 0.132786736
0.906347096 0.068708010 0.153324217
0.940231025 0.099702001 0.178718895
0.959942460 0.147529513 0.212623209
0.969582617 0.212404743 0.260579139
0.975709915 0.268038183 0.307166517
0.978349924 0.279109716 0.322955012
0.979974210 0.277538478 0.330319434
0.981582105 0.275637269 0.337693572
0.983198643 0.273563474 0.345380962
0.984822154 0.271356583 0.353394419
0.229128301 0.154022276 0.018552139
0.248223528 0.155249819 0.017191418
0.268286854 0.156143591 0.016952904
0.288197249 0.156068116 0.019274179
0.309769452 0.156303167 0.021712303
0.332473338 0.156756043 0.026211228
0.355243117 0.157275915 0.032801803
0.378832698 0.158087984 0.037653312
0.405014843 0.158880875 0.041330673
0.433302611 0.159597516 0.044829350
0.465026736 0.159070596 0.048126966
0.501864076 0.157737702 0.051946443
0.541165471 0.153905153 0.056446288
0.581470907 0.147803083 0.061362308
0.620477855 0.137532890 0.066701084
0.660001993 0.123347655 0.072808616
0.700237036 0.107009031 0.080168873
0.740290046 0.090925813 0.088844657
0.778856337 0.079128340 0.099045180
0.816720307 0.077203199 0.111289218
0.855419636 0.083372518 0.127050936
0.894647837 0.099486485 0.146751985
0.931020141 0.124659248 0.170862988
0.955969393 0.159815595 0.201871991
0.967421770 0.211279422 0.246081859
0.973694444 0.267368823 0.295947224
0.977056742 0.287543923 0.319659710
0.978851974 0.287991852 0.328655094
0.980447888 0.285976768 0.335865140
0.982045829 0.283987105 0.343526870
0.983667433 0.281779498 0.351550728
0.985280812 0.279436827 0.359963238
0.259302765 0.170469880 0.014686867
0.277899712 0.170935690 0.013022654
0.297389776 0.171599641 0.011276089
0.317971826 0.172023103 0.012944061
0.339853197 0.172924489 0.014698998
0.362892300 0.173957527 0.018826157
0.385848224 0.175264165 0.025516348
0.410715699 0.176511601 0.031778693
0.436451495 0.178233281 0.036716193
0.465589732 0.179305822 0.041422319
0.499636978 0.179816589 0.046204112
0.535940409 0.178064376 0.051036440
0.573540032 0.174225211 0.055977285
0.611113966 0.167566195 0.061514769
0.648627400 0.158317506 0.067669503
0.687117219 0.148310140 0.074695893
0.726323485 0.138591439 0.082938999
0.765780032 0.132327303 0.093092300
0.804125130 0.129802689 0.104786776
0.842351317 0.131973490 0.120116010
0.881266713 0.140247613 0.138755113
0.919648707 0.155582160 0.161579996
0.949604571 0.178544894 0.190469265
0.964457512 0.216053367 0.230097413
0.971810997 0.269767195 0.283313692
0.975838006 0.297744036 0.314640582
0.977911949 0.302010506 0.326782554
0.979517996 0.299927831 0.333900988
0.981109679 0.297797233 0.341287345
0.982701004 0.295621723 0.349206656
0.984308362 0.293274254 0.357595533
0.985916674 0.290864289 0.366098821
0.288149714 0.186212629 0.009715639
0.307340384 0.186913833 0.007924691
0.327368081 0.188074604 0.006301115
0.348500490 0.189255968 0.006590101
0.371110827 0.190845490 0.007703021
0.394176990 0.192654833 0.011354645
0.418355286 0.194326282 0.017905883
0.443884015 0.196230829 0.024902826
0.472351253 0.197775468 0.031165164
0.503623068 0.199035808 0.037438199
0.537012815 0.199020132 0.043223567
0.571640015 0.197232664 0.049188919
0.607083738 0.193719283 0.054894261
0.642130971 0.188124985 0.061111216
0.678377092 0.181985512 0.068113282
0.715568602 0.175717130 0.076039344
0.754033387 0.172472447 0.085877039
0.792348325 0.171367586 0.097238190
0.830279589 0.172904104 0.111098140
0.868337631 0.178228676 0.128562361
0.906589031 0.188285813 0.150644362
0.941025615 0.203810498 0.177250117
0.960386276 0.228748605 0.212363571
0.969864428 0.272299588 0.263746530
0.974649429 0.309164137 0.306725532
0.977165103 0.318968117 0.324388236
0.978741646 0.316895634 0.331387609
0.980329692 0.314687103 0.338691860
0.981927872 0.312458098 0.346436024
0.983506799 0.310092449 0.354599297
0.985099018 0.307593226 0.363128722
0.986686707 0.305063665 0.371818423
0.317734569 0.203123957 0.004639209
0.337650120 0.204442814 0.003205968
0.358583987 0.206080034 0.002178621
0.379845232 0.208037391 0.002069667
0.402467579 0.210149348 0.002237540
0.426573724 0.212393522 0.004474143
0.452713817 0.214312792 0.010347372
0.481360048 0.215955421 0.017687045
0.511643887 0.217528477 0.024715768
0.543274164 0.218352035 0.032069504
0.575773299 0.218134910 0.039291829
0.608380914 0.216647834 0.045843132
0.641294956 0.213721588 0.053171135
0.674901366 0.211180538 0.060389198
0.709803879 0.207907721 0.068367682
0.746085048 0.207022250 0.077906065
0.783216238 0.207715929 0.089169830
0.820630610 0.209858701 0.102147304
0.857882500 0.214534655 0.118510962
0.895440638 0.222261950 0.138628811
0.931256711 0.233681306 0.163322791
0.955591798 0.251120031 0.195888430
0.968096614 0.281418681 0.241426542
0.973216295 0.318715513 0.291567922
0.976353467 0.335643142 0.318315595
0.978175342 0.336670786 0.328586817
0.979757309 0.334651709 0.335835487
0.981332541 0.332472175 0.343250126
0.982922852 0.330233395 0.351249963
0.984499454 0.327821016 0.359609336
0.986081600 0.325272530 0.368201017
0.987644315 0.322642714 0.377244949
0.348398209 0.221837625 0.001032025
0.369132280 0.223677754 0.000662141
0.390536577 0.225848049 0.000269347
0.412316680 0.228254795 0.000109422
0.435783803 0.230571449 0.000060790
0.462175697 0.232667953 0.001007710
0.491016775 0.234377578 0.005134885
0.521025717 0.235985398 0.010841198
0.552258134 0.237563998 0.017055776
0.583549798 0.237993762 0.024887864
0.614859402 0.237756565 0.033548087
0.645368636 0.236973315 0.042125598
0.676987290 0.236798018 0.050898071
0.709614813 0.236453906 0.060109604
0.743577540 0.237983212 0.069586731
0.778624773 0.240366161 0.080954932
0.814182580 0.243446246 0.093670391
0.850589931 0.248465538 0.108996689
0.886845827 0.255442441 0.127739102
0.922518492 0.264499933 0.150224969
0.950022817 0.277791560 0.180576742
0.965520144 0.299552619 0.221378624
0.972096503 0.333285064 0.276223868
0.975525320 0.352867901 0.309001863
0.977747917 0.358710647 0.324927330
0.979337513 0.356954962 0.332341313
0.980926454 0.355059922 0.339860916
0.982511282 0.353032053 0.347761035
0.984098434 0.350890756 0.356003433
0.985675454 0.348537654 0.364528209
0.987258434 0.346045971 0.373221606
0.988818407 0.343433082 0.382661521
0.380622506 0.242072240 0.000039747
0.402143449 0.244203627 0.000007949
0.424554706 0.246521994 0.000000000
0.448065609 0.248852700 0.000000000
0.473990023 0.250887096 0.000000000
0.501531839 0.252822191 0.000151975
0.530924141 0.254496783 0.001849419
0.561649382 0.256034285 0.005248515
0.592603505 0.257268697 0.009080146
0.623106420 0.257960856 0.017028673
0.653076410 0.258822531 0.026973451
0.683265448 0.260334283 0.038360823
0.714002013 0.262287736 0.049053792
0.746223450 0.266065776 0.060518287
0.778969169 0.270245433 0.072490148
0.812609494 0.274603188 0.085457072
0.847078979 0.280162692 0.100606821
0.881648839 0.287019044 0.118499875
0.916169763 0.295294017 0.138813898
0.945054352 0.306254059 0.167176232
0.962508559 0.322483867 0.204369038
0.971073747 0.349734157 0.257434666
0.974778593 0.371834368 0.298101187
0.977398455 0.382008612 0.320840687
0.979022622 0.380802065 0.328173459
0.980618656 0.379277498 0.335722893
0.982208312 0.377545565 0.343533874
0.983810246 0.375770092 0.351857960
0.985408306 0.373712182 0.360540450
0.986991823 0.371502131 0.369227618
0.988561094 0.369065583 0.378310472
0.990122914 0.366480917 0.387873530
0.415454745 0.262992501 0.000000000
0.438309610 0.265213728 0.000000000
0.462181538 0.267401963 0.000000000
0.487383753 0.269421488 0.000000000
0.513735473 0.271224499 0.000000000
0.541910529 0.272985876 0.000000000
0.571545780 0.274652123 0.000234743
0.602269351 0.276111931 0.001200370
0.632171392 0.277772665 0.003097016
0.662163675 0.280019581 0.010319799
0.691835344 0.282978594 0.022206584
0.722048402 0.286974639 0.035515390
0.752821684 0.292153567 0.049207166
0.783766806 0.297511607 0.062914826
0.815236092 0.303241819 0.076860957
0.847791791 0.309830844 0.092751950
0.880732775 0.317227453 0.110525742
0.913425863 0.325224012 0.129672974
0.941872001 0.335225701 0.155362830
0.959790945 0.348472208 0.189991206
0.970467567 0.371360123 0.242392346
0.974034727 0.390937090 0.284846097
0.976861835 0.403445452 0.312950462
0.978725493 0.405219108 0.323714048
0.980367124 0.404290825 0.331173986
0.981982291 0.403126448 0.338805795
0.983587384 0.401728302 0.346890152
0.985197961 0.400167346 0.355558693
0.986798048 0.398298532 0.364421368
0.988388896 0.396281958 0.373407394
0.989965439 0.393981814 0.383030981
0.991518557 0.391533226 0.392803282
0.453462571 0.284454644 0.000000000
0.477540284 0.286361426 0.000000000
0.502088964 0.288357437 0.000000000
0.527793288 0.290151983 0.000000000
0.554537535 0.291872829 0.000000000
0.583061993 0.293507457 0.000000000
0.612446189 0.295382410 0.000000000
0.641783059 0.297462314 0.000007014
0.671615362 0.300918579 0.000736492
0.701371610 0.305419564 0.006812222
0.731398046 0.311032444 0.019231619
0.761608303 0.317056358 0.034569409
0.791467249 0.323583513 0.050486524
0.821746767 0.330277354 0.067379147
0.852347791 0.337514907 0.084710285
0.883418798 0.345503747 0.102939606
0.914421916 0.353910595 0.122432642
0.940984070 0.363747656 0.146064758
0.958218396 0.376012474 0.180253372
0.969882131 0.395254582 0.230690286
0.973320484 0.412633359 0.273920387
0.976212978 0.425509334 0.305203259
0.978249669 0.429376572 0.319263905
0.979919195 0.429105401 0.326437563
0.981580615 0.428555250 0.333926976
0.983233988 0.427836895 0.341769367
0.984864354 0.426836282 0.350002319
0.986492455 0.425576121 0.358673364
0.988121927 0.424021661 0.367679328
0.989736676 0.422301412 0.376938432
0.991340876 0.420281619 0.386894673
0.992925227 0.418128073 0.396880805
0.493135720 0.306164831 0.000000000
0.517965972 0.307867527 0.000000000
0.543208599 0.309657395 0.000000000
0.569447517 0.311345279 0.000000000
0.596573412 0.313092917 0.000000000
0.624295473 0.315338582 0.000000000
0.652662516 0.318188608 0.000000000
0.681544065 0.322651148 0.000000000
0.711197853 0.327922881 0.000276829
0.740930259 0.334507167 0.004586365
0.770858526 0.341231465 0.017818956
0.800489724 0.348427624 0.035079569
0.830103636 0.355997622 0.055052310
0.859541059 0.364048630 0.074882925
0.889321327 0.372555763 0.095219605
0.918536007 0.381280273 0.115506701
0.942173660 0.391385913 0.139455095
0.957897007 0.403216541 0.174504966
0.969259322 0.420699686 0.224064156
0.972670197 0.435468435 0.266092598
0.975428104 0.447225869 0.298161924
0.977501512 0.452731133 0.314734846
0.979214787 0.453135431 0.321575195
0.980915785 0.453232199 0.328839928
0.982588470 0.453107923 0.336412609
0.984269619 0.452794224 0.344312906
0.985933721 0.452179462 0.352673173
0.987576365 0.451287687 0.361415952
0.989240050 0.450104862 0.370320588
0.990884602 0.448689729 0.379920632
0.992507219 0.447055161 0.389860451
0.994127929 0.445176065 0.400026381
0.534083664 0.328166842 0.000000000
0.559474170 0.329778463 0.000000000
0.585368037 0.331434071 0.000000000
0.611622393 0.333547175 0.000000000
0.638404727 0.336318970 0.000000000
0.665353835 0.340208560 0.000000000
0.692925155 0.345225543 0.000000000
0.721563995 0.351276040 0.000000000
0.750775218 0.358008891 0.000000000
0.780210197 0.365265876 0.003782992
0.809592724 0.372682244 0.018217340
0.838977218 0.380683362 0.039873090
0.868212581 0.389238864 0.063310415
0.896850407 0.398086309 0.086468384
0.924679518 0.407179564 0.108296633
0.945135832 0.417496860 0.134309471
0.959706485 0.429638892 0.171787068
0.968767285 0.446162164 0.221872434
0.971998870 0.458464801 0.260425389
0.974590838 0.469293535 0.292730063
0.976677358 0.475162029 0.310149312
0.978409886 0.476256371 0.316761345
0.980131805 0.477063775 0.323604673
0.981830657 0.477623403 0.331020385
0.983518958 0.477839559 0.338499486
0.985203445 0.477797925 0.346512794
0.986879051 0.477498740 0.354866177
0.988552094 0.476941466 0.363657653
0.990220964 0.476119608 0.372643292
0.991866529 0.475070208 0.382303894
0.993503928 0.473721087 0.392234147
0.995148063 0.472190619 0.402407348
0.576067865 0.350526571 0.000000000
0.601660132 0.352178693 0.000000000
0.627814174 0.355344802 0.000000000
0.653550446 0.358875126 0.000000000
0.679610372 0.363337785 0.000000000
0.705915213 0.368510038 0.000000000
0.733025312 0.374814659 0.000000000
0.761058450 0.381533802 0.000000000
0.789628446 0.388725698 0.000000000
0.818655908 0.396642923 0.004149614
0.847680151 0.404918760 0.021808615
0.876799643 0.413521409 0.049045362
0.905177116 0.422563195 0.076015435
0.930782974 0.431798726 0.101406991
0.948661268 0.442405969 0.130264267
0.961773753 0.454834580 0.171889082
0.968207240 0.470456630 0.223450437
0.971320212 0.481631637 0.260236561
0.973779440 0.491221428 0.289916903
0.975766182 0.496478796 0.305392712
0.977529049 0.498394042 0.311699867
0.979280829 0.499883980 0.318333477
0.981003165 0.501014769 0.325431556
0.982708275 0.501882434 0.332693398
0.984404683 0.502440035 0.340298086
0.986083448 0.502701044 0.348245531
0.987768173 0.502636969 0.356777221
0.989444852 0.502385795 0.365509033
0.991119504 0.501886010 0.374596119
0.992782772 0.501138568 0.384337008
0.994425416 0.500135362 0.394219697
0.996073842 0.498918593 0.404450148
0.619006336 0.374461383 0.000000000
0.644480407 0.377926260 0.000000000
0.669915318 0.382439017 0.000000000
0.694860637 0.387296587 0.000000000
0.720019877 0.392633766 0.000000000
0.745928824 0.398567438 0.000000000
0.772335708 0.405066997 0.000000000
0.799505889 0.412105441 0.000000000
0.827482820 0.419867814 0.000216973
0.856042981 0.428087652 0.008042037
0.884740531 0.436809480 0.033343736
0.912872374 0.445706308 0.063403435
0.936685026 0.455369800 0.094128959
0.952588737 0.466298401 0.127047569
0.962938547 0.479495049 0.175571620
0.967750609 0.494401842 0.229141802
0.970657289 0.504022360 0.262976766
0.972950876 0.512613654 0.289118648
0.974833429 0.516989291 0.300381005
0.976577282 0.519381762 0.306548297
0.978320003 0.521558285 0.312984765
0.980054200 0.523448169 0.319592118
