Desert Affinity Presets/Desert Affinity Preset #20.cube
TITLE "32x32x32 Adobe/IRIDAS cube 3D LUT exported with GrossGrade v0.1.027.1 (beta) 64 bit"
LUT_3D_SIZE 5
DOMAIN_MIN 0.000000 0.000000 0.000000
DOMAIN_MAX 0.903226 0.903226 0.903226
0.037486807 0.037283890 0.037936255
0.212781459 0.040839612 0.024099924
0.466082036 0.001383207 0.000000000
0.744062066 0.000000000 0.000000000
0.952345490 0.170178279 0.077890605
0.039089371 0.162544146 0.045404468
0.177140608 0.165231198 0.041748192
0.456201702 0.144104272 0.000000000
0.784242392 0.111416571 0.000000000
0.965737820 0.263025403 0.094273061
0.000000000 0.364389569 0.007812440
0.123640075 0.376661777 0.026844380
0.451678008 0.398518384 0.012567618
0.805260301 0.398727924 0.000000000
0.977422357 0.488390625 0.116286404
0.000000000 0.640742242 0.000000000
0.087019198 0.660185814 0.006235185
0.438707262 0.694722235 0.019264810
0.808628619 0.725484073 0.004289428
0.982119024 0.765389323 0.129184023
0.054687530 0.943161368 0.083951391
0.106579557 0.947079718 0.092534043
0.469833940 0.974498689 0.112063423
0.829518080 0.974218786 0.117988572
0.994331479 0.982107460 0.248370200
0.047385294 0.036436085 0.159642711
0.177938700 0.032890152 0.118823789
0.448479682 0.000484917 0.049913950
0.746288359 0.000000000 0.011290320
0.955158174 0.150482461 0.145549834
0.028820530 0.158828929 0.170698345
0.134507537 0.134160832 0.126505673
0.438434243 0.125721678 0.073807672
0.783759534 0.097171083 0.021635830
0.971493483 0.249532521 0.163892522
0.000000000 0.362759739 0.133258000
0.092400059 0.318550825 0.113195196
0.433963418 0.375389367 0.110862039
0.810625970 0.394683957 0.058422670
0.983958364 0.484537691 0.185473457
0.000000000 0.646968007 0.114560403
0.056902453 0.603723109 0.101248793
0.419005930 0.664836228 0.123331815
0.811285257 0.726693869 0.109688275
0.988110363 0.767009795 0.203131557
0.054228410 0.933963001 0.174733132
0.073149227 0.928387582 0.166914687
0.435866922 0.955096662 0.176093489
0.822697580 0.971745372 0.186174810
0.994790971 0.981003702 0.304498613
0.067235135 0.028372087 0.355386972
0.078525461 0.028372087 0.355386972
0.371155262 0.001947619 0.249744624
0.710880399 0.000000000 0.222025678
0.945114911 0.069119051 0.344545454
0.027661297 0.131320581 0.358066648
0.038951620 0.131320581 0.358066648
0.357806772 0.116115831 0.284240276
0.738975108 0.045558080 0.247119233
0.984283984 0.194264576 0.381102204
0.002084632 0.340394825 0.366065830
0.013374954 0.340394825 0.366065830
0.353755534 0.342143595 0.324895918
0.797828376 0.363397330 0.299970686
0.995161295 0.458785385 0.395876288
0.000000000 0.630506158 0.369717628
0.011290320 0.630506158 0.369717628
0.333203018 0.626941264 0.340865463
0.779790580 0.696895480 0.350648403
0.995161295 0.757066846 0.409437686
0.037423693 0.932718217 0.440865338
0.048707455 0.932737112 0.440873146
0.310692757 0.924905300 0.379472524
0.775257409 0.951182961 0.394987613
0.994179726 0.974580348 0.479293704
0.077426754 0.018284667 0.564888895
0.088717073 0.018284667 0.564888895
0.150856420 0.016131781 0.548178315
0.598853350 0.000000000 0.470664084
0.880201399 0.000000000 0.557806313
0.034644660 0.104513220 0.579041541
0.045934983 0.104513220 0.579041541
0.096078560 0.100517824 0.574293852
0.613296449 0.027348239 0.503486991
0.941219449 0.071240455 0.625826597
0.002457785 0.309874713 0.614893794
0.013748114 0.309874713 0.614893794
0.056451920 0.315832883 0.619333565
0.676456153 0.338843375 0.598419309
0.994635224 0.380498379 0.689283133
0.000000000 0.608731031 0.648001075
0.011290320 0.608731031 0.648001075
0.022580640 0.612212121 0.650705338
0.652170360 0.637717664 0.623111308
0.995161295 0.715122759 0.676992476
0.022007374 0.920674562 0.720526993
0.033297699 0.920674562 0.720526993
0.045962781 0.920855284 0.720022619
0.639773309 0.917388082 0.634937048
0.985444844 0.960072041 0.710241616
0.078308232 0.005666097 0.805815279
0.089598551 0.005666097 0.805815279
0.100888886 0.005666097 0.805815279
0.427622974 0.000000000 0.770265639
0.830010831 0.000000000 0.770287633
0.047591049 0.067724928 0.819467962
0.058881376 0.067724928 0.819467962
0.070171699 0.067724928 0.819467962
0.417283654 0.011290320 0.789242685
0.834470749 0.011290320 0.776196480
0.025249805 0.299469799 0.858422101
0.036540128 0.299469799 0.858422101
0.047830451 0.299469799 0.858422101
0.421377480 0.311175138 0.902942002
0.946259379 0.246695906 0.902062833
0.000000000 0.591791272 0.866030037
0.011290320 0.591791272 0.866030037
0.022580640 0.591791272 0.866030037
0.357822984 0.649624050 0.924498022
0.977371991 0.664022028 0.945559263
0.016376307 0.898094594 0.913571954
0.027666638 0.898094594 0.913571954
0.038956948 0.898094594 0.913571954
0.291121304 0.955413103 0.961820602
0.944949567 0.939842820 0.930492282
