Desert Affinity Presets/Desert Affinity Preset #19.cube
TITLE "32x32x32 Adobe/IRIDAS cube 3D LUT exported with GrossGrade v0.1.027.1 (beta) 64 bit"
LUT_3D_SIZE 5
DOMAIN_MIN 0.000000 0.000000 0.000000
DOMAIN_MAX 0.903226 0.903226 0.903226
0.033225015 0.032674108 0.033051070
0.109541431 0.044986937 0.018866370
0.216690600 0.072681427 0.011204061
0.321529716 0.087186843 0.001844280
0.444700837 0.116734192 0.000000000
0.026223885 0.093743473 0.051140245
0.177589774 0.159417614 0.051495671
0.296514124 0.163460493 0.027902151
0.396032155 0.165292978 0.013229784
0.502958417 0.191574484 0.010419399
0.024067249 0.187748477 0.093582809
0.065088511 0.263437033 0.069157012
0.449169099 0.405910283 0.132190108
0.562334836 0.397532254 0.093861744
0.676252842 0.435070366 0.099219024
0.020432008 0.313734770 0.168392569
0.036634609 0.385427952 0.135736093
0.319510043 0.515239060 0.119407095
0.743287921 0.703539789 0.305912614
0.822282672 0.743558526 0.421582669
0.035414811 0.464096546 0.210522473
0.070387058 0.563708305 0.251501858
0.293012887 0.667310119 0.319282055
0.795956790 0.857648551 0.547174275
0.874587834 0.882233799 0.620048463
0.028203707 0.037492912 0.096973762
0.117443047 0.034808330 0.117010973
0.238893121 0.049395569 0.061498642
0.390608728 0.073117249 0.034644451
0.532109916 0.113567561 0.030210018
0.026802316 0.101399831 0.117171131
0.124336481 0.129416287 0.138576686
0.285040885 0.126231894 0.053311173
0.416464210 0.129648462 0.026269911
0.542723835 0.172712281 0.031537145
0.022700848 0.208248764 0.160861880
0.049004424 0.263270944 0.153332546
0.429909170 0.396009147 0.175739452
0.557438016 0.372549444 0.116073325
0.698159635 0.439253658 0.174596027
0.023562670 0.352115005 0.247370049
0.048857097 0.429636091 0.245791167
0.230489805 0.499310911 0.149964929
0.754022360 0.720570326 0.349960893
0.833514869 0.759369731 0.474412113
0.070115186 0.558432579 0.329824597
0.093296960 0.597158015 0.333950609
0.313776642 0.689360440 0.383768559
0.805518806 0.855249226 0.543954372
0.868340790 0.871325374 0.587359905
0.026532503 0.045925453 0.171353996
0.084065251 0.037723906 0.234579787
0.264199257 0.037670609 0.214721233
0.485254556 0.058494922 0.191461429
0.617202699 0.106506482 0.183421314
0.026493678 0.109929465 0.200855196
0.063704371 0.120297216 0.258474976
0.351400077 0.104163304 0.279582918
0.527122200 0.106951222 0.188284397
0.631621242 0.183036134 0.205869988
0.020251492 0.237479895 0.261836618
0.053045083 0.307346612 0.335380107
0.342318833 0.385258347 0.380610615
0.550593495 0.315749288 0.206498653
0.717468143 0.428541929 0.309355110
0.044912565 0.411289811 0.353636265
0.112055331 0.550289690 0.437900066
0.174940825 0.505257607 0.296011358
0.739515543 0.706084728 0.400710642
0.843446374 0.765437365 0.538263023
0.133894622 0.661878765 0.481054485
0.158864319 0.681279421 0.486644447
0.350639552 0.738525748 0.516455591
0.818161368 0.872187853 0.621357441
0.875335336 0.884168029 0.651706696
0.023456978 0.059978679 0.272950321
0.065356940 0.050223280 0.339661568
0.256086081 0.048588049 0.350933552
0.514666438 0.053866919 0.358416498
0.661395311 0.097515188 0.376956820
0.023757195 0.125599369 0.302183509
0.045536079 0.125117883 0.392102808
0.271266967 0.092715696 0.468567342
0.565567672 0.113074541 0.421147376
0.677687407 0.173385486 0.422281295
0.019272316 0.261153966 0.367130637
0.048399806 0.318456799 0.464517504
0.168274671 0.301272035 0.476655424
0.635339677 0.316126227 0.558186412
0.810634673 0.443465114 0.596489429
0.082691632 0.485655040 0.484189540
0.157507867 0.617903650 0.625836670
0.316395193 0.636477351 0.639509380
0.688926458 0.693667054 0.668285131
0.824468374 0.691858470 0.610290885
0.167778790 0.715336978 0.610173047
0.224327281 0.739756584 0.655336142
0.528078914 0.858502567 0.780508578
0.689547062 0.852840900 0.684410691
0.879886329 0.893561900 0.737878680
0.024741964 0.078315698 0.382675648
0.058468487 0.059135050 0.441200316
0.262889773 0.049232405 0.483399779
0.532278180 0.070358753 0.475877881
0.648938298 0.101700433 0.468601316
0.023974128 0.138768107 0.402720124
0.040679492 0.121211939 0.529013932
0.233567640 0.077637903 0.598350346
0.572114706 0.117764443 0.559065223
0.662852883 0.174632624 0.525955081
0.023754815 0.290215343 0.457066506
0.047973342 0.333053112 0.562086642
0.145232484 0.301627904 0.621870399
0.641558230 0.368413210 0.730020046
0.833244979 0.502145648 0.772050500
0.097241282 0.531689048 0.623750150
0.149312183 0.566936255 0.696960568
0.415098161 0.682961047 0.810144246
0.698201180 0.728168547 0.862191081
0.875431955 0.756422162 0.862273991
0.177182496 0.718818605 0.728434265
0.256805360 0.748918831 0.760147870
0.547068954 0.868916750 0.872039080
0.705792427 0.891157091 0.885750413
0.879618347 0.894652963 0.886124551
