Desert Affinity Presets/Desert Affinity Preset #18.cube
TITLE "32x32x32 Adobe/IRIDAS cube 3D LUT exported with GrossGrade v0.1.027.1 (beta) 64 bit"
DOMAIN_MIN 0 0 0
DOMAIN_MAX 1 1 1
LUT_3D_SIZE 32
0.037066437 0.037675291 0.038110200
0.065072052 0.046491276 0.040899456
0.088772252 0.053006083 0.041520454
0.112156674 0.058617473 0.041442882
0.137240231 0.063244984 0.039751943
0.166653916 0.066728674 0.035584576
0.198897779 0.068060465 0.028423518
0.231190011 0.067381002 0.019460293
0.262128145 0.064792275 0.009561813
0.291657984 0.061704136 0.001450541
0.317423791 0.060164742 0.000000000
0.340561271 0.060338214 0.000000000
0.363355368 0.061503541 0.000000000
0.388239264 0.061747674 0.000000000
0.419584364 0.059134614 0.000000000
0.454976350 0.056584686 0.000000000
0.492442131 0.054811534 0.000000000
0.530328155 0.053147271 0.000000000
0.566333473 0.051739741 0.000000000
0.599761486 0.050802682 0.000000000
0.630940437 0.050505277 0.000000000
0.659099817 0.051000431 0.000000000
0.685669065 0.051644780 0.000000000
0.709713221 0.053153321 0.000000000
0.735222936 0.055046234 0.000000000
0.760251462 0.083249927 0.000000000
0.785191000 0.137469202 0.000000000
0.809346676 0.204311937 0.017764200
0.832048357 0.261449426 0.081030659
0.842646182 0.284365684 0.110322662
0.844743609 0.285587102 0.111894801
0.846356511 0.285587102 0.111894801
0.040422063 0.063430235 0.042400047
0.061947387 0.062699825 0.044758245
0.086561821 0.068106830 0.046182569
0.110688686 0.072283082 0.045448888
0.135034963 0.075859465 0.043752875
0.163603410 0.079311833 0.040146660
0.194992766 0.080972314 0.033456910
0.227247208 0.080566488 0.024551200
0.257645249 0.078154504 0.014587233
0.286020070 0.075041994 0.004955320
0.312284261 0.073137425 0.000000000
0.336587340 0.072777390 0.000000000
0.360469729 0.073468521 0.000000000
0.386398226 0.073187031 0.000000000
0.418183684 0.069856636 0.000000000
0.454543412 0.065041162 0.000000000
0.492534399 0.059473760 0.000000000
0.530269623 0.055127237 0.000000000
0.566097260 0.053365242 0.000000000
0.599547923 0.052421179 0.000000000
0.630778491 0.052117713 0.000000000
0.658999801 0.052603081 0.000000000
0.685612142 0.053252093 0.000000000
0.709786773 0.055059440 0.000000000
0.735437155 0.060597431 0.000000000
0.760501742 0.089181252 0.000000000
0.785314262 0.142143205 0.000000000
0.809254408 0.207466319 0.018096676
0.832111537 0.264126301 0.081443533
0.842719316 0.286980391 0.110733464
0.844816685 0.288199931 0.112305626
0.846429586 0.288199931 0.112305626
0.043411087 0.086965881 0.045548979
0.063450769 0.085069194 0.047389496
0.084997654 0.086619876 0.049611140
0.108084947 0.089448921 0.049119722
0.133746833 0.094505712 0.048426658
0.161559567 0.098901689 0.046011470
0.191916227 0.101781078 0.040574040
0.221819758 0.102679737 0.032681178
0.250477254 0.101794958 0.023439238
0.277473807 0.100383438 0.013905502
0.303141683 0.099092044 0.004938489
0.328439415 0.098454699 0.000000000
0.354242355 0.098354638 0.000000000
0.382706016 0.097547486 0.000000000
0.414959729 0.094711885 0.000000000
0.451205522 0.089719638 0.000000000
0.489798635 0.080855541 0.000000000
0.529268444 0.066950999 0.000000000
0.566030145 0.056893531 0.000000000
0.599205494 0.054684091 0.000000000
0.630495191 0.054306228 0.000000000
0.658816993 0.054877155 0.000000000
0.685391963 0.055731051 0.000000000
0.709498286 0.059307866 0.000000000
0.735807538 0.077217482 0.000000000
0.761517286 0.104935586 0.000000000
0.786251366 0.152480274 0.000000000
0.809714675 0.214233503 0.019697787
0.832420766 0.269089222 0.082866989
0.842796504 0.291542828 0.111900933
0.844876111 0.292746484 0.113457210
0.846489012 0.292746484 0.113457210
0.045956716 0.109506615 0.047659814
0.063042097 0.107474558 0.048841976
0.086174637 0.107882336 0.051557846
0.108825281 0.111151740 0.053382464
0.133155838 0.114348553 0.051568620
0.161029160 0.119500734 0.048757769
0.190575242 0.123853080 0.045239925
0.219532087 0.126418546 0.039263744
0.246202603 0.127214521 0.031622469
0.272149473 0.127280995 0.023032855
0.297730058 0.127138123 0.014304347
0.323170632 0.127105728 0.005472971
0.349886477 0.127366051 0.000000000
0.379976422 0.127098441 0.000000000
0.414102852 0.125225067 0.000000000
0.450253516 0.121379592 0.000000000
0.488019258 0.112936981 0.000000000
0.526240230 0.097659044 0.000000000
0.564518809 0.079234451 0.000000000
0.599842191 0.068775728 0.000000000
0.631663501 0.067323327 0.000000000
0.660296440 0.068800025 0.000000000
0.685583711 0.072729409 0.000000000
0.709664345 0.078406245 0.000000000
0.736990035 0.099572033 0.000000000
0.763565779 0.130188793 0.000000000
0.787786126 0.169794440 0.000000000
0.810223043 0.224973500 0.022340307
0.832608402 0.276984602 0.085240096
0.843283057 0.298611999 0.114238940
0.845387876 0.299779177 0.115800828
0.847000837 0.299779177 0.115800828
0.046749849 0.133444011 0.049494732
0.060839627 0.131583124 0.050153129
0.084735349 0.131076053 0.052872777
0.110120617 0.133445159 0.055588204
0.134896323 0.138221338 0.056739986
0.161905363 0.142002001 0.052230306
0.189307392 0.145195886 0.046867676
0.216427386 0.148079276 0.042172335
0.241696119 0.149852142 0.036128916
0.267267764 0.151511729 0.029392444
0.293400913 0.152890265 0.022083579
0.319470912 0.153984949 0.014136970
0.346993208 0.155033886 0.006088349
0.378147870 0.155685142 0.000166470
0.413742989 0.155104294 0.000000000
0.451250345 0.152208984 0.000000000
0.488888443 0.145686597 0.000000000
0.526677072 0.134599254 0.000000000
0.563970983 0.120673887 0.000000000
0.599653304 0.107479997 0.000000000
0.632603765 0.101550482 0.000000000
0.661974669 0.103121728 0.000000000
0.688003004 0.109622620 0.000000000
0.712776661 0.121288836 0.000000000
0.740443289 0.139205828 0.000000000
0.766853988 0.162010908 0.000000000
0.790169954 0.193100438 0.000000000
0.811179161 0.240178645 0.026288887
0.833380103 0.288165390 0.089093201
0.843878388 0.308379263 0.117608756
0.845970154 0.309466958 0.119139798
0.847583055 0.309466958 0.119139798
0.046073236 0.159820020 0.050167590
0.054519370 0.158556655 0.050221402
0.081207648 0.157124922 0.052671734
0.109874628 0.158533752 0.056573924
0.136287183 0.162559494 0.058876477
0.163382128 0.167757004 0.058544051
0.189325020 0.169235840 0.050250418
0.214256540 0.170176253 0.042819064
0.238654390 0.171428531 0.037522379
0.263965517 0.173541248 0.032109268
0.289908379 0.176065564 0.026720447
0.316140980 0.178344816 0.020988429
0.344405472 0.180562228 0.014711200
0.376854837 0.182464957 0.007443504
0.412836552 0.182636574 0.000740234
0.451319546 0.180191264 0.000000000
0.489752084 0.174819335 0.000000000
0.528089762 0.166861743 0.000000000
0.565930128 0.157598093 0.000000000
0.602350354 0.149564058 0.000000000
0.636441946 0.145994931 0.000000000
0.666761398 0.147188395 0.000000000
0.692937970 0.152209625 0.000000000
0.717300415 0.161341995 0.000000000
0.744310856 0.174737707 0.000000000
0.770121098 0.192427561 0.000000000
0.792616129 0.218543798 0.000000000
0.812227786 0.259018809 0.031185698
0.834366739 0.302527636 0.094099231
0.844884574 0.321776330 0.122465342
0.846974432 0.322827518 0.123988882
0.848587334 0.322827518 0.123988882
0.043969892 0.188529253 0.049528878
0.048010591 0.188129634 0.049502235
0.075241856 0.185960636 0.051440965
0.107366659 0.186131269 0.055336196
0.135952055 0.189065829 0.058918551
0.162588567 0.191996574 0.059900124
0.188453540 0.194409564 0.056540728
0.213996843 0.194995075 0.046006344
0.237881780 0.195409656 0.038236439
0.262365043 0.196661115 0.034053583
0.288203686 0.198841333 0.030142514
0.314003885 0.201450318 0.025978850
0.342069805 0.204110995 0.021427983
0.374477506 0.206580490 0.015478089
0.410829276 0.208069161 0.007199426
0.450546622 0.207032934 0.000104746
0.490495771 0.203209877 0.000000000
0.529286981 0.197115183 0.000000000
0.567730069 0.190320835 0.000000000
0.604882419 0.185397074 0.000000000
0.639641643 0.183819890 0.000000000
0.670788765 0.185475156 0.000000000
0.697510660 0.190077677 0.000000000
0.721565843 0.198259160 0.000000000
0.748077214 0.209731534 0.000000000
0.773339331 0.224486753 0.000000000
0.794908226 0.246077269 0.000000000
0.813689828 0.280992091 0.037117898
0.835893273 0.320265621 0.100483179
0.846566975 0.338118345 0.128771082
0.848669052 0.339113414 0.130296513
0.850281954 0.339113414 0.130296513
0.040633406 0.219160467 0.047252007
0.042870577 0.219074905 0.047290351
0.067226388 0.216639712 0.049057040
0.101572119 0.214578986 0.052470658
0.132388517 0.216213465 0.056247111
0.160223052 0.217699975 0.059040625
0.186388656 0.218829319 0.058478538
0.212068126 0.220297396 0.053130869
0.238024190 0.221429542 0.041967560
0.262540340 0.222106025 0.036037233
0.287527382 0.223213568 0.033216566
0.313856333 0.225237921 0.029965274
0.341466248 0.227759048 0.026291648
0.372832835 0.230068207 0.021203538
0.407898337 0.231856838 0.014350191
0.447628021 0.232388079 0.005348584
0.489298016 0.230332643 0.000000000
0.529443622 0.226096720 0.000000000
0.568696320 0.221264929 0.000000000
0.606632888 0.218542039 0.000000000
0.641919792 0.218376517 0.000000000
0.673680723 0.220771939 0.000000000
0.700984776 0.225626156 0.000000000
0.725232840 0.233570203 0.000000000
0.751193166 0.244121030 0.000000000
0.776087582 0.257121265 0.000000000
0.797434092 0.275450885 0.001597371
0.815753222 0.305015653 0.043707062
0.837946653 0.340815276 0.107941233
0.848607183 0.356887728 0.136061594
0.850705445 0.357772470 0.137569264
0.852318406 0.357772470 0.137569264
0.036447305 0.249761969 0.044274256
0.038611528 0.249656767 0.044295300
0.060249589 0.246718600 0.045484494
0.093036510 0.243787691 0.048752196
0.125314385 0.242697984 0.052315395
0.155516461 0.243603170 0.056006301
0.183283880 0.244130135 0.057872552
0.209729195 0.244910166 0.056287777
0.235928193 0.246952310 0.049412414
0.262601644 0.248134822 0.040110171
0.288522780 0.249188408 0.036388844
0.315000743 0.250560999 0.033657514
0.343041390 0.252373338 0.029901668
0.373524874 0.254217118 0.025225030
0.406912148 0.255763352 0.019328393
0.444889575 0.256787002 0.011094631
0.486762375 0.256304294 0.002146355
0.528568923 0.253987610 0.000000000
0.568798721 0.251055539 0.000000000
0.607581019 0.250153631 0.000000000
0.643503904 0.251395613 0.000000000
0.675665259 0.254492253 0.000000000
0.703585923 0.259854913 0.000000000
0.728408694 0.267770439 0.000000000
0.754098177 0.277807355 0.000000000
0.778905571 0.289622784 0.000000000
0.800520241 0.305778235 0.008301104
0.818586946 0.331133872 0.051811785
0.840705454 0.363470256 0.116282478
0.851461947 0.378356934 0.144600928
0.853567719 0.379175305 0.146120727
0.855180681 0.379175305 0.146120727
0.029846948 0.277484626 0.041125342
0.031869948 0.277447671 0.041113183
0.050719142 0.274603665 0.041588299
0.081809096 0.271046370 0.044100795
0.116382055 0.269773930 0.047898784
0.148932040 0.270237267 0.051831886
0.178736538 0.270336688 0.054786269
0.206809402 0.270424992 0.056170415
0.233725667 0.271238446 0.054210149
0.261000514 0.274263233 0.045895983
0.288984030 0.275613040 0.039005660
0.317428410 0.277137369 0.036317792
0.346204340 0.278698385 0.033275042
0.375890225 0.279875964 0.029012268
0.408325225 0.280922234 0.023404602
0.444888592 0.281750232 0.015985873
0.485567331 0.281641006 0.006312794
0.527558208 0.280771583 0.000000000
0.568695724 0.279996365 0.000000000
0.608205438 0.280749023 0.000000000
0.644976735 0.283217430 0.000000000
0.677715182 0.287183642 0.000000000
0.706068218 0.293002337 0.000000000
0.731317222 0.300852060 0.000000000
0.757158041 0.310748041 0.000000000
0.782283187 0.321800709 0.000000000
0.804077327 0.336439490 0.016255245
0.822017848 0.358835608 0.060376596
0.844132483 0.388296515 0.125490725
0.854902744 0.402313203 0.154136360
0.857010365 0.403094113 0.155673012
0.858623326 0.403094113 0.155673012
0.022657856 0.302631825 0.038384221
0.024469962 0.302619189 0.038375802
0.038288973 0.301629454 0.038027849
0.069976106 0.298588932 0.039488219
0.106574506 0.297003597 0.043458275
0.140529230 0.297145367 0.047463413
0.172523901 0.297109902 0.050760102
0.202500150 0.296935439 0.052915763
0.230934069 0.297070563 0.053942680
0.258865833 0.298665732 0.051564869
0.288267523 0.303027719 0.042156946
0.319657266 0.305091113 0.037544813
0.350401014 0.306677520 0.035835247
0.379650086 0.307243109 0.032508161
0.411153764 0.307691425 0.027441055
0.446794599 0.307918310 0.020296354
0.486831516 0.307782859 0.011105836
0.528977811 0.307875812 0.002160390
0.570060492 0.308537841 0.000000000
0.609656870 0.310707748 0.000000000
0.646775603 0.314203858 0.000000000
0.680025041 0.318986028 0.000000000
0.708805501 0.325395554 0.000000000
0.734186411 0.333353698 0.000000000
0.760298848 0.343411058 0.000000000
0.786054850 0.354284406 0.001622623
0.808270097 0.367686301 0.024114899
0.825866342 0.387852639 0.069034033
0.848235548 0.415210962 0.135278076
0.859071910 0.428101629 0.164407939
0.861182332 0.428837687 0.165965185
0.862795293 0.428837687 0.165965185
0.015268092 0.327017218 0.035648186
0.016881933 0.327017218 0.035648186
0.023787303 0.326674908 0.035467662
0.054033678 0.325147241 0.035411574
0.096884660 0.323631734 0.038838234
0.130376518 0.323749483 0.042664737
0.164371803 0.323539138 0.046129778
0.196585700 0.323453277 0.048928458
0.227304637 0.323990047 0.050557602
0.256981790 0.325162143 0.051849633
0.287303507 0.328294635 0.048773687
0.319552034 0.333674848 0.038819090
0.353365481 0.335663527 0.036534797
0.384081900 0.336021632 0.035083286
0.415124267 0.335863233 0.031078203
0.449748635 0.335613430 0.024515670
0.489166945 0.335152805 0.015706230
0.531785369 0.335819125 0.005889151
0.573373973 0.337654561 0.000000000
0.612257957 0.340486079 0.000000000
0.648996592 0.344758421 0.000000000
0.682333291 0.350198627 0.000000000
0.711447239 0.357166529 0.000000000
0.737196088 0.365455359 0.000000000
0.763355076 0.375794560 0.000000000
0.789808273 0.386743844 0.006731318
0.812802911 0.399498165 0.032604925
0.830241442 0.417857617 0.077816330
0.852793574 0.443408698 0.145343453
0.863819957 0.455179542 0.175277025
0.865930378 0.455821097 0.176864117
0.867543340 0.455821097 0.176864117
0.009411672 0.353928059 0.032189734
0.011024577 0.353928059 0.032189734
0.013668153 0.353800893 0.032165416
0.037166808 0.351965487 0.032040529
0.086428724 0.350084752 0.033868432
0.119403750 0.350190967 0.037441928
0.154213130 0.350108981 0.040988792
0.189508334 0.350297093 0.044144280
0.222843811 0.351166517 0.046932660
0.254994869 0.353193969 0.048210647
0.286688715 0.355664998 0.049771577
0.319130689 0.359687060 0.046613298
0.353250444 0.365026325 0.036668055
0.386853755 0.365670323 0.035827760
0.419299424 0.365122736 0.033818841
0.453562856 0.364271700 0.028312715
0.492347211 0.364101142 0.020232309
0.534887969 0.364923030 0.010764503
0.577528775 0.367566258 0.002310959
0.616376817 0.370819986 0.000000000
0.651972353 0.375069737 0.000000000
0.684611797 0.380626976 0.000000000
0.713617444 0.387873888 0.000000000
0.739715576 0.396632850 0.000000000
0.765569866 0.407045811 0.000000000
0.792741060 0.418361992 0.012469873
0.817058384 0.431209981 0.041018736
0.834782779 0.448157459 0.086272575
0.857683003 0.472245544 0.155451894
0.869057417 0.483571947 0.186492294
0.871197820 0.484200448 0.188150495
0.872810721 0.484200448 0.188150495
0.005689010 0.384640217 0.027410207
0.007301913 0.384640217 0.027410207
0.009763071 0.384585053 0.027398985
0.029226733 0.382765263 0.027195545
0.075688593 0.379022449 0.028584413
0.109758452 0.377739608 0.032056868
0.143432945 0.377721518 0.035450842
0.181621522 0.378380060 0.038945317
0.218338266 0.379800379 0.041986670
0.252762437 0.381919861 0.044504795
0.286105871 0.384872228 0.045512952
0.318944305 0.387924582 0.047045346
0.352583259 0.392209560 0.043736529
0.387082636 0.396079779 0.035710860
0.421772957 0.395753086 0.034768622
0.457634538 0.394579798 0.031471424
0.496609598 0.394316643 0.024414660
0.539055347 0.395743251 0.015672112
0.581936061 0.398600996 0.006870672
0.620803595 0.401960105 0.000529809
0.655960500 0.406044245 0.000000000
0.687645257 0.411348224 0.000000000
0.715848625 0.418242455 0.000000000
0.741719484 0.427015156 0.000000000
0.766842186 0.437283903 0.000000000
0.794730365 0.449194372 0.016998686
0.820379376 0.462401420 0.048191000
0.839346409 0.478932738 0.094264194
0.863202512 0.502394497 0.165736556
0.874870658 0.513503432 0.197831109
0.877021372 0.514107585 0.199541643
0.878634274 0.514107585 0.199541643
0.001891974 0.415667206 0.021706223
0.003504878 0.415667206 0.021706223
0.005804239 0.415634483 0.021705287
0.022321910 0.414785445 0.021637939
0.064993292 0.411458552 0.022701789
0.102312773 0.407942921 0.026391244
0.135264531 0.407199651 0.029611278
0.173638940 0.407891035 0.033206284
0.213144034 0.409439623 0.036428627
0.249515548 0.411527693 0.039300222
0.284332931 0.414183676 0.041332513
0.318681359 0.417722523 0.042529605
0.352508277 0.421289414 0.043548521
0.386695743 0.425131023 0.040226575
0.421961814 0.427545309 0.034059204
0.460067242 0.426742822 0.032820035
0.501012981 0.426525027 0.028040074
0.543944836 0.427931994 0.020221116
0.586843610 0.430862665 0.012103300
0.625560164 0.434303492 0.005251782
0.660201669 0.438232780 0.000873036
0.691463828 0.443292588 0.000000000
0.719058335 0.449749589 0.000000000
0.744091511 0.457771719 0.000386250
0.768187881 0.467383415 0.001963983
0.795803070 0.479582191 0.019800659
0.823263764 0.493706375 0.054210581
0.843547702 0.510120451 0.101131760
0.868793726 0.533563972 0.175496638
0.880848646 0.544439971 0.209048465
0.883019924 0.545050681 0.210820779
0.884632826 0.545050681 0.210820779
0.000000000 0.445584714 0.015051159
0.001612904 0.445584714 0.015051159
0.003425946 0.445561290 0.015052090
0.014959768 0.445014060 0.015102551
0.053781781 0.443123132 0.016039655
0.095457144 0.439562321 0.020146746
0.128530145 0.437680990 0.023451833
0.165770069 0.438013732 0.026899563
0.206913516 0.439611197 0.030232705
0.245345503 0.441795498 0.033186674
0.281559467 0.444258630 0.035795931
0.317221552 0.447480112 0.038025089
0.352444857 0.451443642 0.039530821
0.387088239 0.455405861 0.039902542
0.421939164 0.458623141 0.036441267
0.460531503 0.460922718 0.031908181
0.503825128 0.461081833 0.029843185
0.548584819 0.462194055 0.024139717
0.591884255 0.464594215 0.016922535
0.630753160 0.468079597 0.010811253
0.665073216 0.472091049 0.006290828
0.695938349 0.477087736 0.003682466
0.723269880 0.483242810 0.003275640
0.747943521 0.490669250 0.004401192
0.770941973 0.498924643 0.006954848
0.797361255 0.510559738 0.023364345
0.825458646 0.525238812 0.058151655
0.847472489 0.542021155 0.106622212
0.873471916 0.565267682 0.183719203
0.886144996 0.576090455 0.219389290
0.888332129 0.576666594 0.221260726
0.889945090 0.576666594 0.221260726
0.000000000 0.475224435 0.007262548
0.001612904 0.475224435 0.007262548
0.003225807 0.475217879 0.007279383
0.008082091 0.474913657 0.007460325
0.039573751 0.473657101 0.008574659
0.087978467 0.471221417 0.013086701
0.122952603 0.469282806 0.016744388
0.157718807 0.468832672 0.019875035
0.199457914 0.470133752 0.023151148
0.239855751 0.472380966 0.026049910
0.277788371 0.475138724 0.028946334
0.314695001 0.478330433 0.032042891
0.351294160 0.482016802 0.034394495
0.387601048 0.486694902 0.036935557
0.423180103 0.491480976 0.036448762
0.460958093 0.495374888 0.032237429
0.504589200 0.498111963 0.028967815
0.551584899 0.499347627 0.026402028
0.596760869 0.501105905 0.021117035
0.636616528 0.504109085 0.015964374
0.670912445 0.508269012 0.012487181
0.701675236 0.513542414 0.010753751
0.728792548 0.519673824 0.010874396
0.753154457 0.526522398 0.012526450
0.775656760 0.533731341 0.015148873
0.800186336 0.543644071 0.027495287
0.827094376 0.557581425 0.059395023
0.850272715 0.574406683 0.109553158
0.876523197 0.597140253 0.189633220
0.889463425 0.607914746 0.227476239
0.891699135 0.608513296 0.229490787
0.893312097 0.608513296 0.229490787
0.000000000 0.506423295 0.001512271
0.001612904 0.506423295 0.001512271
0.003225807 0.506423295 0.001512271
0.004838713 0.506345093 0.001630113
0.022088688 0.505604446 0.001905071
0.077836871 0.503935814 0.004792134
0.115915008 0.502241254 0.008705145
0.149288371 0.501084924 0.011619303
0.190365314 0.501898468 0.014858012
0.233028829 0.504179299 0.017975610
0.272488207 0.506970823 0.020580245
0.310820043 0.510479212 0.024259919
0.348941654 0.515021622 0.027965277
0.386770457 0.519922316 0.031014122
0.424047321 0.525817931 0.034272496
0.462056696 0.531409502 0.033117957
0.504848540 0.536114633 0.027898384
0.551932156 0.539088488 0.025174499
0.599979341 0.541234732 0.023463039
0.642625570 0.544047654 0.020401562
0.677872002 0.547817767 0.018050406
0.708408952 0.553207755 0.017480833
0.735437632 0.559512138 0.018620454
0.759426355 0.565916181 0.020861259
0.781595409 0.572557747 0.023775406
0.804852843 0.580965996 0.033177283
0.829352558 0.592446566 0.059617620
0.852540970 0.608351290 0.109913237
0.878079355 0.629713893 0.192812815
0.890814364 0.640066147 0.232770160
0.893040776 0.640646935 0.234898835
0.894653738 0.640646935 0.234898835
0.000000000 0.540245712 0.000000000
0.001612904 0.540245712 0.000000000
0.003225807 0.540245712 0.000000000
0.004838713 0.540233135 0.000000000
0.011879688 0.539854407 0.000000000
0.064147972 0.538367748 0.000042553
0.107010812 0.537072718 0.001872334
0.139744073 0.535508156 0.003215791
0.179412857 0.535217822 0.005659082
0.223895296 0.537562728 0.008596638
0.265209585 0.540980101 0.011277499
0.304922253 0.544761658 0.014262281
0.344514370 0.550085962 0.018981466
0.384357929 0.556610465 0.023877844
0.423362702 0.562935114 0.027909152
0.462739885 0.569358945 0.032279965
0.505367875 0.575355768 0.030368360
0.551884890 0.580430627 0.024241181
0.600475490 0.584296465 0.022020919
0.646867454 0.587813377 0.022211231
0.684841573 0.591538250 0.022155127
0.715782464 0.596170902 0.022797646
0.742518365 0.602269888 0.024862606
0.766139090 0.608261526 0.027865181
0.788282037 0.614854574 0.031531315
0.810878396 0.622476161 0.040701210
0.833537817 0.631578565 0.062283505
0.855037153 0.644673645 0.108672015
0.879263937 0.663923681 0.193742841
0.891778708 0.673170328 0.236959860
0.893988311 0.673722148 0.239213869
0.895601213 0.673722148 0.239213869
0.000000000 0.577385306 0.000000000
0.001612904 0.577385306 0.000000000
0.003225807 0.577385306 0.000000000
0.004838713 0.577381074 0.000000000
0.009603344 0.577237010 0.000000000
0.046988349 0.576176107 0.000000000
0.094261959 0.574506581 0.000000000
0.129925579 0.572536290 0.000000000
0.168003410 0.571034610 0.000437686
0.212720543 0.572749019 0.001576795
0.255590260 0.577070653 0.002469006
0.297048002 0.582769632 0.004234251
0.338142633 0.589056253 0.008287544
0.380066752 0.596533418 0.014950117
0.421349168 0.603546798 0.021178756
0.462645799 0.610206544 0.026767688
0.506585658 0.616807401 0.032869127
0.553102374 0.623087704 0.030398713
0.601432204 0.629041851 0.023684759
0.648876786 0.634161770 0.021199333
0.690244555 0.638176799 0.023084775
0.722815037 0.641985059 0.025746392
0.749713719 0.646861613 0.028995911
0.773255229 0.652728021 0.032924294
0.795081258 0.658835113 0.037110887
0.817669332 0.666308224 0.048056327
0.839315355 0.674254537 0.068037510
0.858433068 0.683561742 0.106615283
0.881480515 0.700363398 0.195716038
0.893454969 0.708386004 0.242322296
0.895667374 0.708855510 0.244829684
0.897280276 0.708855510 0.244829684
0.000000000 0.616618395 0.000000000
0.001612904 0.616618395 0.000000000
0.003225807 0.616618395 0.000000000
0.004838713 0.616617024 0.000000000
0.006941675 0.616672277 0.000000000
0.027222732 0.616742015 0.000000000
0.077353925 0.615652025 0.000000000
0.116176434 0.613503754 0.000000000
0.153795466 0.611208916 0.000000000
0.198813945 0.611899555 0.000000000
0.244267344 0.616753161 0.000000000
0.287668467 0.623618245 0.000000000
0.330991894 0.631708920 0.000766421
0.374881595 0.639738381 0.006144465
0.418723345 0.647322774 0.014705074
0.462331712 0.654134095 0.022388462
0.508244514 0.660722673 0.029917572
0.555694342 0.667210340 0.037486840
0.604345322 0.674412727 0.035738867
0.652386785 0.681528747 0.028980937
0.693737030 0.686201870 0.022585314
0.728582740 0.689286768 0.025710888
