Desert Affinity Presets/Desert Affinity Preset #23.cube
TITLE "32x32x32 Adobe/IRIDAS cube 3D LUT exported with GrossGrade v0.1.027.1 (beta) 64 bit"
DOMAIN_MIN 0 0 0
DOMAIN_MAX 1 1 1
LUT_3D_SIZE 32
0.002087435 0.001710532 0.002957198
0.040613446 0.008699977 0.008219272
0.065901637 0.014257157 0.011413119
0.088440366 0.018532060 0.013794643
0.109994099 0.022474978 0.016001783
0.131444290 0.025425140 0.017825974
0.154033557 0.028334659 0.019533675
0.178811818 0.030944442 0.021093678
0.206053883 0.033211421 0.022421716
0.234203443 0.034677416 0.023098825
0.263565391 0.034828003 0.023033354
0.292382300 0.034263536 0.022504915
0.319538176 0.032275230 0.021547228
0.345899731 0.029920358 0.020243531
0.371162713 0.027166111 0.018500233
0.395227700 0.024547921 0.016497465
0.417153686 0.022924364 0.014477384
0.437609076 0.022414640 0.012273026
0.456681222 0.023063697 0.009948037
0.475233436 0.024284625 0.007566011
0.494015336 0.025577128 0.005199880
0.512011588 0.027301697 0.002811304
0.530419111 0.028306132 0.001091414
0.550780296 0.027620653 0.000383912
0.571633220 0.026921060 0.000107084
0.592689514 0.026908470 0.000011223
0.613414407 0.027055323 0.000000000
0.633667111 0.025121693 0.000000000
0.653758585 0.021244198 0.000000000
0.673686802 0.018934250 0.000000000
0.693951666 0.008153814 0.000000000
0.713905573 0.001536587 0.000000000
0.025978852 0.020964213 0.008285672
0.049853954 0.027157752 0.011342957
0.076981358 0.030043451 0.013306895
0.101385780 0.033167597 0.015289580
0.123355821 0.035517324 0.017267631
0.145973325 0.037682846 0.019097861
0.170152768 0.040235590 0.020749474
0.196870402 0.042493232 0.022178045
0.224530220 0.044552147 0.023059461
0.252773494 0.045627195 0.023222676
0.281373829 0.045976460 0.022788309
0.308547050 0.044951476 0.021759536
0.334858954 0.043312021 0.020424487
0.359925687 0.041534122 0.018714439
0.383585364 0.039716065 0.016644262
0.405597836 0.038757008 0.014541872
0.426226109 0.038812604 0.012376375
0.445918471 0.039859612 0.010062153
0.464587361 0.041758172 0.007700222
0.483571380 0.043837152 0.005386926
0.502821803 0.046031196 0.003150790
0.522121251 0.048157003 0.001222347
0.542433918 0.049266204 0.000371754
0.563456655 0.049486879 0.000139349
0.584427357 0.049745966 0.000022913
0.605434179 0.050376751 0.000000000
0.626091301 0.049148344 0.000000000
0.646381021 0.044723786 0.000000000
0.666485548 0.039448626 0.000000000
0.686845541 0.029931253 0.000000000
0.707142234 0.019005429 0.000000000
0.727034748 0.011686265 0.000000000
0.038413640 0.039733000 0.012240734
0.056725554 0.044702839 0.014180432
0.078127466 0.047543589 0.015259679
0.102962643 0.049612295 0.016339887
0.127856791 0.051529486 0.017684748
0.152872398 0.053572062 0.019634703
0.180377275 0.056312259 0.021349007
0.209193140 0.059076395 0.022731740
0.238622457 0.061374221 0.023283508
0.267336160 0.062705070 0.023056246
0.294709206 0.063186690 0.022046167
0.321026474 0.062914096 0.020585814
0.346150964 0.062474530 0.018859377
0.369192094 0.062318332 0.016665345
0.391269594 0.062244456 0.014405804
0.412194937 0.062662058 0.012271148
0.432594538 0.063429862 0.009967670
0.452495486 0.064681157 0.007628675
0.472210616 0.066446915 0.005348580
0.492282063 0.068304308 0.003195680
0.512516439 0.070132658 0.001236376
0.534087121 0.071502782 0.000222586
0.555780351 0.072360381 0.000044891
0.576925695 0.073159069 0.000011223
0.597944438 0.074071839 0.000000000
0.618629634 0.074228473 0.000000000
0.639061987 0.071756683 0.000000000
0.659248233 0.066736855 0.000000000
0.679498792 0.060777586 0.000000000
0.699816108 0.052812234 0.000000000
0.720207751 0.044243630 0.000000000
0.740454674 0.039196614 0.000000000
0.048361227 0.058717806 0.015738491
0.063671961 0.062393770 0.016835043
0.081858136 0.066729404 0.018089240
0.103773147 0.069983110 0.018792007
0.129499033 0.072645292 0.018918328
0.156497404 0.075110063 0.019921321
0.185609207 0.077859640 0.021336835
0.215863183 0.080535799 0.022487123
0.246838704 0.082878552 0.022995416
0.276921958 0.084441319 0.022628341
0.303222537 0.084768124 0.021097869
0.329361677 0.084830821 0.019212453
0.353751421 0.084828988 0.017039416
0.376531005 0.084950075 0.014631696
0.398521632 0.085370019 0.012377761
0.419657618 0.086098514 0.009954120
0.440256864 0.087206833 0.007449579
0.460504293 0.088730305 0.005221397
0.481000125 0.090629712 0.003297625
0.501674652 0.092719428 0.001510865
0.523449123 0.094662890 0.000348374
0.546506166 0.096140563 0.000023381
0.568908393 0.097215123 0.000000000
0.590192199 0.098252326 0.000000000
0.611299336 0.099142194 0.000000000
0.632007301 0.098373488 0.000000000
0.652367055 0.095480807 0.000000000
0.672920346 0.091028124 0.000000000
0.693413675 0.085913762 0.000000000
0.714055538 0.080873422 0.000000000
0.734789252 0.077203535 0.000000000
0.755541682 0.073660910 0.000000000
0.055929121 0.076613054 0.018454399
0.070543103 0.080784686 0.019540245
0.087179534 0.085513189 0.020794839
0.107241809 0.090071961 0.021392886
0.131116331 0.093890078 0.021348955
0.159305125 0.096897744 0.020828543
0.189296857 0.100063428 0.020823831
0.219295695 0.102791175 0.021508906
0.249979094 0.105050825 0.021583728
0.279744446 0.106653504 0.020918788
0.305654854 0.106967121 0.019078229
0.331424564 0.107355215 0.016958537
0.355889201 0.107826665 0.014562490
0.379475653 0.108305156 0.012147713
0.402395248 0.109190002 0.009889117
0.424320936 0.110272966 0.007436486
0.445558399 0.111814059 0.005040426
0.466787100 0.113654017 0.003031086
0.488404900 0.115699396 0.001600183
0.510866225 0.117834613 0.000573765
0.534442246 0.119922034 0.000066869
0.558457434 0.121685252 0.000000000
0.581339300 0.122917749 0.000000000
0.603091121 0.123846412 0.000000000
0.624390602 0.123796046 0.000000000
0.645281851 0.122101948 0.000000000
0.666242003 0.119567469 0.000000000
0.687084794 0.116775505 0.000000000
0.707862973 0.113451496 0.000000000
0.729080081 0.111873150 0.000000000
0.750471652 0.111499824 0.000000000
0.771994710 0.113064468 0.000000000
0.063088298 0.095133923 0.021048270
0.077029847 0.099380359 0.022177594
0.092934072 0.104267038 0.023369979
0.112488233 0.110200249 0.024398733
0.134491190 0.115448341 0.024813987
0.161666065 0.119456731 0.023716519
0.192244336 0.123159893 0.021274606
0.222125009 0.126143664 0.020382440
0.251332015 0.128284246 0.019699657
0.279918969 0.129719540 0.018584877
0.305251449 0.130067825 0.016553093
0.330863208 0.130583435 0.014270211
0.355516344 0.131483912 0.011865246
0.379931629 0.132650107 0.009547745
0.403970659 0.134040833 0.007359329
0.426706225 0.135501444 0.005049311
0.448917598 0.137232333 0.002881448
0.471706748 0.139338315 0.001435115
0.494999051 0.141702369 0.000548981
0.519243240 0.143841490 0.000084171
0.544289052 0.145831466 0.000000000
0.568936825 0.147315994 0.000000000
0.592316926 0.148061082 0.000000000
0.614749193 0.148392230 0.000000000
0.636658609 0.148089916 0.000000000
0.658232093 0.147024080 0.000000000
0.679771900 0.145486340 0.000000000
0.701325119 0.143936917 0.000000000
0.722851872 0.143551037 0.000000000
0.744729102 0.144878015 0.000000000
0.766640902 0.147489220 0.000000000
0.788503528 0.152031213 0.000000000
0.069223434 0.114258043 0.023814693
0.082922302 0.118642688 0.025052048
0.099260844 0.123971306 0.026105579
0.118707515 0.130112067 0.027118402
0.140422523 0.136513025 0.027837591
0.165700093 0.142407343 0.027114652
0.194725052 0.146963447 0.023989592
0.224397853 0.150073037 0.020101836
0.252866864 0.152099729 0.017379381
0.280028313 0.153365090 0.015596828
0.305174917 0.153856963 0.013305509
0.330222368 0.154536277 0.010903402
0.354933679 0.155556709 0.008522260
0.379519194 0.157101259 0.006327773
0.403977662 0.158870652 0.004352565
0.427304268 0.160830811 0.002635482
0.450403243 0.162970454 0.001234507
0.474814236 0.165514216 0.000413840
0.500375867 0.168366611 0.000197802
0.526261985 0.170815527 0.000033668
0.552232206 0.172853500 0.000000000
0.577840447 0.174146503 0.000000000
0.602313101 0.174743026 0.000000000
0.625643194 0.175089538 0.000000000
0.648358583 0.175089359 0.000000000
0.670525610 0.174707487 0.000000000
0.692741692 0.174097285 0.000000000
0.714866459 0.174150199 0.000000000
0.737175047 0.176538080 0.000000000
0.759756088 0.179802895 0.000000000
0.782075226 0.184633732 0.000000000
0.804189622 0.189949632 0.000000000
0.075172402 0.134264410 0.026406668
0.089319274 0.139072478 0.027614586
0.106072344 0.144869581 0.028695634
0.125284031 0.151517525 0.029851133
0.146938995 0.158439904 0.030700373
0.171004713 0.165783599 0.030768169
0.197575226 0.171712011 0.028937913
0.225069612 0.175174594 0.023513561
0.252601743 0.176924020 0.016617209
0.279440135 0.178168446 0.012342222
0.304712504 0.178867340 0.009789505
0.329900086 0.179983914 0.007351382
0.355061680 0.181295648 0.005149379
0.380166769 0.183054239 0.003473445
0.404306054 0.185197771 0.001919558
0.427593827 0.187517613 0.000875842
0.451653183 0.189968333 0.000224456
0.477217287 0.192411438 0.000000000
0.503821731 0.195087984 0.000000000
0.530998528 0.197729319 0.000000000
0.558008313 0.199931309 0.000000000
0.584698677 0.201562330 0.000000000
0.610530496 0.202698365 0.000000000
0.634708703 0.203537792 0.000000000
0.658065677 0.204288974 0.000000000
0.680967808 0.204616338 0.000000000
0.703856289 0.205063790 0.000000000
0.726900101 0.207658514 0.000000000
0.749781966 0.211227462 0.000000000
0.772957027 0.216099024 0.000000000
0.795757771 0.221541137 0.000000000
0.818371117 0.227679238 0.000000000
0.081546992 0.155890808 0.028793385
0.096228182 0.161399752 0.029906353
0.113043934 0.167505175 0.031227333
0.131919593 0.174315766 0.032581996
0.153358296 0.181542799 0.033472374
0.176381990 0.188781217 0.033306800
0.200161979 0.195375830 0.032184999
0.224700153 0.199791044 0.028281407
0.250665635 0.202162206 0.020502098
0.277650177 0.203917786 0.011884931
0.303759485 0.205376670 0.006260435
0.329153687 0.206808701 0.003827431
0.354661584 0.208589554 0.002009347
0.380302489 0.210697323 0.001209256
0.405509323 0.213092670 0.000552721
0.429356039 0.215646192 0.000224923
0.453907967 0.218313769 0.000049100
0.480186790 0.220837682 0.000000000
0.506982446 0.223260611 0.000000000
0.534217358 0.225881919 0.000000000
0.561612666 0.228429615 0.000000000
0.588995874 0.230591670 0.000000000
0.615684271 0.232332200 0.000000000
0.641071856 0.233746082 0.000000000
0.665407002 0.235204786 0.000000000
0.689167619 0.236335337 0.000000000
0.712724626 0.238509178 0.000000000
0.736475110 0.242666319 0.000000000
0.760159194 0.247653261 0.000000000
0.783977807 0.253476411 0.000000000
0.807410479 0.259371996 0.000000000
0.830708921 0.266386747 0.000000000
0.086926892 0.179180518 0.031584125
0.102815449 0.185300693 0.032143857
0.120010249 0.191775396 0.033385873
0.138585240 0.198635265 0.034618508
0.158830568 0.205444857 0.035278775
0.179929107 0.212195039 0.035377871
0.201447025 0.218419433 0.034301430
0.223406821 0.223354355 0.031525224
0.246931329 0.227395535 0.026718164
0.272918463 0.230680510 0.018130403
0.300297171 0.233189672 0.008599445
0.327341437 0.235478520 0.002481165
0.353288919 0.237822726 0.000276829
0.379091144 0.240421087 0.000008417
0.405490577 0.243218660 0.000000000
0.431702286 0.246002525 0.000000000
0.457616359 0.248824582 0.000000000
0.484242827 0.251601309 0.000000000
0.510939658 0.254175603 0.000000000
0.537332296 0.256606221 0.000000000
0.564137280 0.258981258 0.000000000
0.591336131 0.261408359 0.000000000
0.618194044 0.263540149 0.000000000
0.644266188 0.265416920 0.000000000
0.669721067 0.267938972 0.000000000
0.694326341 0.270325243 0.000000000
0.718750536 0.274217546 0.000000000
0.743365705 0.279320091 0.000000000
0.767687857 0.285169959 0.000000000
0.792087972 0.291548610 0.000000000
0.816218555 0.298377812 0.000000000
0.839640141 0.305553675 0.000000000
0.091774143 0.204428375 0.034221467
0.108421706 0.210910529 0.034108292
0.125827372 0.217444450 0.034820519
0.144158036 0.224261612 0.035745911
0.162844896 0.230372354 0.036199976
0.182308093 0.236632839 0.036517959
0.202218175 0.242510930 0.035660319
0.222298309 0.247737363 0.033893716
0.243889108 0.252660543 0.030768588
0.267439693 0.257475615 0.025549101
0.293213725 0.261826068 0.018123858
0.321112156 0.265253156 0.009125970
0.348883033 0.268363893 0.002611165
0.375882357 0.271458358 0.000130932
0.403048843 0.274809837 0.000000000
0.431355983 0.278363824 0.000000000
0.458910078 0.281536937 0.000000000
0.486095309 0.284532130 0.000000000
0.513041735 0.287483841 0.000000000
0.539522767 0.290274262 0.000000000
0.566239119 0.292714536 0.000000000
0.593026340 0.295068830 0.000000000
0.619813800 0.297286361 0.000000000
0.646262050 0.299429059 0.000000000
0.672224522 0.302667767 0.000000000
0.697191894 0.306445599 0.000000000
0.722244322 0.311599791 0.000000000
0.747360766 0.317546517 0.000000000
0.772287130 0.323952734 0.000000000
0.797183692 0.330738008 0.000000000
0.821512580 0.337948948 0.000000000
0.845156074 0.345185816 0.000000000
0.094872579 0.230674043 0.036159296
0.111359142 0.236877054 0.035667323
0.128399298 0.243268415 0.035333447
0.145976529 0.249493346 0.035490129
0.164122492 0.255424768 0.035604201
0.182805926 0.261588395 0.035544820
0.201862663 0.267690808 0.035124876
0.221178263 0.273620188 0.034316435
0.241172001 0.279302895 0.033100620
0.262918085 0.284694493 0.030222459
0.286245823 0.289940953 0.025965253
0.311647177 0.295435846 0.019274665
0.339710832 0.300127417 0.010754667
0.368221402 0.304052472 0.004228178
0.398016512 0.307811022 0.000855268
0.428732276 0.312174916 0.000149169
0.457921118 0.316150844 0.000000000
0.485457569 0.319629133 0.000000000
0.512603402 0.322903305 0.000000000
0.539475858 0.326095283 0.000000000
0.566371024 0.328906238 0.000000000
0.593394518 0.331512660 0.000000000
0.620372176 0.333990335 0.000000000
0.647359788 0.336481333 0.000000000
0.674320459 0.340733230 0.000000000
0.700034559 0.345438212 0.000000000
0.725145519 0.350952655 0.000000000
0.750136971 0.357157111 0.000000000
0.774870455 0.363578647 0.000000000
0.799674630 0.370359927 0.000000000
0.823906124 0.377377927 0.000000000
0.847740352 0.384518981 0.000000000
0.094943717 0.257293135 0.036823317
0.110850856 0.262869298 0.035803892
0.127480134 0.268955797 0.034912609
0.144812375 0.275349647 0.034325272
0.162812948 0.281828612 0.034126565
0.181683674 0.288335353 0.033916570
0.200536579 0.294744909 0.033423707
0.219581649 0.301087201 0.032758292
0.238976225 0.307358563 0.032021370
0.259307474 0.313187152 0.031249816
0.280693740 0.318698347 0.029850239
0.304332197 0.324295253 0.026933735
0.330352485 0.330427200 0.021094607
0.359060854 0.336884946 0.013072650
0.389526725 0.342666805 0.004990388
0.422262251 0.347744107 0.001263964
0.454049587 0.352180958 0.000203413
0.483142883 0.356066406 0.000000000
0.510662735 0.359669715 0.000000000
0.537661672 0.363131046 0.000000000
0.564783692 0.366344512 0.000000000
0.592103779 0.369427204 0.000000000
0.619650781 0.372644335 0.000000000
0.647129714 0.375664353 0.000000000
0.675037324 0.380774826 0.000000000
0.702216685 0.386421680 0.000000000
0.727873266 0.392083228 0.000000000
0.752693951 0.397881359 0.000000000
0.777130008 0.403930306 0.000000000
0.801431894 0.410356611 0.000000000
0.825003266 0.417021036 0.000000000
0.848772943 0.423703820 0.000000000
0.091798477 0.285227388 0.036833569
0.107800774 0.290429801 0.035494808
0.124352820 0.296124876 0.034188274
0.142117977 0.302613199 0.033274557
0.160235003 0.309449971 0.032447819
0.178851351 0.316113710 0.031867970
0.198026180 0.322664142 0.031201126
0.216965213 0.329366982 0.030492254
0.236255735 0.335979044 0.029744992
0.256154120 0.342598289 0.028926183
0.277098000 0.349004239 0.028155591
0.299303353 0.355099648 0.027576227
0.324080288 0.361169428 0.026411857
0.351164490 0.367910832 0.023556119
0.380375624 0.375119001 0.017905902
0.412191689 0.382476121 0.008694381
0.444561034 0.388733357 0.002463861
0.475789577 0.393597841 0.000127659
0.505334079 0.397398144 0.000000000
0.533420265 0.400891155 0.000000000
0.561162353 0.404266030 0.000000000
0.588860393 0.407693446 0.000000000
0.617220581 0.411880702 0.000000000
0.645603597 0.416298687 0.000000000
0.674051464 0.421851188 0.000000000
0.702323616 0.427954137 0.000000000
0.728676617 0.433809221 0.000000000
0.753751993 0.439531296 0.000000000
0.778230131 0.445341527 0.000000000
0.802343011 0.451281935 0.000000000
0.825993896 0.457652628 0.000000000
0.849477291 0.463927597 0.000000000
0.086649090 0.312897682 0.035252098
0.102977961 0.318366200 0.034000795
0.119729698 0.324361145 0.032872397
0.137248442 0.330914944 0.031967115
0.156038016 0.337630659 0.030952381
0.174476892 0.344363749 0.029820761
0.193841234 0.350973189 0.028828476
0.213331684 0.357802153 0.028002195
0.232513160 0.364797026 0.027244225
0.252721280 0.371898562 0.026482902
0.273816437 0.379314870 0.025814669
0.296692461 0.386833429 0.025076326
0.320898443 0.394206852 0.024175730
0.347034812 0.401281863 0.023365343
0.374262273 0.408241272 0.023269935
0.403137624 0.415336967 0.021000125
0.433955878 0.422728091 0.014846325
0.464630157 0.429762989 0.007878839
0.494954973 0.435525000 0.003008166
0.524342000 0.439768314 0.000844511
0.553400338 0.443522274 0.000000000
0.582701087 0.447158992 0.000000000
0.612049401 0.451728463 0.000000000
0.641829729 0.457298100 0.000000000
0.671216130 0.463230461 0.000000000
0.700208604 0.469425887 0.000000000
0.727357507 0.475492746 0.000000000
0.752858043 0.481323451 0.000000000
0.777443826 0.487116426 0.000000000
0.801624060 0.493075162 0.000000000
0.825456917 0.499111056 0.000000000
0.848948896 0.505155861 0.000000000
0.080492504 0.341451764 0.033502281
0.098084591 0.347176492 0.031793658
0.114667639 0.353257328 0.030677890
0.131646574 0.359705299 0.029768869
0.150140300 0.366392165 0.028755080
0.168798909 0.372965783 0.027612228
0.188126922 0.379586637 0.026482455
0.208394706 0.386706233 0.025505148
0.228836000 0.394311368 0.024704574
0.249522671 0.402217537 0.023924593
0.271482497 0.410439134 0.023276459
0.294625252 0.418920130 0.022655958
0.318990380 0.427121997 0.021720702
0.344123811 0.435125023 0.020547478
0.370703429 0.442802250 0.019766584
0.398153037 0.450342029 0.019212918
0.426437169 0.457468539 0.018350175
0.455379009 0.464482993 0.016406255
0.484170616 0.471373737 0.012344101
0.513050139 0.477448940 0.007283567
0.542213202 0.482815832 0.003216720
0.572264731 0.488141090 0.001038107
0.602775872 0.493437439 0.000000000
0.633778274 0.499287963 0.000000000
0.664712131 0.505323231 0.000000000
0.694928169 0.511252284 0.000000000
0.723406553 0.517295241 0.000000000
0.749970257 0.523127794 0.000000000
0.775275648 0.528933644 0.000000000
0.799378276 0.535026670 0.000000000
0.823252320 0.540923119 0.000000000
0.846680582 0.546894670 0.000000000
0.072703876 0.369647503 0.032454804
0.093045212 0.375491619 0.030110206
0.108872026 0.381961584 0.028684918
0.125465080 0.388631433 0.027399916
0.142937228 0.395439595 0.026263615
0.161097959 0.402065426 0.025335856
0.180991858 0.409002930 0.024262227
0.202675059 0.416693538 0.023211949
0.225154892 0.425301731 0.022258036
0.247523397 0.434026599 0.021329312
0.270150781 0.442982703 0.020509135
0.293511957 0.451793164 0.019616013
0.317456752 0.460467577 0.018511014
0.342264384 0.468750179 0.017471028
0.367662400 0.476832151 0.016842078
0.394276142 0.484638691 0.016371664
0.421552956 0.492357016 0.015576734
0.449048340 0.499668390 0.015047394
0.477031827 0.506852388 0.014654579
0.504820049 0.514084458 0.013600118
0.532479107 0.520801187 0.010281928
0.561516821 0.528129518 0.006237987
0.591517985 0.535310984 0.003286399
0.622383475 0.541979611 0.001391622
0.653321743 0.548267961 0.000538692
0.684417129 0.554187179 0.000089782
0.714901507 0.560016513 0.000000000
0.743535638 0.565728068 0.000000000
0.770586789 0.571365595 0.000000000
0.795320988 0.577207863 0.000000000
0.819553554 0.582847536 0.000000000
0.842714906 0.588483095 0.000000000
0.064547248 0.397834986 0.033421356
0.086163335 0.404070228 0.030048942
0.102184251 0.410653979 0.028459098
0.119086027 0.417791039 0.026906084
0.136678159 0.425071001 0.025338657
0.154721171 0.432402611 0.023849297
0.174866781 0.440066904 0.022323944
0.197990060 0.448393345 0.021126406
0.221638054 0.457324535 0.019946145
0.245395705 0.466474414 0.018752318
0.268881649 0.475719333 0.017609432
0.292311758 0.484872073 0.016409101
0.316058815 0.493672788 0.014991304
0.340323299 0.502336979 0.013587968
0.365296036 0.510608912 0.012948251
0.390685827 0.518728733 0.012473616
0.417365372 0.526569426 0.012199606
0.444024891 0.534444571 0.012663495
0.471485645 0.542335212 0.012694320
0.499487549 0.550539851 0.013493517
0.526398599 0.558558106 0.014333799
0.553481758 0.566500187 0.014451629
0.581970513 0.574810326 0.013070313
0.611217320 0.582539976 0.010089221
0.640783131 0.589852571 0.006957639
0.670984447 0.596531928 0.004245470
0.701703429 0.602689028 0.002818311
0.731587052 0.608715236 0.001073175
0.760497928 0.614457607 0.000000000
0.787507832 0.619967282 0.000000000
0.812901318 0.625146329 0.000000000
0.836447954 0.629928887 0.000000000
0.056313474 0.428788930 0.037371803
0.077556908 0.435159475 0.033563577
0.096221358 0.441374362 0.031075874
0.114907697 0.448547006 0.028575474
0.133380443 0.456294179 0.026163528
0.151598796 0.464074284 0.023977423
0.171688512 0.472139329 0.021826422
0.194168746 0.480720550 0.019933527
0.218659401 0.489748716 0.017989617
0.242976114 0.498905540 0.016204726
0.266935199 0.508142412 0.014682166
0.290849000 0.517449975 0.013088542
0.314520150 0.526579440 0.011369140
0.338553637 0.535449624 0.009717982
0.362954527 0.544159293 0.008488158
0.387918055 0.552546203 0.007839090
0.413524777 0.561018646 0.007738560
0.440024853 0.569772243 0.008870658
0.466954857 0.578720868 0.010033624
0.494499654 0.587641954 0.011765183
0.521561444 0.596255422 0.013616935
0.547967374 0.604677737 0.016205216
0.575004637 0.613014340 0.019222241
0.602277517 0.621045589 0.021616915
0.629783392 0.628727436 0.022786885
0.658011734 0.636153162 0.022835020
0.687468410 0.643299460 0.019457931
0.717254937 0.650270164 0.015466380
0.746621430 0.656955004 0.012722406
0.775237739 0.662789941 0.008560142
0.801521242 0.667772412 0.003307909
0.826149166 0.672010243 0.001195223
0.048010498 0.463679463 0.043476548
0.069696270 0.469139040 0.039607964
0.092405155 0.473990500 0.035975542
0.113408163 0.480507642 0.032749873
0.132769763 0.488023400 0.029738473
0.150617197 0.495987743 0.026669033
0.169728175 0.504030645 0.023495818
0.191168740 0.512699425 0.020383343
0.214630410 0.521739364 0.017704844
0.239850104 0.531005263 0.015096485
0.264542699 0.540465653 0.012706976
0.288925499 0.550007105 0.010311864
0.312991381 0.559379876 0.008267436
0.336712331 0.568602622 0.006440460
0.360972553 0.577973485 0.004915101
0.385262817 0.587424457 0.003865306
0.410553783 0.596690774 0.003554808
0.436154664 0.606362820 0.004751905
0.462916106 0.616146922 0.006709339
0.489890397 0.625580251 0.009316766
0.516384363 0.634676158 0.012404420
0.542862058 0.643112123 0.016319744
0.569189608 0.651414216 0.020110276
0.595511019 0.659388542 0.024499269
0.621902943 0.666981876 0.029831054
0.648455799 0.674406409 0.035509765
0.675601244 0.681761682 0.039863288
0.703341901 0.689066172 0.042494088
0.731249034 0.696315765 0.043388143
0.759738326 0.703045487 0.038950488
0.786774337 0.708656847 0.031621113
0.812316716 0.713393331 0.025336331
0.036782172 0.500004470 0.051476508
0.061143614 0.503461540 0.046604857
0.087490514 0.507104576 0.041748680
0.111950226 0.512894154 0.037793577
0.132642776 0.520190120 0.034700766
0.151173592 0.528093040 0.031481709
0.169431597 0.536177933 0.027713671
0.188929603 0.544874310 0.023636535
0.210833490 0.553780794 0.020117730
0.235918388 0.563101649 0.016655071
0.261548191 0.572830915 0.013105413
0.286632270 0.582565844 0.010373583
0.310670197 0.592351198 0.008317932
0.334743410 0.602094471 0.006322159
0.358529747 0.612322390 0.004452162
0.382769108 0.622944295 0.003039031
0.407310575 0.633546472 0.002159447
0.432687283 0.643878102 0.002501275
0.458481818 0.654223561 0.004044875
0.485279500 0.664017200 0.007306488
0.511335731 0.673144400 0.011032001
0.537072241 0.681733847 0.015945693
