Desert Affinity Presets/Desert Affinity Preset #17.cube
TITLE "32x32x32 Adobe/IRIDAS cube 3D LUT exported with GrossGrade v0.1.027.1 (beta) 64 bit"
LUT_3D_SIZE 8
DOMAIN_MIN 0.000000 0.000000 0.000000
DOMAIN_MAX 0.903226 0.903226 0.903226
0.137741446 0.062550567 0.000000000
0.173016757 0.074206777 0.000000000
0.229633987 0.079828441 0.000000000
0.324343920 0.074801110 0.000000000
0.466697752 0.056710057 0.000000000
0.641302228 0.029838551 0.000000000
0.820080161 0.001819028 0.000000000
0.991454959 0.000000000 0.000000000
0.196887612 0.126117930 0.000000000
0.209341735 0.147820801 0.000000000
0.291710645 0.150084257 0.000000000
0.415325165 0.138328746 0.000000000
0.573345780 0.117086217 0.000000000
0.751959443 0.090588704 0.000000000
0.925281286 0.066125363 0.000000000
0.995161295 0.046166215 0.000000000
0.195568129 0.211069331 0.000000000
0.230187729 0.227344662 0.000000000
0.285621405 0.238986880 0.000000000
0.400690466 0.235740751 0.000000000
0.569484830 0.216320202 0.000000000
0.754559875 0.192123771 0.000000000
0.930742502 0.171689823 0.000000000
0.995161295 0.156612605 0.000000000
0.169019163 0.311339438 0.000000000
0.223691389 0.324508101 0.000000000
0.286428839 0.336828142 0.000000000
0.377511889 0.344790190 0.000000000
0.524707019 0.340345532 0.000000000
0.712637246 0.325152695 0.000000000
0.901657224 0.309802175 0.000000000
0.995161295 0.298549086 0.000000000
0.142257109 0.427828401 0.000000000
0.207073480 0.444669008 0.000000000
0.277839452 0.461910248 0.000000000
0.370123118 0.475491583 0.000000000
0.500942945 0.481489748 0.000000000
0.668947935 0.479283601 0.000000000
0.850797832 0.473504990 0.000000000
0.995161295 0.467511266 0.000000000
0.118085429 0.568502963 0.000000000
0.190792799 0.589368403 0.000000000
0.268646598 0.610158384 0.000000000
0.365703672 0.626964629 0.000000000
0.494121611 0.636359572 0.000000000
0.647033513 0.640415609 0.000000000
0.808556497 0.642603636 0.000000000
0.973987043 0.642586350 0.000000000
0.114509687 0.720706940 0.000000000
0.192890674 0.743246078 0.000000000
0.275175065 0.765024900 0.000000000
0.374795705 0.781922102 0.000000000
0.502296388 0.790482581 0.000000000
0.647209108 0.793957472 0.000000000
0.791639209 0.797309279 0.000000000
0.935517371 0.799668133 0.000000000
0.130803868 0.872269869 0.000000000
0.210838154 0.893172204 0.000000000
0.293091297 0.912580669 0.000000000
0.391032964 0.926287651 0.000000000
0.514979243 0.931410253 0.000000000
0.654493511 0.931218207 0.000000000
0.788771152 0.932500541 0.000000000
0.917512059 0.935177922 0.000000000
0.144060016 0.067509592 0.006451614
0.144431978 0.088285252 0.006451614
0.204780579 0.088672005 0.006451614
0.306330711 0.079592288 0.006451614
0.453096777 0.058637977 0.006451614
0.630097508 0.029661769 0.006451614
0.809789479 0.001250408 0.006451614
0.982634127 0.000000000 0.007302674
0.198040694 0.132506922 0.006451614
0.211533040 0.148368508 0.006451614
0.295141488 0.145902768 0.006451614
0.410894185 0.135128871 0.006451614
0.564900398 0.114458688 0.006451614
0.740649998 0.088458680 0.006451614
0.911388516 0.064653344 0.006451614
0.995161295 0.045597553 0.006451614
0.202840954 0.212407917 0.006451614
0.232199654 0.225684240 0.006451614
0.286389410 0.237045452 0.006451614
0.413225859 0.229238451 0.006451614
0.579742908 0.208799392 0.006451614
0.758703291 0.185935259 0.006451614
0.930657864 0.167022496 0.006451614
0.995161295 0.153350115 0.006451614
0.178548351 0.309832335 0.006451614
0.226933584 0.322462022 0.006451614
0.290078759 0.335179061 0.006451614
0.379511237 0.343754858 0.006451614
0.533917665 0.337445766 0.006451614
0.728080332 0.319876522 0.006451614
0.915933907 0.304350615 0.006451614
0.995161295 0.293910086 0.006451614
0.153061673 0.426820755 0.006451614
0.211727127 0.444053411 0.006451614
0.283320755 0.461702228 0.006451614
0.375235200 0.475716621 0.006451614
0.504811585 0.482178569 0.006451614
0.677024126 0.479064882 0.006451614
0.865637243 0.471036404 0.006451614
0.995161295 0.463490099 0.006451614
0.129533693 0.568598390 0.006451614
0.196755126 0.589978397 0.006451614
0.275294393 0.611074805 0.006451614
0.372584760 0.628027737 0.006451614
0.499885112 0.637453735 0.006451614
0.651596546 0.641691923 0.006451614
0.815390289 0.643047690 0.006451614
0.984828353 0.640926659 0.006451614
0.126557156 0.721431494 0.006451614
0.199774310 0.744330764 0.006451614
0.282224149 0.766007662 0.006451614
0.381802946 0.782622933 0.006451614
0.508421183 0.791031480 0.006451614
0.651967049 0.794258595 0.006451614
0.795019627 0.797349811 0.006451614
0.940006375 0.798750222 0.006451614
0.142484963 0.872381270 0.006451614
0.217452735 0.893520296 0.006451614
0.299395084 0.912571073 0.006451614
0.396972597 0.925860286 0.006451614
0.520331562 0.930486262 0.006451614
0.658839822 0.930182159 0.006451614
0.791696668 0.931271136 0.006451614
0.919572532 0.933872879 0.006451614
0.143370658 0.070348047 0.012903227
0.138014928 0.092604108 0.012903227
0.174552307 0.099484861 0.012903227
0.271594584 0.087513261 0.027336631
0.423289269 0.062316295 0.080355294
0.604118645 0.030359905 0.112777315
0.785876691 0.001073648 0.137607053
0.959156454 0.000000000 0.159476936
0.163512588 0.144026592 0.012903227
0.180194259 0.156635448 0.012903227
0.258764774 0.151950806 0.022532346
0.377231091 0.136885300 0.071502894
0.535735786 0.113593809 0.094113015
0.713540733 0.086381547 0.105582729
0.885044932 0.062250279 0.116933540
0.995161295 0.043263711 0.131346256
0.187260225 0.222147986 0.012903227
0.228657037 0.228772447 0.012903227
0.283771038 0.231649429 0.032560360
0.410337031 0.220677420 0.050818376
0.567776680 0.202612117 0.061871886
0.742716432 0.181457341 0.069785818
0.912802696 0.163824186 0.081152543
0.995161295 0.151115537 0.097376890
0.187949613 0.312424392 0.012903227
0.236630827 0.319181323 0.014328523
0.291201174 0.330323249 0.046485949
0.378528535 0.339718968 0.043510035
0.544507265 0.329430759 0.024855476
0.736716151 0.311091751 0.030823171
0.918839633 0.297050476 0.045734935
0.995161295 0.288048744 0.066115975
0.166459188 0.427071542 0.012903227
0.221778557 0.440772027 0.018439785
0.285836071 0.458410025 0.047870584
0.377886683 0.472781092 0.053339310
0.505511642 0.479691297 0.042518251
0.684770346 0.474665850 0.021159442
0.879166186 0.463988930 0.019947365
0.995161295 0.455785453 0.024105407
0.144226357 0.568150461 0.012903227
0.206968755 0.587309897 0.020764774
0.278842807 0.608750463 0.047802716
0.376379550 0.625656366 0.055667091
0.502862275 0.635211587 0.056296967
0.652890384 0.639684379 0.039116323
0.820292830 0.639715075 0.020905038
0.992253006 0.634738445 0.017235195
0.141578868 0.720245123 0.012903227
0.209860310 0.741784573 0.034497209
0.286115259 0.763679862 0.062050544
0.385488242 0.779942691 0.069966763
0.511666834 0.788054645 0.069915339
0.653643668 0.791054070 0.062754266
0.794995785 0.793990195 0.041970171
0.941888094 0.794243753 0.021353953
0.156910941 0.870065212 0.019075742
0.226424202 0.890056312 0.062724315
0.302357346 0.909114540 0.085235752
0.399407148 0.921905160 0.089827418
0.522556245 0.926285803 0.085750602
0.660108149 0.925862312 0.076715410
0.791543663 0.926656663 0.063280344
0.918196321 0.929130673 0.039490864
0.138624355 0.074523382 0.019354852
0.130332679 0.096229203 0.019354852
0.165073901 0.103677608 0.025344048
0.247689873 0.095836565 0.100384921
0.389753491 0.070258714 0.184608698
0.570496798 0.035686970 0.244357541
0.753837347 0.002403077 0.287961751
0.928012311 0.000000000 0.322801471
0.124624886 0.156250030 0.019354852
0.144818664 0.166310340 0.044628520
0.230801105 0.157516435 0.130328387
0.340631127 0.145237818 0.184028804
0.493065625 0.120342486 0.241346508
0.673868775 0.090624243 0.273069710
0.847805679 0.065133080 0.294953704
0.993382514 0.045664895 0.315312326
0.127581388 0.241506532 0.019354852
0.165748745 0.248281166 0.035357080
0.232736349 0.245205835 0.142712414
0.371396899 0.226598248 0.205286860
0.530819535 0.205463216 0.245530695
0.710736096 0.182867974 0.262567967
0.883957684 0.164709345 0.278760076
0.995161295 0.151706666 0.298589796
0.161347926 0.326934516 0.019354852
0.222671792 0.331129134 0.026060432
0.290273130 0.335442960 0.113284759
0.378113568 0.336218297 0.202435270
0.543700278 0.323288858 0.218545854
0.727276742 0.307606697 0.231851801
0.905294299 0.295207739 0.248381689
0.995161295 0.287201107 0.269251823
0.172518224 0.436182678 0.019354852
0.235463977 0.446212322 0.051121354
0.299115181 0.457856745 0.155188635
0.381641746 0.470259428 0.212627500
0.506889820 0.477849066 0.208052129
0.697456956 0.468749762 0.190636024
0.889492512 0.457086265 0.203909338
0.995161295 0.449939638 0.226169631
0.159970567 0.574753046 0.019354852
0.223943070 0.590018690 0.093833297
0.291714489 0.607297897 0.181411892
0.380844742 0.623834968 0.218675032
0.507018745 0.633482218 0.220342904
0.654665112 0.638163090 0.208290786
0.828366995 0.635726988 0.183159351
0.993870676 0.627638340 0.181098014
0.159395844 0.724675655 0.042064063
0.226994604 0.742404997 0.137749925
0.297906667 0.761529863 0.206789628
0.389664531 0.777629554 0.234391794
0.515682757 0.785536051 0.234568566
0.656176865 0.788202405 0.229367360
0.795197606 0.790847957 0.211070463
0.945601404 0.789706886 0.183033213
0.174664944 0.871842921 0.100901328
0.242222354 0.888570130 0.181165993
0.312119305 0.905585825 0.234602302
0.402280003 0.918299973 0.253926873
0.525176346 0.922464728 0.250003368
0.662293315 0.921842217 0.241003916
0.792187691 0.922442317 0.230876327
0.917473078 0.925027966 0.208945930
0.128198847 0.078895077 0.025806461
0.117164887 0.099938922 0.032551326
0.152749777 0.105769105 0.116024844
0.235096738 0.098053299 0.200109795
0.368163317 0.075310402 0.282046437
0.537799418 0.042097978 0.363137662
0.717040300 0.007863895 0.429765165
0.890135109 0.000000000 0.482038826
0.081884086 0.167846993 0.049472939
0.104562342 0.176149473 0.150996491
0.189229786 0.166003227 0.255072743
0.313462645 0.148829192 0.316063195
0.459278375 0.127172038 0.363849521
0.629362106 0.098601244 0.419404685
0.802045763 0.071869098 0.461605698
0.962569058 0.051137406 0.494430780
0.060940579 0.260378152 0.048754189
0.102234684 0.265399814 0.145097777
0.179804683 0.258448005 0.263553381
0.332531363 0.233487219 0.351693600
0.490090251 0.214260578 0.385146767
0.664627254 0.190937355 0.432768732
0.841851890 0.170635939 0.466333330
0.993331969 0.156235307 0.494959116
0.096857533 0.348198473 0.026668742
0.156027853 0.353097498 0.111951940
0.221606880 0.357730418 0.212072954
0.323642969 0.352101386 0.328771770
0.505786180 0.330547959 0.391265720
0.691806257 0.311991334 0.433377326
0.874446750 0.297912002 0.458499521
0.995161295 0.289100766 0.483568609
0.138196588 0.454153746 0.025806461
0.209252551 0.463055313 0.096944742
0.285951704 0.472037703 0.195330888
0.381940812 0.476968169 0.291766971
0.507646263 0.475385636 0.383541912
0.697457314 0.463433206 0.400520593
0.880288184 0.454058856 0.420034438
0.995161295 0.448251367 0.443079948
0.157746330 0.587776482 0.025806461
0.231771544 0.600574017 0.121023268
0.306916326 0.613522828 0.231399581
0.395112425 0.623487294 0.338777512
0.511022866 0.630917966 0.393700957
0.655653954 0.635837913 0.386907250
0.839950621 0.628791988 0.372013271
0.994740427 0.619398355 0.387985826
0.172706947 0.734169900 0.068887837
0.243776932 0.748910785 0.183414310
0.315056294 0.763359666 0.294072121
0.402051806 0.774925292 0.379081905
0.518953741 0.782161117 0.408478916
0.658514559 0.784494877 0.403429955
0.794644177 0.786942184 0.389507890
0.951294422 0.783316016 0.363305807
0.191419929 0.877846062 0.144657314
0.259146690 0.891179621 0.253452778
0.327595532 0.903938293 0.346615434
0.411992580 0.913765848 0.407628596
0.527076721 0.917838514 0.423506409
0.663850009 0.916887701 0.414570063
0.792516053 0.917404294 0.406712085
0.915972531 0.920135260 0.387838721
0.111851469 0.083580114 0.037514057
0.098147646 0.103989787 0.127793461
0.132913545 0.108559474 0.232329652
0.219384685 0.098534405 0.325896621
0.352563560 0.076124966 0.405125588
0.516395509 0.045259997 0.481040001
0.684365034 0.013196583 0.561102509
0.851023018 0.000000000 0.631160378
0.035307255 0.179442465 0.156936705
0.059880879 0.186194852 0.268610388
0.142028987 0.175582319 0.385047972
0.275313109 0.153987035 0.465026468
0.431056172 0.130184904 0.509067357
0.596815705 0.104580045 0.552113414
0.757813036 0.080306761 0.608567834
0.915068805 0.059378661 0.659121573
0.001445399 0.277968198 0.161468476
0.040753044 0.280605972 0.268412381
0.125336379 0.271375626 0.392745942
0.277551681 0.245356381 0.498155683
0.456642509 0.219716787 0.539892733
0.628076732 0.199474722 0.573833466
0.795679152 0.180469230 0.629201591
0.962267101 0.164808959 0.677430987
0.024574572 0.369457513 0.125627667
0.084409595 0.374321789 0.225821331
0.154513687 0.377339482 0.336665988
0.268468827 0.367890716 0.463287085
0.466331661 0.339551032 0.553583682
0.652404845 0.322344422 0.588610291
0.829412580 0.307325840 0.643722832
0.992849350 0.296398371 0.685781956
0.073710196 0.477599084 0.090545788
0.142922699 0.487251818 0.190937683
0.217142552 0.496792823 0.295569807
0.311139256 0.501965106 0.402171552
0.451835722 0.493516952 0.522460699
0.660293698 0.471548855 0.586904645
0.844886303 0.458761662 0.634185016
0.994594514 0.451191157 0.665218353
0.118343949 0.608350217 0.078616083
0.197364002 0.620412707 0.181546018
0.280583858 0.631670237 0.285534799
0.382150352 0.638625324 0.386782467
0.511565506 0.637981772 0.481674373
0.655931056 0.632792711 0.572943866
0.838828504 0.622449100 0.591464996
0.993747234 0.615051329 0.612904370
0.161918506 0.749440014 0.109443076
0.241949007 0.761928439 0.218119502
0.322827607 0.773288250 0.327960461
0.416880429 0.780175686 0.435998172
0.532120347 0.780271769 0.536183774
0.660666406 0.779939830 0.584513247
0.793427706 0.782375395 0.575342655
0.960744023 0.774197817 0.559333086
0.198411867 0.888098717 0.173683167
0.271232396 0.898778558 0.286066264
0.342712045 0.908335805 0.398008883
0.427297354 0.913491726 0.501080334
0.537290394 0.912855864 0.574861646
0.664766252 0.911222398 0.595509708
0.792877853 0.911745548 0.588263094
0.913853943 0.914621949 0.574287534
0.091360375 0.090636417 0.111451402
0.075046085 0.110320583 0.219096974
0.108140133 0.113884248 0.336898535
0.197838262 0.101544425 0.443904608
0.335493475 0.077438034 0.527984619
0.499157012 0.047167875 0.599636912
0.663105190 0.017127354 0.671734691
0.819052517 0.000000000 0.749439001
0.000000000 0.192861453 0.252707750
0.013027696 0.198244438 0.373278886
0.093456492 0.187345117 0.498871028
0.229212865 0.163586333 0.594973445
0.397090673 0.135543346 0.648673892
0.568691969 0.109435238 0.683590591
0.727064073 0.087811999 0.726292312
0.874883413 0.069591813 0.786176383
0.000000000 0.296182752 0.263359785
0.006451614 0.296554327 0.378363013
0.071449608 0.285821021 0.506277800
0.221149221 0.260288805 0.620524049
0.412821919 0.229674593 0.682969153
0.598136425 0.206558004 0.712515950
0.763991296 0.190274537 0.753684580
0.920460880 0.176937416 0.816140711
0.000000000 0.391349554 0.223495781
0.016464669 0.395418942 0.330700755
0.092875354 0.396518797 0.450330377
0.214347601 0.385304123 0.582001925
0.411628693 0.355963141 0.690709889
0.620858431 0.331383437 0.735187888
0.795630813 0.319057912 0.775765240
0.959456623 0.309414446 0.839154422
0.003749344 0.503390968 0.181258395
0.070253037 0.513326108 0.286804825
0.145151809 0.522567987 0.397823125
0.243976444 0.525845230 0.515257239
0.397041708 0.513078749 0.645263374
0.621856749 0.483459026 0.738614261
0.807512879 0.471488476 0.778055668
0.976034880 0.462749541 0.838268280
0.055674721 0.635115206 0.151773214
0.133230731 0.647594392 0.257625192
0.214478195 0.659284472 0.365720004
0.313448936 0.666499436 0.472947478
0.440478295 0.665476501 0.577477038
0.599755645 0.652542889 0.696996748
0.802342474 0.631380379 0.763292611
0.972911716 0.620302439 0.811832964
0.120582573 0.772725165 0.160444617
0.203514189 0.784298539 0.266338706
0.289189249 0.794546604 0.372041434
0.391134232 0.799387991 0.473129332
0.519224703 0.795754015 0.566330791
0.660824299 0.786691308 0.654601455
0.793390870 0.778977811 0.744748235
0.959322810 0.767514825 0.762096643
0.181023315 0.905514419 0.202651605
0.260627985 0.914101005 0.308681607
0.340777159 0.921220481 0.414358050
0.434852540 0.923229873 0.516440153
0.551822484 0.917794526 0.613384545
0.677806556 0.909123838 0.705975950
0.795060277 0.907236099 0.753286421
0.912990153 0.910340607 0.744514644
0.066891849 0.100367650 0.174465135
0.048261117 0.119307034 0.294819146
0.079675421 0.121898293 0.425348818
0.170694098 0.107942216 0.545379341
0.313386172 0.081516072 0.638698399
0.480842590 0.050182629 0.711022973
0.644232988 0.021089939 0.777401447
0.797519386 0.000005611 0.845135808
0.000000000 0.208442807 0.332074761
0.006451614 0.212512508 0.460402519
0.044296578 0.201304168 0.593073964
0.179883018 0.176750630 0.700898290
0.356007934 0.145258725 0.767826319
0.537560344 0.116434678 0.804306388
0.699699879 0.095157757 0.837905347
0.847569704 0.078935221 0.885712385
0.000000000 0.315516800 0.348508388
0.006451614 0.313850552 0.469496399
0.020507585 0.302200049 0.599870265
0.166483030 0.277351558 0.719420195
0.361863226 0.244618297 0.798852861
0.562374771 0.216695443 0.839125931
0.736850798 0.199517146 0.872672617
0.892928123 0.188448027 0.921539724
0.000000000 0.414165050 0.305982053
0.006451614 0.417233855 0.419675827
0.035069615 0.416646630 0.545743644
0.161436096 0.404502928 0.680556476
0.355644792 0.375744492 0.798761845
0.578223228 0.345666736 0.865096033
0.768008173 0.329920828 0.901415050
0.930491984 0.322612792 0.949539542
0.000000000 0.530516803 0.258504301
0.008009710 0.540149391 0.369133055
0.077579550 0.548558176 0.487326235
0.183085009 0.549552262 0.613419414
0.343598694 0.534371138 0.747697592
0.567607224 0.503389001 0.859620035
0.777448714 0.483357042 0.908917367
0.943945229 0.476751000 0.953401625
0.000000000 0.664685130 0.220895469
0.061344951 0.677205801 0.331123203
0.142231479 0.688967347 0.444149435
0.241790667 0.695421696 0.557256341
0.373419493 0.691778421 0.671918750
0.545144320 0.674010158 0.800550342
0.764278471 0.644647300 0.896013021
0.935811043 0.633544147 0.935680926
0.059892647 0.801572502 0.212353140
0.141482681 0.813132107 0.319998831
0.225424141 0.823433340 0.428094596
0.324939430 0.828211963 0.532627046
0.449851990 0.824254751 0.631106973
0.588878036 0.814620495 0.728820562
0.736546338 0.799058557 0.847485244
0.922754705 0.776319742 0.913028717
0.137932137 0.930002332 0.234083742
0.219251722 0.937804401 0.337898701
0.302083135 0.943960905 0.440485507
0.400655091 0.944660723 0.538025320
0.525417030 0.937084615 0.627768040
0.664813638 0.925089359 0.713678479
0.795806885 0.914803505 0.802031279
0.913691700 0.907628655 0.894346595
