Desert Affinity Presets/Desert Affinity Preset #27.cube
TITLE "32x32x32 Adobe/IRIDAS cube 3D LUT exported with GrossGrade v0.1.027.1 (beta) 64 bit"
LUT_3D_SIZE 8
DOMAIN_MIN 0.000000 0.000000 0.000000
DOMAIN_MAX 0.903226 0.903226 0.903226
0.002087435 0.001710532 0.002957198
0.087186843 0.018194940 0.019378925
0.175620720 0.027225491 0.028906118
0.297259480 0.026807450 0.032935519
0.423209965 0.010952934 0.026625521
0.526372850 0.008040178 0.014425958
0.652114809 0.000098200 0.004499860
0.771092594 0.000000000 0.005195200
0.035102941 0.079975188 0.018151451
0.112076901 0.088867858 0.024840206
0.225239500 0.093492091 0.030994948
0.354280323 0.087184846 0.027885297
0.474696398 0.075262599 0.016778059
0.605228961 0.058610793 0.008426424
0.733998358 0.008207974 0.008622358
0.854722142 0.009146953 0.024403928
0.053187966 0.159201473 0.027765568
0.134892821 0.175899193 0.033071131
0.248997375 0.188661620 0.023550995
0.382391602 0.180761054 0.011595904
0.526249647 0.177967221 0.007457061
0.678695500 0.154827774 0.007021241
0.819297016 0.142333210 0.014246367
0.948307097 0.184547901 0.079935037
0.059920214 0.264596313 0.035035115
0.149858415 0.277102798 0.034114860
0.251388103 0.292640060 0.033551410
0.402713507 0.300168842 0.000177694
0.566713750 0.295097232 0.000248772
0.728442788 0.289327800 0.000003741
0.880883455 0.305729866 0.021619242
0.981145799 0.357008070 0.156531498
0.036728386 0.373409390 0.031551376
0.151046261 0.386990339 0.026783563
0.270538151 0.405963004 0.023907734
0.422134161 0.428796649 0.018085930
0.604331672 0.435299397 0.000000000
0.773691177 0.442221224 0.000000000
0.924279273 0.459486753 0.023989091
0.990162849 0.505230606 0.250851095
0.043959066 0.498481959 0.025454603
0.168614194 0.507549763 0.018073795
0.312357455 0.530524194 0.011185806
0.466524333 0.557687998 0.012432034
0.634359837 0.585428178 0.002970757
0.810281992 0.596096575 0.000000000
0.950667977 0.602873981 0.017852588
0.991922736 0.626406789 0.254108787
0.064486504 0.626667321 0.024181752
0.212534055 0.636364758 0.016475052
0.368159592 0.661094368 0.005697888
0.523914278 0.695009828 0.016360004
0.676080406 0.722371280 0.054158676
0.834686995 0.738231480 0.015243801
0.968004227 0.742492974 0.054394871
0.991690874 0.754025638 0.271773368
0.090770684 0.766626954 0.039252520
0.259761870 0.779471576 0.031698205
0.427565366 0.798327625 0.029641157
0.576774120 0.823240221 0.065274388
0.718231261 0.844611526 0.102718771
0.853239298 0.864065886 0.144970253
0.979950130 0.877448022 0.207324192
0.990762472 0.886919200 0.334225506
0.100066341 0.017401859 0.026348621
0.123562761 0.020335658 0.033675682
0.199593782 0.026049452 0.046127360
0.312851250 0.020672787 0.053467505
0.426016629 0.008639187 0.051070530
0.525006235 0.006857110 0.044747412
0.647200823 0.000193126 0.039388567
0.764714301 0.000000000 0.036905080
0.041866023 0.059553500 0.084999807
0.091794655 0.079661928 0.061811678
0.196992591 0.089728281 0.069465078
0.316574901 0.089467384 0.071280830
0.436087281 0.082367994 0.065981857
0.566740990 0.070405014 0.061886471
0.700953305 0.018898137 0.061732575
0.825854480 0.012803691 0.075697929
0.031107137 0.160216361 0.059432384
0.127366990 0.167131811 0.058749199
0.239151165 0.183981776 0.067542233
0.372574061 0.180059999 0.064788468
0.510956883 0.179352835 0.063197643
0.659733355 0.160971448 0.065683961
0.797739327 0.147510007 0.079517901
0.926008701 0.180012301 0.118601948
0.048723150 0.269768059 0.045218818
0.147494495 0.275664538 0.048241448
0.247034788 0.287504345 0.064404085
0.399910390 0.303188771 0.036372893
0.566281676 0.299290836 0.039606027
0.724050224 0.295012563 0.054005753
0.874980927 0.311551899 0.088421300
0.981036603 0.355670810 0.178954616
0.024573177 0.380284071 0.039199673
0.149731517 0.390739053 0.033215571
0.273783207 0.405240059 0.039121546
0.421117514 0.429988980 0.054761395
0.606554210 0.444100976 0.011060901
0.776759088 0.451571614 0.015466779
0.924305916 0.467283398 0.090006925
0.990577757 0.511250257 0.276192516
0.036308907 0.506493807 0.032289214
0.168672919 0.512940109 0.024189658
0.318643063 0.532452285 0.018654989
0.469748318 0.559674501 0.032749832
0.635316193 0.592341244 0.033263706
0.812746644 0.605641186 0.006810743
0.953372061 0.612834334 0.074497081
0.992229402 0.633977890 0.280290991
0.054688521 0.636061072 0.031970751
0.211812109 0.643306971 0.023636034
0.373975843 0.665071666 0.011980227
0.529482067 0.697628081 0.026161600
0.679564059 0.727421582 0.068315238
0.835298657 0.746294141 0.050567340
0.969457686 0.751946747 0.090367898
0.991773367 0.762472630 0.293660790
0.073987037 0.775781095 0.049709301
0.257893592 0.786482453 0.040261611
0.431736410 0.802202821 0.037891224
0.583449125 0.825377703 0.074161798
0.722543836 0.847830594 0.111689411
0.855935037 0.869797528 0.159129918
0.980163157 0.885987878 0.240102738
0.990617037 0.896132827 0.355981052
0.217915088 0.023944687 0.041184127
0.229554564 0.023342859 0.043179460
0.286906272 0.020202378 0.052350316
0.375749350 0.009976098 0.060250707
0.465095252 0.004819710 0.061624497
0.563211679 0.002048624 0.061430462
0.678820550 0.000000000 0.062217459
0.789125681 0.000000000 0.069698341
0.235466644 0.033621006 0.087701552
0.218344867 0.067624599 0.072837494
0.245586216 0.084750034 0.083492585
0.335837066 0.083135344 0.091131948
0.442564517 0.079145208 0.093064159
0.566927195 0.066789404 0.096054062
0.696668744 0.018208405 0.103091732
0.819119096 0.011499051 0.121671967
0.087480530 0.117369272 0.186572164
0.155499548 0.133973196 0.138361529
0.204090089 0.166323766 0.120967560
0.334368914 0.172106117 0.118368603
0.462230474 0.176714301 0.121515684
0.612854838 0.168290436 0.130126134
0.754699051 0.151340798 0.144975021
0.889818549 0.173118174 0.179904729
0.019237645 0.254087687 0.149062872
0.111355007 0.254593611 0.105968937
0.230600372 0.269768089 0.108479179
0.387388319 0.296219498 0.112149499
0.555092335 0.296795398 0.120246112
0.707239568 0.294303894 0.132026196
0.853732526 0.311401755 0.167031229
0.976734340 0.346103847 0.231283382
0.007139081 0.384225637 0.103782766
0.123630308 0.378800124 0.077847049
0.261838973 0.391866416 0.091077246
0.411388099 0.420745850 0.117798150
0.601789117 0.445337623 0.090566128
0.774033606 0.455396980 0.118270442
0.918174684 0.471984237 0.173909023
0.990978003 0.513048112 0.316441089
0.015786685 0.515420020 0.058616824
0.155671373 0.514873683 0.053008251
0.310125738 0.526434660 0.066066876
0.465566546 0.551528037 0.095129676
0.629405856 0.591746747 0.115835428
0.811403096 0.612174988 0.094787836
0.953238368 0.620715320 0.162533373
0.992730081 0.639772475 0.325446367
0.036271028 0.646900058 0.041655503
0.203034848 0.652701199 0.034058619
0.369765192 0.668217301 0.034058139
0.529187024 0.693976820 0.076282866
0.677372694 0.725671291 0.133596823
0.831942439 0.750945210 0.140948206
0.969961643 0.760536849 0.170678899
0.991961539 0.769850254 0.333134800
0.050265353 0.786385715 0.061312634
0.248252615 0.795529544 0.050498988
0.428537518 0.807134807 0.047498800
0.585333943 0.826137125 0.092875332
0.723773599 0.847213268 0.146759406
0.856141090 0.873337269 0.204566181
0.980323136 0.893490732 0.292041510
0.990532517 0.904524982 0.393002063
0.372726530 0.009503351 0.042273596
0.377165586 0.009643631 0.043077860
0.407222778 0.005908783 0.047117651
0.458170801 0.002469009 0.055043660
0.528216779 0.002340883 0.061725933
0.626469016 0.000028057 0.068988904
0.728657663 0.000000000 0.077203065
0.832121730 0.000000000 0.096705884
0.392032832 0.009204005 0.081702895
0.377678663 0.031082323 0.071889065
0.375898123 0.058599625 0.076612458
0.420929074 0.067960292 0.089809507
0.506690502 0.066350780 0.101313263
0.618457198 0.038078319 0.114315286
0.734232485 0.008085465 0.129629672
0.849840283 0.011979292 0.160296261
0.354765683 0.061619367 0.164801240
0.361795515 0.101653248 0.135953650
0.356311172 0.143124595 0.117577314
0.383344322 0.164274767 0.130120069
0.484244555 0.168512508 0.149621829
0.617850542 0.158457309 0.170840606
0.752167702 0.145202652 0.196927905
0.882999003 0.169397816 0.237729862
0.125410452 0.171707466 0.303140074
0.216504201 0.195525870 0.243692413
0.282882005 0.226395339 0.205290645
0.347763509 0.274037242 0.184929043
0.507869303 0.283915490 0.195659637
0.657324672 0.286641985 0.215969443
0.802726328 0.304513842 0.251484782
0.943309844 0.336763978 0.302427053
0.023717927 0.335777432 0.251995414
0.125138372 0.331474960 0.179527506
0.222274393 0.369072139 0.166912690
0.389197886 0.400990635 0.178539604
0.588541806 0.441000462 0.201717779
0.762448609 0.455231339 0.238342136
0.900919616 0.470474213 0.282685727
0.990561485 0.504151404 0.361918300
0.000128594 0.509657800 0.224162936
0.111172400 0.490099072 0.153184175
0.275083572 0.510234833 0.143639535
0.449948758 0.539088190 0.164200872
0.614635527 0.582421243 0.212017745
0.803892434 0.614719450 0.225305781
0.949509859 0.625835717 0.285867333
0.993379831 0.643091559 0.389786512
0.009400475 0.652422011 0.165707022
0.170025453 0.637169480 0.121121354
0.339244485 0.655514479 0.126156643
0.515302300 0.685241878 0.155218497
0.669508576 0.717915058 0.211346850
0.822880387 0.751270771 0.251741946
0.969022155 0.767451465 0.281459779
0.992290676 0.775826156 0.395107865
0.028962702 0.794020951 0.129243970
0.222806782 0.792823136 0.112441018
0.404246777 0.802162051 0.120338202
0.573788524 0.822076440 0.156723723
0.720354855 0.843318343 0.209079549
0.851239681 0.871649861 0.270438910
0.979798675 0.899334252 0.359761596
0.990479350 0.912222326 0.447394818
0.496534795 0.005664222 0.032160901
0.498448044 0.005908786 0.032706585
0.516553760 0.004901076 0.034611654
0.559195876 0.001593165 0.041761059
0.625762343 0.000021043 0.053767022
0.706038713 0.000000000 0.066352911
0.794063926 0.000000000 0.087680839
0.889463305 0.000000000 0.121359169
0.520057678 0.007596340 0.074252814
0.510385752 0.012621330 0.063898847
0.513782561 0.024988338 0.065982066
0.543473184 0.037200104 0.079842649
0.608952165 0.030339716 0.099680275
0.697014272 0.008567575 0.120974109
0.794834495 0.006845810 0.150773242
0.902604282 0.022412248 0.196574435
0.534893095 0.014931276 0.161853626
0.528180242 0.056115095 0.134090453
0.518737376 0.112076379 0.119916268
0.528997779 0.143500283 0.128797457
0.589403570 0.148732632 0.157295644
0.687482893 0.133583829 0.191579238
0.802490592 0.135943472 0.231699720
0.921687484 0.176481903 0.284796000
0.482483268 0.090285540 0.299945951
0.520170927 0.127869025 0.262596339
0.533335626 0.184121102 0.223530546
0.526713967 0.242781520 0.193638697
0.563751161 0.269637704 0.215665147
0.674486279 0.276893914 0.254269540
0.805720687 0.297213763 0.300697386
0.938323796 0.331642240 0.356534362
0.200109333 0.243394807 0.437011242
0.314834177 0.279445499 0.390138388
0.396093071 0.318157971 0.351310998
0.467893183 0.355744094 0.316585451
0.541449606 0.414604872 0.292962849
0.709798276 0.434852630 0.322530597
0.848882139 0.457443297 0.364764750
0.975795627 0.485327154 0.413579017
0.000000000 0.446954757 0.459528774
0.186828703 0.425279707 0.298161209
0.305765569 0.457909048 0.257495373
0.407022297 0.518331110 0.271086633
0.583199263 0.559493005 0.292628706
0.789754570 0.612978756 0.346127391
0.936868310 0.625521302 0.396537066
0.994129241 0.641344726 0.463896036
0.000000000 0.621885657 0.386798203
0.079019479 0.632576168 0.318772584
0.280104071 0.629509568 0.245524168
0.479348183 0.671967149 0.251934260
0.647863269 0.704723120 0.291581839
0.804508805 0.741823018 0.348821878
0.964936197 0.771232903 0.388904989
0.992703319 0.781348884 0.477323711
0.003958828 0.790688694 0.328175992
0.165572077 0.765179396 0.241974697
0.351944864 0.785694659 0.226656914
0.543649614 0.813686550 0.243440047
0.703299880 0.836097419 0.283383936
0.839787364 0.863982975 0.344928294
0.975852907 0.902201116 0.437983334
0.990581453 0.919334531 0.515431404
0.643859148 0.000000000 0.032258086
0.643523097 0.000000000 0.032258086
0.656398714 0.000000000 0.032263227
0.686352015 0.000000000 0.034818262
0.733715177 0.000000000 0.045693532
0.796885371 0.000000000 0.065533102
0.873655021 0.000000000 0.104091235
0.954104185 0.053150967 0.158689648
0.667741656 0.006451614 0.065709859
0.659657717 0.006451614 0.055682339
0.661631525 0.006451614 0.056527764
0.682173729 0.006497907 0.068572119
0.725927174 0.006451614 0.093330003
0.791186810 0.006677940 0.125839978
0.874958992 0.010244894 0.169692799
0.962649703 0.092788056 0.238637879
0.689024568 0.012903227 0.162910700
0.685285628 0.012903227 0.135540798
0.682005048 0.022019872 0.123470180
0.689714968 0.060198776 0.130144775
0.724583745 0.087237626 0.157505304
0.791339099 0.108967759 0.203483179
0.881635785 0.143094763 0.260403544
0.970689058 0.203813016 0.326992363
0.699075937 0.019354852 0.321679205
0.710592806 0.029044753 0.281960547
0.711353540 0.120818108 0.244833395
0.702519417 0.198300973 0.218694597
0.713837683 0.245640486 0.229826704
0.775401890 0.273850381 0.278239727
0.875364840 0.300855637 0.338197529
0.973826230 0.337948859 0.399671227
0.609515786 0.140860349 0.478701383
0.662106454 0.195326373 0.445243627
0.704153478 0.251817882 0.405085713
0.723184466 0.316224813 0.356001407
0.722286165 0.384203285 0.317847610
0.758369207 0.423222482 0.349725574
0.861262977 0.446665019 0.404922038
0.976675391 0.477257192 0.461075604
0.316318154 0.330746651 0.594313443
0.426949978 0.377293676 0.558916450
0.512231708 0.425001711 0.525547266
0.584396660 0.470895112 0.492334425
0.662907004 0.514126480 0.455910236
0.738280356 0.581959009 0.437589645
0.881832659 0.600706637 0.473567426
0.991959214 0.625353277 0.522287488
0.000000000 0.544514120 0.622034073
0.021327838 0.589901567 0.583941400
0.417592794 0.574225068 0.408634514
0.516555607 0.623285949 0.384040803
0.594784319 0.683663666 0.410383433
0.769606590 0.718179584 0.430298835
0.952615917 0.771553516 0.500076294
0.993037283 0.783495426 0.565177679
0.000000000 0.745080709 0.568073153
0.020466041 0.779032052 0.521580875
0.266755491 0.761080086 0.413885057
0.489958644 0.793801248 0.379477322
0.660491824 0.823923290 0.382623613
0.816608787 0.852314353 0.424448222
0.965622425 0.896401465 0.512431145
0.990749359 0.925196707 0.593187273
0.779798090 0.000000000 0.038709681
0.779156864 0.000000000 0.038709681
0.787761390 0.000000000 0.038709681
0.809560120 0.000000000 0.040033963
0.846939564 0.000000000 0.057867385
0.899491787 0.000991345 0.097090945
0.952873230 0.082052335 0.154548377
0.976673007 0.239132166 0.285768747
0.803315163 0.006451614 0.076180585
0.796601295 0.006451614 0.063901477
0.797452986 0.006451614 0.062318649
0.812567949 0.006451614 0.073648013
0.845937788 0.006451614 0.102292240
0.899069428 0.011138983 0.144588351
0.955302596 0.100152150 0.212293372
0.978478312 0.256610870 0.337161511
0.830718160 0.012903227 0.179426059
0.825818121 0.012903227 0.152907997
0.825137079 0.014115283 0.142134517
0.833924174 0.028670255 0.148471624
0.860592067 0.064303465 0.175395563
0.910751820 0.124537870 0.227281064
0.962372720 0.187937185 0.295842558
0.981476843 0.297864974 0.395307869
0.862689912 0.019747632 0.355715215
0.868001938 0.034924079 0.316608280
0.868851304 0.104115739 0.282675594
0.867509067 0.178253785 0.260951102
0.876321375 0.233700350 0.267087489
0.911098540 0.277125359 0.309168279
0.963880420 0.315829039 0.371943682
0.986801505 0.384967029 0.454618454
0.859955132 0.047450479 0.534943104
0.884581864 0.152387202 0.496678978
0.895063758 0.239801198 0.451605439
0.896709025 0.311440974 0.405007243
0.890682161 0.373019338 0.371534467
0.900807977 0.419305742 0.382587612
0.953008294 0.452578962 0.437305182
0.991714895 0.497649878 0.512034357
0.743398070 0.228996187 0.666453421
0.797523201 0.306832969 0.637983382
0.850037515 0.360925585 0.604739666
0.888458848 0.423289597 0.562799811
0.900784910 0.488466144 0.510469615
0.895273864 0.550885022 0.468592793
0.925725579 0.587542117 0.499817610
0.993025184 0.614758611 0.559195757
0.448885500 0.442850947 0.770314217
0.553485990 0.492022753 0.734630346
0.632020831 0.534068108 0.691846490
0.696513653 0.579422712 0.653261185
0.767900169 0.623289406 0.626750827
0.840324283 0.668524086 0.589405596
0.903438628 0.737294734 0.576810420
0.993515909 0.761964083 0.626213610
0.000000000 0.653007865 0.779986620
0.034453340 0.698034465 0.747891009
0.289845288 0.735010445 0.692831933
0.623496473 0.720031798 0.524631917
0.706085682 0.772626221 0.509611607
0.766847551 0.834980309 0.541026056
0.935418129 0.873500466 0.572285235
0.991439641 0.930723310 0.679932475
0.909031630 0.059391290 0.118714780
0.908906281 0.045115925 0.111473367
0.915316105 0.044974241 0.111788049
0.929766297 0.064861469 0.123094022
0.945412755 0.119662814 0.159768045
0.960289180 0.205784023 0.237538740
0.972016037 0.263065666 0.302224129
0.978779018 0.264308542 0.312855631
0.919142962 0.117001846 0.164797902
0.921183944 0.087521076 0.143271253
0.924607575 0.074407712 0.136260122
0.933879197 0.086076647 0.145849898
0.946730494 0.133439556 0.183649063
0.961335897 0.217909545 0.265505493
0.972422898 0.267984986 0.327601850
0.979344010 0.267631292 0.350022793
0.926423430 0.181539908 0.268567383
0.930607677 0.160117418 0.238278747
0.935905814 0.150131881 0.223850757
0.943393469 0.164070636 0.231665328
0.953620017 0.204772785 0.266690791
0.965891421 0.271322906 0.335375637
0.974620879 0.296416581 0.376335502
0.981617749 0.299093932 0.405087709
0.933472574 0.248188287 0.426796675
0.940013111 0.256088048 0.401241332
0.946613252 0.265801787 0.379110157
0.953481972 0.277976304 0.361132294
0.961583376 0.305074811 0.363276362
0.970999479 0.347154856 0.396331370
0.979179442 0.369921386 0.430366069
0.986585915 0.380305529 0.464854598
0.933351696 0.222095743 0.573999524
0.942381382 0.272299498 0.540036082
0.951079428 0.320607722 0.505277395
0.959716260 0.366355747 0.474842966
0.968463778 0.411045492 0.456360042
0.976701319 0.448821217 0.459730744
0.984410286 0.476122499 0.487349719
0.991618156 0.491331190 0.523923934
0.935127378 0.224471360 0.727361977
0.945688605 0.311361432 0.689222157
0.955022037 0.376690269 0.646415949
0.964300334 0.441544324 0.603702664
0.972578406 0.501518905 0.562960684
0.980266154 0.553065181 0.535096586
0.987649024 0.590497792 0.541735530
0.994544625 0.609700441 0.576167166
0.878012717 0.272709906 0.850798368
0.930552423 0.392712712 0.826488733
0.957518637 0.475369543 0.792329133
0.967935622 0.532836378 0.746954858
0.975197673 0.587105811 0.695115447
0.981912851 0.649413168 0.646040976
0.988025904 0.708849311 0.613870025
0.994360983 0.743166804 0.642257452
0.554729223 0.533282936 0.942029953
0.662459910 0.584600449 0.902970552
0.749539852 0.633522153 0.864830673
0.826394618 0.687277377 0.832827747
0.891422451 0.739241838 0.801313400
0.957631826 0.786123395 0.770702243
0.985690475 0.839116454 0.742222548
0.992760658 0.906389534 0.741415679
