Desert Affinity Presets/Desert Affinity Preset #5.cube
TITLE "32x32x32 Adobe/IRIDAS cube 3D LUT exported with GrossGrade v0.1.027.1 (beta) 64 bit"
DOMAIN_MIN 0 0 0
DOMAIN_MAX 1 1 1
LUT_3D_SIZE 32
0.112329900 0.023686539 0.000000000
0.127844155 0.022838309 0.000000000
0.141900033 0.022619503 0.000000000
0.155177578 0.022696618 0.000000000
0.168501601 0.022605026 0.000000000
0.182962701 0.022066757 0.000000000
0.200068504 0.020643314 0.000000000
0.221927717 0.017837189 0.000000000
0.248859659 0.013658586 0.000000000
0.278243333 0.008827638 0.000000000
0.309032738 0.003554815 0.000000000
0.341216058 0.000000000 0.000000000
0.374716341 0.000000000 0.000000000
0.409212321 0.000000000 0.000000000
0.444454491 0.000000000 0.000000000
0.480148047 0.000000000 0.000000000
0.515908003 0.000000000 0.000000000
0.551376402 0.000000000 0.000000000
0.586207092 0.000000000 0.000000000
0.620266020 0.000000000 0.000000000
0.653216422 0.000000000 0.000000000
0.684672654 0.000000000 0.000000000
0.714581013 0.000000000 0.000000000
0.743166029 0.000000000 0.000000000
0.770852983 0.000000000 0.000000000
0.797909319 0.000000000 0.000000000
0.824366629 0.000000000 0.000000000
0.850512505 0.000000000 0.000000000
0.876660407 0.000000000 0.000000000
0.903084993 0.000000000 0.000000000
0.930042386 0.000000000 0.000000000
0.956989706 0.000000000 0.000000000
0.113985009 0.035996176 0.000000000
0.127243608 0.035945188 0.000000000
0.140638381 0.035879754 0.000000000
0.153538093 0.035587512 0.000000000
0.166557685 0.035159118 0.000000000
0.180821419 0.034370273 0.000000000
0.197817862 0.032818768 0.000000000
0.219671011 0.029978458 0.000000000
0.246497840 0.025675889 0.000000000
0.275749981 0.020695355 0.000000000
0.306506664 0.015333672 0.000000000
0.338726252 0.009610034 0.000000000
0.372340828 0.004300287 0.000000000
0.406991899 0.001692866 0.000000000
0.442306459 0.001612904 0.000000000
0.478103608 0.001612904 0.000000000
0.514074981 0.001612904 0.000000000
0.549868524 0.001612904 0.000000000
0.585099339 0.001612904 0.000000000
0.619450092 0.001612904 0.000000000
0.652691364 0.001612904 0.000000000
0.684620976 0.001612904 0.000000000
0.715185583 0.001612904 0.000000000
0.744457960 0.001612904 0.000000000
0.772745132 0.001612904 0.000000000
0.800426602 0.001612904 0.000000000
0.827863157 0.001612904 0.000000000
0.855265141 0.001612904 0.000000000
0.882549584 0.001612904 0.000000000
0.909915149 0.001612904 0.000000000
0.937811613 0.001612904 0.000000000
0.966007531 0.001612904 0.000000000
0.115416512 0.047718946 0.000000000
0.128205851 0.047377549 0.000000000
0.139670685 0.047442604 0.000000000
0.151486591 0.047416847 0.000000000
0.164223745 0.047056783 0.000000000
0.178380117 0.046224859 0.000000000
0.195368364 0.044663999 0.000000000
0.217178449 0.041740455 0.000000000
0.244072765 0.037479587 0.000000000
0.273461431 0.032616343 0.000000000
0.304356396 0.027363194 0.000000000
0.336732954 0.021775190 0.000000000
0.370526910 0.015929064 0.000000000
0.405382156 0.009886984 0.000000000
0.441041499 0.005136014 0.000000000
0.477208942 0.003437169 0.000000000
0.513501942 0.003225807 0.000000000
0.549695730 0.003225807 0.000000000
0.585451961 0.003225807 0.000000000
0.620452821 0.003225807 0.000000000
0.654351413 0.003225807 0.000000000
0.686882198 0.003225807 0.000000000
0.718273163 0.003225807 0.000000000
0.748645008 0.003225807 0.000000000
0.778109074 0.003225807 0.000000000
0.806817591 0.003225807 0.000000000
0.835139751 0.003225807 0.000000000
0.863613904 0.003225807 0.000000000
0.892401814 0.003225807 0.000000000
0.921107113 0.003225807 0.000000000
0.949900389 0.003225807 0.000000000
0.978635907 0.003225807 0.000000000
0.116250888 0.058674335 0.000000000
0.128933221 0.058225837 0.000000000
0.140006468 0.058239911 0.000000000
0.150663406 0.058437709 0.000000000
0.162427723 0.058386289 0.000000000
0.176245958 0.057889674 0.000000000
0.193153217 0.056482598 0.000000000
0.215036824 0.053733949 0.000000000
0.242075548 0.049624555 0.000000000
0.271640450 0.044938605 0.000000000
0.302883983 0.040019713 0.000000000
0.335628003 0.034781042 0.000000000
0.369749874 0.029237939 0.000000000
0.404933214 0.023504496 0.000000000
0.441017419 0.017796792 0.000000000
0.477812380 0.012270050 0.000000000
0.514872134 0.007770662 0.000000000
0.551681519 0.005816491 0.000000000
0.588023722 0.005475604 0.000000000
0.623843074 0.005182410 0.000000000
0.658895075 0.004991622 0.000000000
0.692748845 0.004872381 0.000000000
0.725134075 0.004838713 0.000000000
0.756357729 0.004838713 0.000000000
0.786914825 0.004838713 0.000000000
0.817020476 0.004907452 0.000000000
0.846655607 0.004994427 0.000000000
0.876094401 0.005095433 0.000000000
0.905238152 0.005204855 0.000000000
0.934316933 0.005328305 0.000000000
0.963541090 0.005465783 0.000000000
0.992130697 0.005641139 0.000000000
0.116188981 0.069626391 0.000000000
0.128887162 0.069193862 0.000000000
0.140019521 0.069272406 0.000000000
0.150475711 0.069710106 0.000000000
0.161587775 0.070027635 0.000000000
0.174660861 0.069840603 0.000000000
0.191206709 0.068821192 0.000000000
0.213125542 0.066522844 0.000000000
0.240417734 0.062875487 0.000000000
0.270333767 0.058621585 0.000000000
0.301845998 0.054013684 0.000000000
0.335018039 0.049210329 0.000000000
0.369799942 0.044322826 0.000000000
0.405740082 0.039337568 0.000000000
0.442510426 0.034312591 0.000000000
0.479989886 0.029454563 0.000000000
0.517902553 0.024956094 0.000000000
0.555908799 0.020950027 0.000000000
0.593492210 0.017388649 0.000000000
0.630309343 0.014234141 0.000000000
0.666370273 0.011879224 0.000000000
0.701351941 0.010406701 0.000000000
0.735033214 0.009781035 0.000000000
0.767419815 0.009715566 0.000000000
0.798756242 0.009824049 0.000000000
0.829448640 0.010415585 0.000000000
0.859494925 0.011334905 0.000000000
0.889187694 0.012428194 0.000000000
0.918661118 0.013634641 0.000000000
0.947997987 0.014978570 0.000000000
0.977550983 0.016497388 0.000000000
1.000000000 0.018351479 0.000000000
0.114874952 0.081446894 0.000000000
0.127724692 0.081163965 0.000000000
0.139030427 0.081415527 0.000000000
0.149597004 0.082053840 0.000000000
0.160647705 0.082750633 0.000000000
0.173502788 0.083143398 0.000000000
0.189723045 0.082675308 0.000000000
0.211442620 0.080889992 0.000000000
0.238941103 0.077935562 0.000000000
0.269300997 0.074430779 0.000000000
0.301441491 0.070610806 0.000000000
0.335217327 0.066501424 0.000000000
0.370668411 0.062334515 0.000000000
0.407632083 0.058384571 0.000000000
0.445641756 0.054606728 0.000000000
0.484244019 0.050876562 0.000000000
0.523108661 0.047322206 0.000000000
0.562085211 0.044278514 0.000000000
0.600913644 0.041948840 0.000000000
0.639139712 0.040190153 0.000000000
0.676179528 0.038800888 0.000000000
0.711731791 0.037891362 0.000000000
0.745817602 0.037543934 0.000000000
0.778650761 0.037771180 0.000000000
0.810513973 0.038507182 0.000000000
0.841427922 0.039445233 0.000000000
0.871701121 0.040593665 0.000000000
0.901705623 0.041980617 0.000000000
0.931582868 0.043608848 0.000000000
0.961293757 0.045306303 0.000000000
0.990666926 0.047258642 0.000000000
1.000000000 0.049144957 0.000000000
0.111359149 0.095019564 0.000000000
0.124630503 0.095148057 0.000000000
0.136287794 0.095747553 0.000000000
0.147157624 0.096689835 0.000000000
0.158435807 0.097766310 0.000000000
0.171496660 0.098777808 0.000000000
0.188005239 0.099259861 0.000000000
0.209956840 0.098434620 0.000000000
0.237496570 0.096187167 0.000000000
0.268207371 0.093526021 0.000000000
0.301181465 0.090896070 0.000000000
0.336079121 0.088151723 0.000000000
0.372643799 0.085231863 0.000000000
0.410439342 0.082202673 0.000000000
0.449324906 0.079360463 0.000000000
0.489130616 0.076857798 0.000000000
0.529268742 0.074592687 0.000000000
0.569223225 0.072526783 0.000000000
0.608630478 0.070769504 0.000000000
0.647173285 0.069327824 0.000000000
0.684602201 0.068324342 0.000000000
0.720586658 0.067842685 0.000000000
0.755009353 0.067824930 0.000000000
0.788217068 0.068415493 0.000000000
0.820316553 0.069377825 0.000000000
0.851552844 0.070622653 0.000000000
0.882165492 0.072107799 0.000000000
0.912480652 0.073792122 0.000000000
0.942767978 0.075817816 0.000000000
0.972841680 0.077877216 0.000000000
0.997620642 0.079959095 0.000000000
1.000000000 0.082131065 0.000000000
0.104465432 0.111729138 0.000000000
0.118078768 0.112207808 0.000000000
0.130349085 0.113408908 0.000000000
0.142006084 0.115114927 0.000000000
0.153986737 0.116949596 0.000000000
0.167534068 0.118639737 0.000000000
0.184537888 0.119998723 0.000000000
0.207154810 0.120408297 0.000000000
0.235551804 0.119620845 0.000000000
0.266916484 0.118221246 0.000000000
0.300361484 0.116550229 0.000000000
0.336068958 0.114987351 0.000000000
0.373575151 0.113292068 0.000000000
0.412395179 0.111480147 0.000000000
0.452057838 0.109520324 0.000000000
0.492335081 0.107568465 0.000000000
0.532874048 0.105761625 0.000000000
0.573216558 0.104125053 0.000000000
0.612890720 0.102660455 0.000000000
0.651696861 0.101488642 0.000000000
0.689428031 0.100784346 0.000000000
0.725818098 0.100709602 0.000000000
0.760702133 0.101150624 0.000000000
0.794126451 0.101945490 0.000000000
0.826409400 0.103095703 0.000000000
0.857915103 0.104604408 0.000000000
0.888935089 0.106487885 0.000000000
0.919705212 0.108620197 0.000000000
0.950148046 0.110796414 0.000000000
0.980409324 0.113040000 0.000000000
0.997887671 0.115366653 0.000000000
1.000000000 0.117903702 0.000000000
0.094678648 0.132327095 0.000000000
0.109033145 0.133535206 0.000000000
0.122017384 0.135446072 0.000000000
0.134570226 0.138047278 0.000000000
0.147838578 0.141174704 0.000000000
0.162564844 0.144121870 0.000000000
0.180340663 0.146459520 0.000000000
0.203504339 0.147756502 0.000000000
0.232548863 0.148117870 0.000000000
0.264739007 0.148072004 0.000000000
0.299006820 0.147770211 0.000000000
0.334945142 0.146897778 0.000000000
0.372584850 0.145710334 0.000000000
0.411623061 0.144415006 0.000000000
0.451537937 0.142933547 0.000000000
0.492095560 0.141416803 0.000000000
0.532835007 0.139916644 0.000000000
0.573336303 0.138507336 0.000000000
0.613339424 0.137423456 0.000000000
0.652547956 0.136696845 0.000000000
0.690589905 0.136335701 0.000000000
0.727219939 0.136513397 0.000000000
0.762318671 0.137173116 0.000000000
0.796052873 0.138285607 0.000000000
0.828708053 0.139803886 0.000000000
0.860516846 0.141615748 0.000000000
0.891873538 0.143821836 0.000000000
0.922810078 0.146125332 0.000000000
0.953506768 0.148543715 0.000000000
0.984037399 0.151048079 0.000000000
0.998016775 0.153641537 0.000000000
1.000000000 0.156503096 0.000000000
0.085206978 0.156612754 0.000000000
0.100841634 0.159102902 0.000000000
0.115039088 0.162218794 0.000000000
0.128684580 0.165907830 0.000000000
0.142737269 0.169804275 0.000000000
0.158468023 0.173807576 0.000000000
0.177396432 0.177394360 0.000000000
0.201388657 0.179739267 0.000000000
0.230734751 0.180715248 0.000000000
0.263066083 0.181239337 0.000000000
0.297218412 0.181287661 0.000000000
0.333198994 0.180947915 0.000000000
0.370921373 0.180274606 0.000000000
0.409897804 0.179293782 0.000000000
0.450006694 0.178314477 0.000000000
0.490661293 0.177142039 0.000000000
0.531557024 0.175972700 0.000000000
0.572267830 0.174914181 0.000000000
0.612517893 0.174175322 0.000000000
0.652017117 0.173797384 0.000000000
0.690400004 0.173823401 0.000000000
0.727217257 0.174229652 0.000000000
0.762501419 0.175107300 0.000000000
0.796487093 0.176493481 0.000000000
0.829504490 0.178382814 0.000000000
0.861693203 0.180575460 0.000000000
0.893169343 0.182909340 0.000000000
0.924261391 0.185370937 0.000000000
0.955168188 0.187994286 0.000000000
0.986036897 0.190836787 0.000000000
0.998085022 0.193756774 0.000000000
1.000000000 0.196704209 0.000000000
0.078065574 0.185389698 0.000000000
0.094745904 0.188924313 0.000000000
0.110070035 0.193175659 0.000000000
0.124717399 0.197861746 0.000000000
0.139600188 0.202573150 0.000000000
0.155857369 0.207091779 0.000000000
0.175054267 0.211015388 0.000000000
0.199465856 0.213900134 0.000000000
0.229027703 0.215305150 0.000000000
0.261273891 0.216040432 0.000000000
0.295363814 0.216406018 0.000000000
0.331407130 0.216539487 0.000000000
0.369107693 0.216288745 0.000000000
0.408256412 0.215884209 0.000000000
0.448206216 0.215111017 0.000000000
0.488875896 0.214251459 0.000000000
0.529975891 0.213552862 0.000000000
0.570892036 0.212893322 0.000000000
0.611339629 0.212506697 0.000000000
0.650984704 0.212404698 0.000000000
0.689459682 0.212614730 0.000000000
0.726538301 0.213337153 0.000000000
0.762181401 0.214621305 0.000000000
0.796402752 0.216280386 0.000000000
0.829591274 0.218372285 0.000000000
0.861903727 0.220712215 0.000000000
0.893591821 0.223269999 0.000000000
0.924942911 0.225995794 0.000000000
0.956093490 0.228872076 0.000000000
0.987222493 0.231962442 0.000000000
0.998134613 0.234939337 0.000000000
1.000000000 0.237991676 0.000000000
0.073115371 0.218410373 0.000000000
0.090390556 0.222539738 0.000000000
0.106103614 0.227172986 0.000000000
0.121089011 0.232209727 0.000000000
0.136423469 0.237364739 0.000000000
0.153046012 0.242235839 0.000000000
0.172618747 0.246556818 0.000000000
0.197056681 0.249542266 0.000000000
0.226812273 0.251269192 0.000000000
0.259332031 0.252494454 0.000000000
0.293559134 0.253276467 0.000000000
0.329487264 0.253634691 0.000000000
0.367291749 0.253859907 0.000000000
0.406291544 0.253699690 0.000000000
0.446302503 0.253364325 0.000000000
0.487108886 0.252987266 0.000000000
0.528155446 0.252528518 0.000000000
0.569248617 0.252312809 0.000000000
0.609750271 0.252189219 0.000000000
0.649477780 0.252336353 0.000000000
0.688082218 0.252815485 0.000000000
0.725387335 0.253877342 0.000000000
0.761211038 0.255417913 0.000000000
0.795668960 0.257380784 0.000000000
0.828941107 0.259597510 0.000000000
0.861354709 0.262077749 0.000000000
0.893186450 0.264815062 0.000000000
0.924799442 0.267825544 0.000000000
0.956183136 0.270947188 0.000000000
0.987278700 0.274018258 0.000000000
0.998147249 0.277075797 0.000000000
1.000000000 0.280220330 0.000000000
0.068291433 0.253463268 0.000000000
0.085920632 0.257946968 0.000000000
0.101989560 0.262946039 0.000000000
0.117307730 0.268299431 0.000000000
0.132987395 0.273800224 0.000000000
0.149976641 0.279028684 0.000000000
0.169756934 0.283557177 0.000000000
0.194448903 0.286847085 0.000000000
0.224427834 0.288875073 0.000000000
0.257060558 0.290341854 0.000000000
0.291578054 0.291615814 0.000000000
0.327661216 0.292399734 0.000000000
0.365301371 0.292778105 0.000000000
0.404242337 0.292893857 0.000000000
0.444338918 0.292995006 0.000000000
0.485101998 0.292926222 0.000000000
0.526295960 0.292942643 0.000000000
0.567230403 0.292867601 0.000000000
0.607730448 0.292998582 0.000000000
0.647624135 0.293531775 0.000000000
0.686361849 0.294321090 0.000000000
0.723740220 0.295606911 0.000000000
0.759631574 0.297333270 0.000000000
0.794086695 0.299392223 0.000000000
0.827479005 0.301806688 0.000000000
0.860157788 0.304600477 0.000000000
0.892092049 0.307492137 0.000000000
0.923780143 0.310605586 0.000000000
0.955135286 0.313729286 0.000000000
0.986279964 0.316888660 0.000000000
0.998127103 0.320044845 0.000000000
1.000000000 0.323365033 0.000000000
0.063517101 0.290028661 0.000000000
0.081440896 0.294800758 0.000000000
0.097945295 0.300234437 0.000000000
0.113639571 0.305969864 0.000000000
0.129548997 0.311690867 0.000000000
0.146721885 0.317096591 0.000000000
0.166800037 0.321918488 0.000000000
0.191878095 0.325601727 0.000000000
0.222100943 0.327933073 0.000000000
0.254974753 0.329727173 0.000000000
0.289462984 0.331116259 0.000000000
0.325623721 0.332165897 0.000000000
0.363460422 0.332973391 0.000000000
0.402486891 0.333478212 0.000000000
0.442419022 0.333727479 0.000000000
0.483238488 0.334047168 0.000000000
0.524264216 0.334211975 0.000000000
0.565209091 0.334451795 0.000000000
0.605793595 0.334961623 0.000000000
0.645609617 0.335679084 0.000000000
0.684440315 0.336775243 0.000000000
0.721769750 0.338199764 0.000000000
0.757604778 0.340036511 0.000000000
0.792093158 0.342251807 0.000000000
0.825631678 0.344923317 0.000000000
0.858335435 0.347837687 0.000000000
0.890361071 0.350876480 0.000000000
0.921956956 0.353950173 0.000000000
0.953296602 0.357100189 0.000000000
0.984442234 0.360302448 0.000000000
0.998078048 0.363626182 0.000000000
1.000000000 0.367022157 0.000000000
0.059101854 0.328007698 0.000000000
0.077392742 0.333145291 0.000000000
0.094195157 0.338876963 0.000000000
0.110092461 0.344807267 0.000000000
0.126256913 0.350798011 0.000000000
0.143755704 0.356516600 0.000000000
0.164112881 0.361606389 0.000000000
0.189460084 0.365558028 0.000000000
0.219974831 0.368213445 0.000000000
0.252970845 0.370201021 0.000000000
0.287582964 0.371795505 0.000000000
0.323860526 0.373103142 0.000000000
0.361721665 0.374130636 0.000000000
0.400869578 0.374971807 0.000000000
0.440884352 0.375575125 0.000000000
0.481480449 0.375960559 0.000000000
0.522395313 0.376323968 0.000000000
0.563402176 0.376925915 0.000000000
0.603856385 0.377596349 0.000000000
0.643664241 0.378570467 0.000000000
0.682317972 0.379747540 0.000000000
0.719563603 0.381300271 0.000000000
0.755447924 0.383382976 0.000000000
0.789947689 0.385774106 0.000000000
0.823421180 0.388521105 0.000000000
0.856027365 0.391461402 0.000000000
0.887937069 0.394483864 0.000000000
0.919486880 0.397597015 0.000000000
0.950909495 0.400895029 0.000000000
0.982028127 0.404109299 0.000000000
0.998008311 0.407435924 0.000000000
1.000000000 0.410627812 0.000000000
0.055226725 0.367232502 0.000000000
0.073857106 0.372717023 0.000000000
0.090794690 0.378578484 0.000000000
0.106918603 0.384740174 0.000000000
0.123353101 0.390997291 0.000000000
0.141219616 0.397078514 0.000000000
0.161855429 0.402438909 0.000000000
0.187402204 0.406581819 0.000000000
0.217999548 0.409335256 0.000000000
0.251176089 0.411543250 0.000000000
0.286058724 0.413484424 0.000000000
0.322446257 0.414999694 0.000000000
0.360370249 0.416219354 0.000000000
0.399450302 0.417180449 0.000000000
0.439373940 0.417900324 0.000000000
0.480030715 0.418599695 0.000000000
0.520950496 0.419240117 0.000000000
0.561709821 0.419874042 0.000000000
0.602131963 0.420791477 0.000000000
0.641692638 0.421796829 0.000000000
0.680206835 0.423092157 0.000000000
0.717434108 0.424871236 0.000000000
0.753193080 0.427041292 0.000000000
0.787615716 0.429547250 0.000000000
0.820889473 0.432259262 0.000000000
0.853302598 0.435157716 0.000000000
0.885105610 0.438202739 0.000000000
0.916672826 0.441440165 0.000000000
0.947986543 0.444722474 0.000000000
0.978998482 0.447905838 0.000000000
0.997925580 0.450996459 0.000000000
1.000000000 0.454104483 0.000000000
0.052091844 0.407444596 0.000000000
0.070848465 0.413055271 0.000000000
0.088067606 0.419189304 0.000000000
0.104494318 0.425656140 0.000000000
0.121233799 0.432216853 0.000000000
0.139318049 0.438521057 0.000000000
0.160105482 0.444020957 0.000000000
0.185794741 0.448294848 0.000000000
0.216600642 0.451263905 0.000000000
0.249968261 0.453682840 0.000000000
0.284955293 0.455771744 0.000000000
0.321498603 0.457526654 0.000000000
0.359401494 0.458830833 0.000000000
0.398432493 0.459870756 0.000000000
0.438353688 0.460769147 0.000000000
0.478941083 0.461591572 0.000000000
0.519763768 0.462372959 0.000000000
0.560462415 0.463193417 0.000000000
0.600590110 0.464078963 0.000000000
0.639966309 0.465163916 0.000000000
0.678453028 0.466692239 0.000000000
0.715405583 0.468456239 0.000000000
0.750964463 0.470651656 0.000000000
0.785143256 0.473133504 0.000000000
0.818209648 0.475830257 0.000000000
0.850523233 0.478791565 0.000000000
0.882191300 0.481855899 0.000000000
0.913541496 0.485009491 0.000000000
0.944590271 0.488140434 0.000000000
0.975389540 0.491207629 0.000000000
0.997817099 0.494167447 0.000000000
1.000000000 0.497241318 0.000000000
0.049903888 0.448349029 0.000000000
0.068861566 0.454161346 0.000000000
0.086281754 0.460503757 0.000000000
0.103047997 0.467303187 0.000000000
0.120020621 0.474102020 0.000000000
0.138152882 0.480450124 0.000000000
0.159084558 0.486090600 0.000000000
0.184981808 0.490564257 0.000000000
0.216033146 0.493766278 0.000000000
0.249475121 0.496275187 0.000000000
0.284555078 0.498488098 0.000000000
0.321026981 0.500220358 0.000000000
0.358943939 0.501624823 0.000000000
0.398086756 0.502876043 0.000000000
0.437952191 0.503852308 0.000000000
0.478395313 0.504704118 0.000000000
0.519081056 0.505532682 0.000000000
0.559526503 0.506322384 0.000000000
0.599506438 0.507294059 0.000000000
0.638797522 0.508540213 0.000000000
0.676932514 0.509960353 0.000000000
0.713726103 0.511807978 0.000000000
0.748919845 0.513890922 0.000000000
0.782800853 0.516294897 0.000000000
0.815694869 0.519035459 0.000000000
0.847826183 0.521994174 0.000000000
0.879247785 0.524987280 0.000000000
0.910253227 0.527944148 0.000000000
0.940973639 0.530884683 0.000000000
0.971526504 0.533821285 0.000000000
0.997699261 0.536773443 0.000000000
1.000000000 0.539721012 0.000000000
0.048909754 0.489734411 0.000000000
0.068242475 0.495921701 0.000000000
0.085844010 0.502452493 0.000000000
0.102726579 0.509365320 0.000000000
0.119707547 0.516162157 0.000000000
0.137989089 0.522663832 0.000000000
0.159126058 0.528512180 0.000000000
0.185181439 0.533140182 0.000000000
0.216342539 0.536440492 0.000000000
0.249826133 0.538986921 0.000000000
0.284840226 0.541156411 0.000000000
0.321338654 0.542949736 0.000000000
0.359350652 0.544505000 0.000000000
0.398377001 0.545732379 0.000000000
0.438225597 0.546786666 0.000000000
0.478489369 0.547592938 0.000000000
0.518939972 0.548345327 0.000000000
0.559231699 0.549164414 0.000000000
0.599084616 0.550214469 0.000000000
0.638025522 0.551334202 0.000000000
0.675932229 0.552757382 0.000000000
0.712345660 0.554447293 0.000000000
0.747265995 0.556493878 0.000000000
0.781006992 0.558993936 0.000000000
0.813510776 0.561552227 0.000000000
0.845245600 0.564323485 0.000000000
0.876341939 0.567175925 0.000000000
0.907037914 0.569994628 0.000000000
0.937500238 0.572829604 0.000000000
0.967814684 0.575670719 0.000000000
0.996994436 0.578402579 0.000000000
1.000000000 0.581075907 0.000000000
0.049396563 0.531572580 0.000000000
0.068863913 0.537885547 0.000000000
0.086612307 0.544563413 0.000000000
0.103493631 0.551476300 0.000000000
0.120571680 0.558361769 0.000000000
0.138980553 0.564991415 0.000000000
0.160267457 0.570990086 0.000000000
0.186390460 0.575691640 0.000000000
0.217470646 0.578897536 0.000000000
0.250977278 0.581460893 0.000000000
0.286089092 0.583731651 0.000000000
0.322642803 0.585612714 0.000000000
0.360477328 0.587026656 0.000000000
0.399475574 0.588278532 0.000000000
0.439084083 0.589189410 0.000000000
0.479187995 0.589930713 0.000000000
0.519586563 0.590765238 0.000000000
0.559643745 0.591509759 0.000000000
0.599143565 0.592374146 0.000000000
0.637877584 0.593477666 0.000000000
0.675372183 0.594706178 0.000000000
0.711447358 0.596278548 0.000000000
0.746200323 0.598358333 0.000000000
0.779483438 0.600632310 0.000000000
0.811705112 0.603124678 0.000000000
0.842980266 0.605648935 0.000000000
0.873642802 0.608267546 0.000000000
0.904034376 0.610967159 0.000000000
0.934284687 0.613756955 0.000000000
0.964217603 0.616370618 0.000000000
0.994106233 0.618790150 0.000000000
1.000000000 0.621156335 0.000000000
0.051366139 0.573458076 0.000000000
0.070795633 0.579737365 0.000000000
0.088600606 0.586471260 0.000000000
0.105568826 0.593471348 0.000000000
0.122840397 0.600557745 0.000000000
0.141295731 0.607227802 0.000000000
0.162569970 0.613209665 0.000000000
0.188570485 0.617782414 0.000000000
0.219629034 0.620966375 0.000000000
0.253197819 0.623580217 0.000000000
0.288283020 0.625830591 0.000000000
0.324798852 0.627684534 0.000000000
0.362525523 0.629023135 0.000000000
0.401244313 0.630047679 0.000000000
0.440698206 0.630860031 0.000000000
0.480788022 0.631680131 0.000000000
0.520873427 0.632300735 0.000000000
0.560739815 0.632974982 0.000000000
0.599896491 0.633650720 0.000000000
0.638236880 0.634515703 0.000000000
0.675448239 0.635641873 0.000000000
0.711350620 0.637248635 0.000000000
