Desert Affinity Presets/Desert Affinity Preset #9.cube
TITLE "32x32x32 Adobe/IRIDAS cube 3D LUT exported with GrossGrade v0.1.027.1 (beta) 64 bit"
LUT_3D_SIZE 5
DOMAIN_MIN 0.000000 0.000000 0.000000
DOMAIN_MAX 0.903226 0.903226 0.903226
0.301097721 0.000000000 0.000000000
0.362657338 0.000000000 0.000000000
0.525728285 0.000000000 0.000000000
0.768229961 0.000000000 0.000000000
0.995161295 0.000000000 0.000000000
0.202661261 0.149119943 0.000000000
0.320105284 0.175698608 0.000000000
0.455570549 0.186095893 0.000000000
0.701217592 0.175602734 0.000000000
0.988066375 0.158873245 0.000000000
0.112348996 0.320320487 0.000000000
0.256738961 0.399490833 0.000000000
0.504632294 0.401363462 0.000000000
0.742405236 0.399830639 0.000000000
0.991679370 0.402751595 0.000000000
0.064643107 0.545855045 0.000000000
0.222005174 0.637290359 0.000000000
0.473378867 0.671369970 0.000000000
0.803272545 0.651489437 0.000000000
0.995161295 0.637282908 0.000000000
0.056580499 0.777333260 0.000000000
0.218485281 0.867657304 0.000000000
0.458967447 0.919947386 0.000000000
0.793458343 0.905180752 0.000000000
0.995161295 0.872070670 0.000000000
0.283341169 0.000000000 0.239045247
0.350879669 0.000000000 0.197958261
0.514010787 0.000000000 0.190814734
0.757017434 0.000000000 0.162147656
0.995161295 0.000000000 0.126653597
0.085100353 0.133372307 0.094492212
0.268657178 0.166878790 0.121868998
0.437875688 0.172349393 0.120455116
0.692754209 0.162069410 0.103291288
0.980730891 0.146595255 0.080929384
0.000000000 0.274596840 0.011290320
0.207443446 0.367174894 0.066730797
0.457813889 0.397173136 0.078846760
0.690190673 0.403071344 0.106719419
0.978976250 0.397413135 0.086433269
0.000000000 0.480044365 0.011290320
0.141365126 0.574342847 0.017614335
0.424923241 0.663174927 0.061853081
0.758693099 0.649531126 0.046157129
0.994548261 0.640950918 0.098634288
0.000000000 0.709085345 0.011290320
0.128871053 0.801366448 0.015922042
0.408814818 0.885877430 0.081862710
0.742827773 0.901211858 0.018851640
0.995161295 0.868485868 0.018940022
0.276186168 0.000000000 0.509848714
0.358122736 0.000000000 0.427395135
0.514582932 0.000000000 0.401506215
0.757875681 0.000000000 0.373113960
0.995161295 0.000000000 0.338351876
0.055463828 0.095392674 0.385868132
0.252352804 0.144437447 0.383529723
0.441777438 0.169725195 0.334830552
0.698404789 0.160800293 0.319773138
0.987828553 0.146372229 0.299206316
0.000000000 0.260100752 0.189569414
0.084131658 0.345678836 0.269010991
0.424152404 0.406132400 0.323327571
0.689214468 0.406046450 0.316364646
0.986458957 0.399830312 0.303264290
0.000000000 0.465359420 0.043320812
0.011290320 0.505158305 0.102346964
0.377213985 0.632448077 0.282468826
0.724431574 0.657896221 0.290037870
0.987454832 0.656124651 0.310247093
0.000000000 0.676792622 0.022580640
0.011290320 0.712728500 0.073037729
0.316006243 0.810773611 0.227338523
0.703914762 0.902554154 0.285419554
0.995161295 0.877456665 0.258270830
0.273685336 0.000000000 0.730271518
0.367229760 0.000000000 0.633807123
0.523410201 0.000000000 0.568898380
0.762861311 0.000000000 0.533171654
0.995161295 0.000000000 0.499473780
0.062018402 0.085375547 0.629252970
0.234771073 0.120729521 0.588868260
0.454378933 0.164268211 0.514565289
0.708273470 0.164545938 0.484715372
0.991774797 0.150873944 0.464907438
0.000000000 0.258159935 0.466787219
0.039425798 0.292633384 0.490266114
0.404825389 0.380678236 0.526924551
0.701482296 0.411788076 0.484046489
0.991780460 0.405315876 0.471444130
0.000000000 0.469461739 0.300475359
0.011290320 0.481303990 0.306177676
0.235094160 0.592147827 0.410888672
0.694345772 0.670432210 0.483050674
0.988841057 0.661474407 0.467194349
0.000000000 0.676768064 0.180849403
0.011290320 0.680413127 0.187506109
0.097766414 0.704817176 0.231136903
0.645522177 0.861136496 0.440298170
0.994812012 0.887457609 0.448741615
0.275113046 0.000000000 0.900205612
0.375529081 0.000000000 0.798970044
0.540324628 0.000000000 0.706975222
0.774785101 0.000000000 0.647101104
0.995161295 0.000000000 0.610458016
0.074918494 0.084726974 0.815795124
0.237701938 0.117526188 0.760305107
0.465270460 0.153945670 0.668345690
0.725954652 0.169162959 0.606552184
0.993111789 0.159527749 0.580353618
0.000000000 0.266200215 0.689950168
0.060146749 0.296781093 0.693398595
0.380578279 0.350291193 0.671184242
0.719385266 0.411637843 0.614679217
0.993309498 0.415781885 0.588701308
0.000000000 0.476988733 0.533471704
0.011290320 0.490259856 0.539885461
0.170495048 0.519202650 0.557835877
0.666339636 0.636294544 0.623537898
0.992288291 0.669955850 0.583229184
0.000000000 0.684031665 0.395898730
0.011290320 0.685380042 0.391113877
0.022580640 0.667284250 0.366884381
0.481495410 0.798932731 0.492404491
0.992167592 0.902014732 0.589350224
