Desert Affinity Presets/Desert Affinity Preset #7.cube
TITLE "32x32x32 Adobe/IRIDAS cube 3D LUT exported with GrossGrade v0.1.027.1 (beta) 64 bit"
DOMAIN_MIN 0 0 0
DOMAIN_MAX 1 1 1
LUT_3D_SIZE 32
0.137060300 0.045039307 0.000000000
0.161281809 0.044819552 0.000000000
0.186812848 0.044289209 0.000000000
0.211877212 0.043920256 0.000000000
0.235784590 0.043905310 0.000000000
0.259492129 0.044002142 0.000000000
0.283510834 0.044108726 0.000000000
0.308679551 0.044047922 0.000000000
0.335640907 0.043733750 0.000000000
0.365000129 0.042922903 0.000000000
0.396676123 0.041372281 0.000000000
0.429550469 0.039348442 0.000000000
0.463251054 0.036926180 0.000000000
0.497832924 0.034111094 0.000000000
0.533043802 0.031033283 0.000000000
0.568605840 0.027796948 0.000000000
0.604380965 0.024422597 0.000000000
0.640249908 0.020958006 0.000000000
0.675884366 0.017511686 0.000000000
0.711046278 0.014164959 0.000000000
0.745459378 0.011003913 0.000000000
0.779175878 0.008019608 0.000000000
0.812382579 0.005158735 0.000000000
0.845245063 0.002395122 0.000000000
0.877881408 0.000386250 0.000000000
0.910375476 0.000000000 0.000000000
0.942685664 0.000000000 0.000000000
0.974845231 0.000000000 0.000000000
0.993720591 0.000000000 0.000000000
0.996774197 0.000000000 0.000000000
0.998387098 0.000000000 0.000000000
1.000000000 0.000000000 0.000000000
0.134503856 0.069689728 0.000000000
0.161650077 0.069208026 0.000000000
0.190041751 0.067732736 0.000000000
0.213195369 0.067802928 0.000000000
0.236685947 0.068185419 0.000000000
0.260683268 0.068705402 0.000000000
0.285119206 0.069233790 0.000000000
0.310438365 0.069307245 0.000000000
0.337271541 0.068826981 0.000000000
0.366319984 0.067658849 0.000000000
0.397610068 0.065672442 0.000000000
0.430155963 0.063280091 0.000000000
0.463631362 0.060573570 0.000000000
0.498048872 0.057540171 0.000000000
0.533113480 0.054258440 0.000000000
0.568561792 0.050848082 0.000000000
0.604254484 0.047347054 0.000000000
0.640080631 0.043794136 0.000000000
0.675704122 0.040283766 0.000000000
0.710867941 0.036887944 0.000000000
0.745311141 0.033702549 0.000000000
0.779094338 0.030726191 0.000000000
0.812401235 0.027915303 0.000000000
0.845373988 0.025206869 0.000000000
0.878120124 0.022597123 0.000000000
0.910736501 0.020107105 0.000000000
0.943233609 0.017742822 0.000000000
0.975560427 0.015465973 0.000000000
0.993794918 0.013213481 0.000000000
0.996774197 0.011200885 0.000000000
0.998387098 0.009282264 0.000000000
1.000000000 0.007322486 0.000000000
0.130696863 0.095603675 0.000000000
0.159732804 0.093990833 0.000000000
0.186954215 0.094969571 0.000000000
0.218328863 0.093516625 0.000000000
0.242294893 0.093288444 0.000000000
0.263561696 0.093863636 0.000000000
0.285886347 0.094223700 0.000000000
0.309911907 0.094098829 0.000000000
0.335978240 0.093404882 0.000000000
0.364535362 0.091996886 0.000000000
0.395562112 0.089851514 0.000000000
0.427896738 0.087293640 0.000000000
0.461193502 0.084443085 0.000000000
0.495512545 0.081334822 0.000000000
0.530557275 0.078042835 0.000000000
0.565976262 0.074612863 0.000000000
0.601663172 0.071113251 0.000000000
0.637506783 0.067579485 0.000000000
0.673190355 0.064130351 0.000000000
0.708422780 0.060809806 0.000000000
0.742935121 0.057694558 0.000000000
0.776794732 0.054813575 0.000000000
0.810234666 0.052136000 0.000000000
0.843399048 0.049615115 0.000000000
0.876331806 0.047191922 0.000000000
0.909123898 0.044879083 0.000000000
0.941832423 0.042748637 0.000000000
0.974482238 0.040774830 0.000000000
0.993691146 0.038829546 0.000000000
0.996774197 0.036950201 0.000000000
0.998387098 0.035496902 0.000000000
1.000000000 0.034010749 0.000000000
0.128160059 0.122520290 0.000000000
0.158993885 0.120136075 0.000000000
0.184167579 0.120486155 0.000000000
0.212123632 0.120973818 0.000000000
0.242491424 0.119314507 0.000000000
0.269327670 0.117954962 0.000000000
0.291645437 0.117521673 0.000000000
0.313578844 0.117335863 0.000000000
0.337718636 0.116712026 0.000000000
0.364806443 0.115402259 0.000000000
0.394802362 0.113355704 0.000000000
0.426459372 0.110884912 0.000000000
0.459337115 0.108093992 0.000000000
0.493402809 0.104984984 0.000000000
0.528312504 0.101687253 0.000000000
0.563700736 0.098311238 0.000000000
0.599405766 0.094869569 0.000000000
0.635290027 0.091401808 0.000000000
0.671108365 0.088107839 0.000000000
0.706552207 0.085009448 0.000000000
0.741258204 0.082104646 0.000000000
0.775296032 0.079408862 0.000000000
0.808917105 0.076923504 0.000000000
0.842326641 0.074652262 0.000000000
0.875576854 0.072548002 0.000000000
0.908675015 0.070553139 0.000000000
0.941673517 0.068704665 0.000000000
0.974679351 0.067086235 0.000000000
0.993692517 0.065622598 0.000000000
0.996774197 0.064227253 0.000000000
0.998387098 0.063028276 0.000000000
1.000000000 0.062113121 0.000000000
0.125597388 0.148170516 0.000000000
0.157010898 0.145068660 0.000000000
0.184164330 0.143787548 0.000000000
0.207579389 0.145182818 0.000000000
0.235327408 0.145294294 0.000000000
0.265468121 0.143550530 0.000000000
0.294151217 0.141663715 0.000000000
0.320145577 0.140160248 0.000000000
0.344494045 0.139019266 0.000000000
0.370164871 0.137668967 0.000000000
0.398637652 0.135771707 0.000000000
0.429014802 0.133507028 0.000000000
0.460913688 0.130962983 0.000000000
0.494211376 0.128104657 0.000000000
0.528525412 0.125025928 0.000000000
0.563538074 0.121861041 0.000000000
0.599066198 0.118667819 0.000000000
0.634938061 0.115443364 0.000000000
0.670745015 0.112288870 0.000000000
0.706292033 0.109387666 0.000000000
0.741290987 0.106836393 0.000000000
0.775659084 0.104510061 0.000000000
0.809573650 0.102341220 0.000000000
0.843269289 0.100377217 0.000000000
0.876902640 0.098675139 0.000000000
0.910478950 0.097172201 0.000000000
0.943935394 0.095786288 0.000000000
0.977337122 0.094578810 0.000000000
0.993921161 0.093602441 0.000000000
0.996774197 0.092818759 0.000000000
0.998387098 0.092209853 0.000000000
1.000000000 0.091565952 0.000000000
0.122282505 0.172964066 0.000000000
0.154094532 0.169491217 0.000000000
0.182788000 0.167350888 0.000000000
0.206642166 0.167471185 0.000000000
0.229501605 0.169186130 0.000000000
0.257684737 0.168963954 0.000000000
0.288095921 0.167163283 0.000000000
0.318686277 0.164916918 0.000000000
0.348438263 0.162696317 0.000000000
0.377187878 0.160463944 0.000000000
0.406048775 0.158218905 0.000000000
0.435535014 0.155977920 0.000000000
0.466289997 0.153639048 0.000000000
0.498582870 0.151117623 0.000000000
0.532091379 0.148396000 0.000000000
0.566419423 0.145561635 0.000000000
0.601429522 0.142719105 0.000000000
0.636965394 0.139919877 0.000000000
0.672604859 0.137205943 0.000000000
0.707998574 0.134644017 0.000000000
0.742952645 0.132424280 0.000000000
0.777556241 0.130590245 0.000000000
0.811895490 0.129009470 0.000000000
0.845984578 0.127551779 0.000000000
0.879973888 0.126288146 0.000000000
0.914030492 0.125306159 0.000000000
0.948076010 0.124535888 0.000000000
0.981995761 0.123878978 0.000000000
0.994347692 0.123277120 0.000000000
0.996774197 0.122815751 0.000000000
0.998387098 0.122552022 0.000000000
1.000000000 0.122249514 0.000000000
0.118240036 0.197485760 0.000000000
0.150401592 0.193839937 0.000000000
0.180141658 0.191250592 0.000000000
0.205732018 0.190333679 0.000000000
0.227350235 0.191693038 0.000000000
0.251226664 0.193341076 0.000000000
0.280174136 0.192924410 0.000000000
0.311746866 0.190979108 0.000000000
0.344484091 0.188376024 0.000000000
0.377917469 0.185470328 0.000000000
0.411206573 0.182426214 0.000000000
0.443182647 0.179637015 0.000000000
0.474477053 0.177110016 0.000000000
0.506281734 0.174716413 0.000000000
0.539048016 0.172365189 0.000000000
0.572687984 0.169970483 0.000000000
0.607058525 0.167540997 0.000000000
0.642098367 0.165207162 0.000000000
0.677447855 0.163076758 0.000000000
0.712713599 0.161132753 0.000000000
0.747526824 0.159436435 0.000000000
0.782024443 0.158083662 0.000000000
0.816449106 0.157096088 0.000000000
0.850838661 0.156370834 0.000000000
0.885098636 0.155708283 0.000000000
0.919299781 0.155126885 0.000000000
0.953520358 0.154709563 0.000000000
0.987116992 0.154427290 0.000000000
0.994877934 0.154156029 0.000000000
0.996774197 0.153925598 0.000000000
0.998387098 0.153875276 0.000000000
1.000000000 0.153820142 0.000000000
0.113084905 0.222356468 0.000000000
0.145560145 0.218618467 0.000000000
0.176136345 0.215806529 0.000000000
0.203196570 0.214349434 0.000000000
0.225813523 0.214917973 0.000000000
0.247450620 0.216907531 0.000000000
0.272875190 0.218359992 0.000000000
0.303386837 0.217726216 0.000000000
0.336805016 0.215623409 0.000000000
0.372322768 0.212677285 0.000000000
0.409201413 0.209298790 0.000000000
0.445542783 0.205997422 0.000000000
0.480571836 0.202978313 0.000000000
0.514553487 0.200283229 0.000000000
0.548061669 0.197957322 0.000000000
0.581638694 0.195928484 0.000000000
0.615643024 0.194011196 0.000000000
0.650205255 0.192169249 0.000000000
0.685109615 0.190572321 0.000000000
0.720118225 0.189287975 0.000000000
0.754813612 0.188272610 0.000000000
0.789131105 0.187469333 0.000000000
0.823267460 0.186873019 0.000000000
0.857429624 0.186524436 0.000000000
0.891641259 0.186349392 0.000000000
0.925781846 0.186178505 0.000000000
0.959851563 0.186053261 0.000000000
0.989871085 0.186041802 0.000000000
0.995161295 0.186065987 0.000000000
0.996774197 0.186101317 0.000000000
0.998387098 0.186260700 0.000000000
1.000000000 0.186397523 0.000000000
0.106576122 0.248027310 0.000000000
0.139370799 0.244309127 0.000000000
0.170654953 0.241411462 0.000000000
0.198839471 0.239762604 0.000000000
0.223102912 0.239724487 0.000000000
0.244812295 0.241345331 0.000000000
0.267593801 0.243679926 0.000000000
0.295325607 0.244879469 0.000000000
0.328032643 0.244096726 0.000000000
0.364124566 0.241796538 0.000000000
0.402616978 0.238670021 0.000000000
0.441807836 0.235390514 0.000000000
0.480627924 0.232195705 0.000000000
0.518580198 0.229208007 0.000000000
0.555309474 0.226601586 0.000000000
0.590859950 0.224517226 0.000000000
0.625781953 0.222845227 0.000000000
0.660509229 0.221428931 0.000000000
0.695122898 0.220224634 0.000000000
0.729642570 0.219288856 0.000000000
0.763840795 0.218677163 0.000000000
0.797761381 0.218287617 0.000000000
0.831479728 0.218051150 0.000000000
0.865191936 0.217952624 0.000000000
0.899043798 0.218061239 0.000000000
0.932974517 0.218271524 0.000000000
0.966801465 0.218464091 0.000000000
0.990725815 0.218704373 0.000000000
0.995161295 0.218981296 0.000000000
0.996774197 0.219306320 0.000000000
0.998387098 0.219716966 0.000000000
1.000000000 0.220069945 0.000000000
0.098313555 0.274938434 0.000000000
0.131520301 0.271404654 0.000000000
0.163473561 0.268555790 0.000000000
0.192681909 0.266896874 0.000000000
0.218452632 0.266614407 0.000000000
0.241378635 0.267882824 0.000000000
0.263587654 0.270279855 0.000000000
0.288678110 0.272727937 0.000000000
0.319267899 0.273742855 0.000000000
0.354971021 0.272844493 0.000000000
0.394043952 0.270520091 0.000000000
0.434523404 0.267662883 0.000000000
0.475645691 0.264719754 0.000000000
0.516777217 0.261802316 0.000000000
0.557105780 0.259056956 0.000000000
0.596108794 0.256670892 0.000000000
0.633638680 0.254708976 0.000000000
0.669935822 0.253145754 0.000000000
0.705218673 0.251968205 0.000000000
0.739704430 0.251135945 0.000000000
0.773506939 0.250691056 0.000000000
0.806937635 0.250546873 0.000000000
0.840187550 0.250597298 0.000000000
0.873409808 0.250748277 0.000000000
0.906718791 0.251055002 0.000000000
0.940251887 0.251561165 0.000000000
0.973813295 0.252088845 0.000000000
0.991614282 0.252598673 0.000000000
0.995161295 0.253104717 0.000000000
0.996774197 0.253657937 0.000000000
0.998387098 0.254333854 0.000000000
1.000000000 0.254909456 0.000000000
0.088650502 0.303583056 0.000000000
0.122299701 0.300308287 0.000000000
0.154950082 0.297641039 0.000000000
0.185050085 0.296045125 0.000000000
0.212077573 0.295835286 0.000000000
0.236690655 0.296922803 0.000000000
0.259645939 0.299339652 0.000000000
0.283728361 0.302285194 0.000000000
0.311881334 0.304727882 0.000000000
0.345917672 0.305509031 0.000000000
0.384742796 0.304529548 0.000000000
0.425753623 0.302491188 0.000000000
0.467831701 0.299965262 0.000000000
0.510628998 0.297218174 0.000000000
0.553341389 0.294459462 0.000000000
0.595236659 0.291858435 0.000000000
0.635897040 0.289547443 0.000000000
0.675032914 0.287578732 0.000000000
0.712448120 0.286067396 0.000000000
0.748242557 0.285050094 0.000000000
0.782593250 0.284506559 0.000000000
0.815989494 0.284385651 0.000000000
0.848921597 0.284585148 0.000000000
0.881741762 0.284955323 0.000000000
0.914543271 0.285433561 0.000000000
0.947530687 0.286088586 0.000000000
0.980736315 0.286929339 0.000000000
0.992446601 0.287705094 0.000000000
0.995161295 0.288438916 0.000000000
0.996774197 0.289180577 0.000000000
0.998387098 0.290042400 0.000000000
1.000000000 0.290834218 0.000000000
0.078895107 0.333894640 0.000000000
0.113021545 0.330946267 0.000000000
0.146482185 0.328656852 0.000000000
0.177574992 0.327369213 0.000000000
0.205591664 0.327239990 0.000000000
0.231787249 0.328345329 0.000000000
0.256061256 0.330716133 0.000000000
0.280415803 0.333864987 0.000000000
0.307173222 0.337047040 0.000000000
0.338899136 0.339193434 0.000000000
0.376183987 0.339552492 0.000000000
0.416777492 0.338555425 0.000000000
0.459114105 0.336633056 0.000000000
0.502567053 0.334205776 0.000000000
0.546515107 0.331579238 0.000000000
0.590263605 0.328965276 0.000000000
0.633324862 0.326505333 0.000000000
0.675204217 0.324253112 0.000000000
0.715367436 0.322341114 0.000000000
0.753643274 0.320944905 0.000000000
0.789807737 0.320117116 0.000000000
0.824299574 0.319780111 0.000000000
0.857721567 0.319860160 0.000000000
0.890563726 0.320259333 0.000000000
0.923129857 0.320853919 0.000000000
0.955650210 0.321571648 0.000000000
0.986101866 0.322515309 0.000000000
0.993363142 0.323574960 0.000000000
0.995161295 0.324502826 0.000000000
0.996774197 0.325433761 0.000000000
0.998387098 0.326446176 0.000000000
1.000000000 0.327402145 0.000000000
0.069782190 0.366158456 0.000000000
0.104447708 0.363625616 0.000000000
0.138620913 0.361687839 0.000000000
0.170647487 0.360773563 0.000000000
0.199752048 0.360957891 0.000000000
0.226961225 0.361931473 0.000000000
0.252630830 0.364127517 0.000000000
0.277655572 0.367156327 0.000000000
0.304048002 0.370474279 0.000000000
0.334001631 0.373374313 0.000000000
0.369113535 0.374974787 0.000000000
0.408330858 0.375112444 0.000000000
0.450246304 0.374072284 0.000000000
0.493833065 0.372165501 0.000000000
0.538265467 0.369829267 0.000000000
0.582961023 0.367357016 0.000000000
0.627531290 0.364942282 0.000000000
0.671443939 0.362639606 0.000000000
0.713956237 0.360502452 0.000000000
0.754713178 0.358747274 0.000000000
0.793393075 0.357546270 0.000000000
0.830023170 0.356872886 0.000000000
0.864971280 0.356641799 0.000000000
0.898761809 0.356812090 0.000000000
0.931772232 0.357296675 0.000000000
0.964373112 0.358008713 0.000000000
0.988164127 0.358882129 0.000000000
0.993548393 0.360058606 0.000000000
0.995161295 0.361156821 0.000000000
0.996774197 0.362228334 0.000000000
0.998387098 0.363359690 0.000000000
1.000000000 0.364428461 0.000000000
0.061361425 0.400447518 0.000000000
0.096589513 0.398363799 0.000000000
0.131339714 0.396691561 0.000000000
0.163969710 0.395922691 0.000000000
0.193889171 0.396238953 0.000000000
0.221983299 0.397281647 0.000000000
0.248654097 0.399053812 0.000000000
0.274691463 0.401889473 0.000000000
0.301288992 0.405110389 0.000000000
0.330459267 0.408230215 0.000000000
0.363696069 0.410637677 0.000000000
0.400955379 0.411933839 0.000000000
0.441651851 0.411914259 0.000000000
0.484842420 0.410799712 0.000000000
0.529372334 0.408955991 0.000000000
0.574446857 0.406756967 0.000000000
0.619727790 0.404483497 0.000000000
0.664893508 0.402276933 0.000000000
0.709087193 0.400137633 0.000000000
0.751820087 0.398189127 0.000000000
0.792703867 0.396680325 0.000000000
0.831677258 0.395660102 0.000000000
0.868854582 0.395065218 0.000000000
0.904472709 0.394867957 0.000000000
0.938786626 0.395037800 0.000000000
0.972208142 0.395524621 0.000000000
0.989496887 0.396277249 0.000000000
0.993548393 0.397330523 0.000000000
0.995161295 0.398448914 0.000000000
0.996774197 0.399551570 0.000000000
0.998387098 0.400741518 0.000000000
1.000000000 0.401872188 0.000000000
0.053479295 0.436237633 0.000000000
0.089090623 0.434444368 0.000000000
0.124327123 0.432987660 0.000000000
0.157463774 0.432324052 0.000000000
0.188003898 0.432660073 0.000000000
0.216813251 0.433731884 0.000000000
0.244461194 0.435380638 0.000000000
0.271369189 0.437752962 0.000000000
0.298619658 0.440840691 0.000000000
0.327680945 0.443915606 0.000000000
0.359839171 0.446687728 0.000000000
0.395232111 0.448837250 0.000000000
0.434173465 0.449890673 0.000000000
0.476285547 0.449688882 0.000000000
0.520406842 0.448561877 0.000000000
0.565531909 0.446816176 0.000000000
0.611076236 0.444756836 0.000000000
0.656829417 0.442745149 0.000000000
0.702039361 0.440697819 0.000000000
0.746152759 0.438748896 0.000000000
0.788707733 0.437084824 0.000000000
0.829591572 0.435794979 0.000000000
0.868871093 0.434880733 0.000000000
0.906612754 0.434314698 0.000000000
0.942923665 0.434088498 0.000000000
0.977883160 0.434198797 0.000000000
0.990598142 0.434656441 0.000000000
0.993548393 0.435476482 0.000000000
0.995161295 0.436407030 0.000000000
0.996774197 0.437369913 0.000000000
0.998387098 0.438500077 0.000000000
1.000000000 0.439594030 0.000000000
0.046092350 0.473079473 0.000000000
0.081955276 0.471465349 0.000000000
0.117587298 0.470171154 0.000000000
0.151212856 0.469632715 0.000000000
0.182285950 0.470004767 0.000000000
0.211707905 0.471066117 0.000000000
0.240097627 0.472676814 0.000000000
0.268030733 0.474774450 0.000000000
0.295998484 0.477516800 0.000000000
0.325358361 0.480474889 0.000000000
0.357113302 0.483250588 0.000000000
0.391219914 0.485869855 0.000000000
0.428348988 0.487783194 0.000000000
0.468879044 0.488570660 0.000000000
0.512029767 0.488238513 0.000000000
0.556745768 0.487136334 0.000000000
0.602278352 0.485486001 0.000000000
0.648121476 0.483561188 0.000000000
0.693914413 0.481804907 0.000000000
0.738821208 0.479929894 0.000000000
0.782501936 0.478252113 0.000000000
0.824786127 0.476835221 0.000000000
0.865715444 0.475688279 0.000000000
0.905306458 0.474812090 0.000000000
0.943546236 0.474223733 0.000000000
0.980434000 0.473934859 0.000000000
0.991283178 0.473957360 0.000000000
0.993548393 0.474445820 0.000000000
0.995161295 0.475009978 0.000000000
0.996774197 0.475696683 0.000000000
0.998387098 0.476611376 0.000000000
1.000000000 0.477525413 0.000000000
0.039141733 0.510762453 0.000000000
0.075222984 0.509285510 0.000000000
0.111175291 0.508106411 0.000000000
0.145232245 0.507683039 0.000000000
0.176803291 0.508131027 0.000000000
0.206792012 0.509190738 0.000000000
0.235769361 0.510758877 0.000000000
0.264565498 0.512669027 0.000000000
0.293421090 0.515117168 0.000000000
0.323290974 0.517837703 0.000000000
0.355028987 0.520484388 0.000000000
0.388469964 0.523175061 0.000000000
0.424189329 0.525623202 0.000000000
0.462993741 0.527246356 0.000000000
0.504698336 0.527808785 0.000000000
0.548504710 0.527410626 0.000000000
0.593628109 0.526315808 0.000000000
0.639401793 0.524744630 0.000000000
0.685227871 0.523052871 0.000000000
0.730607927 0.521437883 0.000000000
0.774895549 0.519810319 0.000000000
0.818087339 0.518369675 0.000000000
0.860187292 0.517099619 0.000000000
0.901176214 0.516007781 0.000000000
0.941014111 0.515128613 0.000000000
0.979634225 0.514478743 0.000000000
0.991465509 0.514079154 0.000000000
0.993548393 0.514055192 0.000000000
0.995161295 0.514277637 0.000000000
0.996774197 0.514551461 0.000000000
0.998387098 0.515117764 0.000000000
1.000000000 0.515732050 0.000000000
0.032635372 0.549127162 0.000000000
0.068949476 0.547811866 0.000000000
0.105174422 0.546729803 0.000000000
0.139580831 0.546372712 0.000000000
0.171580747 0.546881497 0.000000000
0.202109352 0.547964394 0.000000000
0.231612831 0.549494326 0.000000000
0.261055470 0.551275730 0.000000000
0.290767342 0.553424835 0.000000000
0.321334243 0.555885792 0.000000000
0.353348881 0.558336020 0.000000000
0.386543185 0.560895026 0.000000000
0.421360552 0.563496232 0.000000000
0.458666682 0.565677106 0.000000000
0.498738855 0.567045212 0.000000000
0.541223347 0.567436635 0.000000000
0.585482776 0.566965759 0.000000000
0.630839050 0.565877199 0.000000000
0.676555634 0.564507365 0.000000000
0.721974492 0.563014269 0.000000000
0.766544044 0.561502695 0.000000000
0.810192704 0.560074389 0.000000000
0.853017032 0.558756649 0.000000000
0.894971490 0.557540834 0.000000000
0.935992718 0.556449652 0.000000000
0.975989878 0.555511951 0.000000000
0.991142809 0.554756224 0.000000000
0.993548393 0.554282606 0.000000000
0.995161295 0.554096222 0.000000000
0.996774197 0.553921640 0.000000000
0.998387098 0.554013610 0.000000000
1.000000000 0.554214001 0.000000000
0.026799520 0.587957859 0.000000000
0.063335739 0.586808562 0.000000000
0.099818461 0.585830510 0.000000000
0.134533972 0.585516632 0.000000000
0.166885167 0.586041927 0.000000000
0.197868213 0.587129354 0.000000000
0.227872595 0.588638008 0.000000000
0.257817447 0.590324044 0.000000000
0.288270235 0.592212856 0.000000000
0.319589823 0.594375849 0.000000000
0.352052748 0.596569896 0.000000000
0.385287881 0.598946631 0.000000000
0.419670433 0.601446390 0.000000000
0.455891222 0.603843272 0.000000000
0.494429678 0.605766237 0.000000000
0.535354078 0.606907368 0.000000000
0.578389704 0.607138038 0.000000000
0.622956097 0.606610417 0.000000000
0.668214321 0.605650485 0.000000000
0.713460565 0.604393780 0.000000000
0.758039117 0.603014529 0.000000000
0.801851511 0.601632118 0.000000000
0.844992042 0.600290060 0.000000000
0.887514830 0.598999858 0.000000000
0.929327965 0.597773314 0.000000000
0.970319331 0.596619964 0.000000000
0.990441501 0.595580578 0.000000000
0.993548393 0.594800949 0.000000000
0.995161295 0.594153047 0.000000000
0.996774197 0.593539298 0.000000000
0.998387098 0.593159020 0.000000000
1.000000000 0.592854738 0.000000000
0.021784343 0.627071679 0.000000000
0.058513224 0.626083136 0.000000000
0.095242247 0.625193477 0.000000000
0.130241707 0.624929786 0.000000000
0.162894487 0.625457227 0.000000000
0.194235429 0.626506865 0.000000000
0.224676609 0.627965689 0.000000000
0.255072057 0.629586101 0.000000000
0.286043644 0.631207466 0.000000000
0.318081677 0.633063316 0.000000000
0.351155818 0.634993076 0.000000000
0.384619236 0.637119114 0.000000000
0.418841630 0.639445901 0.000000000
0.454440624 0.641791582 0.000000000
0.491758734 0.643964171 0.000000000
0.531148553 0.645641565 0.000000000
0.572697997 0.646546841 0.000000000
0.616065145 0.646603405 0.000000000
0.660621285 0.646181107 0.000000000
0.705351353 0.645229161 0.000000000
0.749716341 0.644031942 0.000000000
0.793498099 0.642744541 0.000000000
0.836733580 0.641430855 0.000000000
0.879456282 0.640084743 0.000000000
0.921682358 0.638745427 0.000000000
0.963324487 0.637435198 0.000000000
0.989473462 0.636180341 0.000000000
0.993548393 0.635187209 0.000000000
0.995161295 0.634112000 0.000000000
0.996774197 0.633084774 0.000000000
0.998387098 0.632276773 0.000000000
1.000000000 0.631502986 0.000000000
0.017817099 0.666351736 0.000000000
0.054692354 0.665463269 0.000000000
0.091597632 0.664619565 0.000000000
0.126831278 0.664378166 0.000000000
0.159753844 0.664902329 0.000000000
0.191398650 0.665913761 0.000000000
0.222199306 0.667287111 0.000000000
0.252974480 0.668809533 0.000000000
0.284393817 0.670289516 0.000000000
0.316972971 0.671733022 0.000000000
0.350708693 0.673389316 0.000000000
0.384551972 0.675220609 0.000000000
0.418813795 0.677293420 0.000000000
0.454092026 0.679456234 0.000000000
0.490604728 0.681637526 0.000000000
0.528675795 0.683591306 0.000000000
0.568694890 0.684994578 0.000000000
0.610646129 0.685656369 0.000000000
0.653971910 0.685641527 0.000000000
0.698077142 0.685223401 0.000000000
0.741910279 0.684279025 0.000000000
0.785442173 0.683133304 0.000000000
