Desert Affinity Presets/Desert Affinity Preset #11.cube
TITLE "32x32x32 Adobe/IRIDAS cube 3D LUT exported with GrossGrade v0.1.027.1 (beta) 64 bit"
LUT_3D_SIZE 8
DOMAIN_MIN 0.000000 0.000000 0.000000
DOMAIN_MAX 0.903226 0.903226 0.903226
0.000000000 0.030717203 0.158441946
0.006451614 0.033860944 0.157935053
0.045794830 0.000440961 0.120492794
0.205006763 0.000000000 0.110366367
0.362503946 0.000000000 0.100799233
0.529638171 0.000000000 0.088633642
0.707672775 0.000000000 0.073317356
0.893770814 0.000000000 0.055929121
0.000000000 0.139593214 0.205324873
0.006451614 0.137899294 0.191350281
0.167256549 0.096911266 0.131184444
0.353628546 0.084476039 0.100904964
0.529745340 0.074617282 0.075323477
0.697299480 0.066571921 0.056135833
0.838102937 0.065026976 0.050804079
0.971733928 0.065500639 0.047859978
0.000000000 0.280715734 0.172947094
0.006451614 0.272799283 0.155327305
0.199650571 0.225041687 0.094958320
0.389848351 0.210235775 0.076387249
0.552306890 0.202978238 0.065518975
0.700836420 0.199317276 0.058365870
0.840345025 0.198134124 0.053758439
0.973538101 0.198720053 0.051011659
0.000000000 0.421830624 0.140589356
0.006451614 0.408730626 0.145952821
0.199247211 0.359264284 0.094541967
0.389185131 0.344472319 0.076750614
0.551354170 0.337270409 0.066270925
0.699560583 0.333646029 0.059369825
0.838745594 0.332524031 0.055018675
0.971596897 0.333218336 0.052553855
0.000000000 0.554739594 0.128844276
0.006451614 0.543160498 0.141514078
0.197153598 0.494109839 0.092572339
0.386785895 0.479378849 0.075660601
0.548490405 0.472167015 0.065720528
0.696395040 0.468707800 0.059385262
0.835096657 0.467643410 0.055459183
0.967419863 0.468438685 0.053495180
0.000000000 0.687868834 0.116454706
0.006451614 0.677019894 0.132642537
0.194333673 0.629298627 0.089785881
0.383573890 0.614587426 0.073897719
0.544823110 0.607385278 0.064882517
0.692072630 0.603910029 0.059391368
0.830220461 0.603061438 0.056557570
0.961691916 0.603995383 0.055653222
0.000000000 0.820929587 0.104247883
0.006451614 0.810542881 0.122629061
0.191970587 0.764299512 0.087575421
0.380701989 0.749589920 0.073187858
0.541442811 0.742395103 0.065643787
0.687984824 0.738966405 0.061619982
0.825244188 0.738247991 0.060216665
0.955675423 0.739351094 0.060579106
0.000000000 0.953465044 0.093482301
0.006451614 0.943403244 0.113727868
0.191416338 0.898571372 0.087333694
0.379139543 0.883927941 0.074910998
0.539094031 0.876803398 0.068877868
0.684760690 0.873556733 0.066118427
0.821029127 0.873038232 0.065633051
0.950500309 0.874357402 0.066619754
0.000000000 0.064634733 0.077857889
0.006451614 0.042824637 0.148395464
0.068048127 0.006390428 0.126376063
0.230580181 0.000000000 0.131748796
0.390814781 0.000000000 0.137295827
0.559888721 0.000000000 0.139430255
0.738776624 0.000000000 0.137645632
0.923687518 0.000000000 0.132609308
0.000000000 0.139393792 0.162729278
0.006451614 0.144619912 0.231774598
0.179320097 0.101419121 0.184925169
0.367708862 0.087169953 0.167022973
0.543400347 0.076348394 0.152535379
0.703692019 0.069538534 0.142079800
0.843491018 0.068249300 0.137134477
0.976944208 0.068832383 0.134063140
0.000000000 0.266281068 0.188943729
0.006451614 0.274574161 0.227175981
0.204903945 0.228143468 0.182912201
0.395296067 0.213293552 0.164610580
0.557903349 0.205981746 0.153881550
0.706462324 0.202228904 0.146786585
0.846038938 0.201044828 0.142306969
0.979275644 0.201653108 0.139655009
0.000000000 0.406963378 0.173452750
0.006451614 0.407320887 0.215866059
0.204604074 0.362292171 0.182870954
0.394412190 0.347544372 0.165439442
0.556525469 0.340199709 0.154848814
0.704912841 0.336637110 0.148011357
0.844191313 0.335536718 0.143690288
0.977092087 0.336225361 0.141205192
0.000000000 0.541892350 0.164920896
0.006451614 0.539981186 0.204497010
0.202928796 0.497082174 0.180528790
0.392092973 0.482427448 0.164328307
0.553635418 0.475157171 0.154401824
0.701539636 0.471690685 0.147986129
0.840370953 0.470714301 0.144066319
0.972706497 0.471511453 0.142012224
0.000000000 0.676120102 0.154944509
0.006451614 0.673033476 0.192383990
0.202314913 0.631818950 0.175868675
0.389092237 0.617606103 0.162214801
0.550109506 0.610417128 0.153380349
0.697319806 0.606989384 0.147864610
0.835436344 0.606179416 0.144888252
0.966834605 0.607103229 0.143742755
0.000000000 0.809897363 0.144499332
0.006451614 0.805957913 0.180566192
0.206483826 0.765463054 0.167925760
0.386573017 0.752537429 0.160810977
0.546953619 0.745384157 0.153509036
0.693407297 0.742070079 0.149465680
0.830547750 0.741396904 0.147795945
0.960869014 0.742500663 0.147782356
0.000000000 0.942815602 0.134690613
0.006451614 0.938258529 0.170355245
0.213277414 0.898281097 0.160432741
0.385586679 0.886846125 0.161368683
0.544882655 0.879747450 0.155536026
0.690427780 0.876704097 0.152781188
0.826531410 0.876240432 0.152006924
0.955897510 0.877609730 0.152642474
0.000000000 0.097595945 0.017775308
0.006451614 0.054566003 0.160908014
0.088750891 0.011337828 0.150556043
0.254399270 0.000515312 0.170687005
0.417015642 0.000000000 0.190383196
0.587617695 0.000000000 0.205719173
0.766879797 0.000000000 0.216228172
0.949617922 0.000000000 0.221649557
0.000000000 0.176640406 0.084674224
0.006451614 0.172502905 0.234422192
0.190943792 0.104338147 0.256340653
0.381215900 0.088339940 0.250212371
0.556538701 0.076572865 0.245156333
0.710001290 0.071288325 0.238972247
0.849925160 0.070065953 0.234738484
0.983452201 0.070567742 0.232161194
0.000000000 0.273085088 0.193333358
0.007618781 0.268178225 0.252260596
0.209565133 0.230647117 0.278549433
0.400263488 0.215772375 0.260014951
0.562727451 0.208382085 0.248975515
0.711232185 0.204730898 0.241669357
0.850728095 0.203683004 0.236966655
0.983787656 0.204357132 0.233978778
0.000000000 0.389028668 0.214591384
0.013968987 0.388968050 0.256657064
0.220036447 0.362537622 0.269335270
0.399064243 0.350041687 0.261613518
0.561281383 0.342623413 0.250954300
0.709775686 0.339003652 0.244075879
0.849184036 0.337934166 0.239794284
0.982087851 0.338591784 0.237263307
0.000000000 0.518460095 0.203220874
0.014060642 0.524450183 0.245192379
0.228654891 0.495178699 0.258268833
0.396929443 0.484895289 0.260272712
0.558248162 0.477614701 0.250533402
0.706206620 0.474147230 0.244037926
0.845133185 0.473193705 0.240049317
0.977402329 0.473901659 0.237797722
0.000000000 0.654192328 0.189006969
0.013694026 0.659565806 0.235904768
0.236384302 0.628164172 0.246313840
0.394287467 0.619909108 0.257356077
0.554826975 0.612828255 0.249152228
0.701995313 0.609512269 0.243673608
0.840090275 0.608731329 0.240500897
0.971379817 0.609583974 0.239031866
0.000000000 0.790183902 0.177613825
0.014318762 0.793646038 0.226227164
0.244543463 0.760979056 0.234791383
0.394103438 0.754406631 0.253692448
0.551988602 0.747773528 0.248462945
0.698277652 0.744617105 0.244512752
0.835288048 0.743982494 0.242577344
0.965491891 0.745071769 0.242135152
0.000000000 0.924980342 0.168814972
0.015841318 0.926652730 0.217283756
0.254288673 0.893158734 0.224857658
0.399713635 0.887380362 0.247873962
0.550414979 0.882225335 0.249235123
0.695582628 0.879284978 0.246573374
0.831446409 0.878829837 0.245521083
0.960591435 0.880148709 0.245725349
0.000000000 0.129132330 0.019354852
0.006451614 0.076986276 0.175619170
0.103894100 0.015958806 0.194728538
0.276745796 0.001430434 0.227094457
0.441563040 0.000000000 0.260168940
0.613671064 0.000000000 0.288073123
0.792750895 0.000000000 0.309539288
0.972374201 0.000000000 0.323493063
0.000000000 0.217071325 0.048175357
0.006451614 0.199105635 0.253396749
0.185521349 0.110419244 0.346630067
0.392914027 0.088690676 0.346848249
0.566019297 0.076829143 0.347580850
0.715434909 0.072919838 0.341416359
0.855228901 0.071721315 0.337299824
0.988611102 0.072177254 0.334738791
0.000000000 0.302727580 0.168267250
0.006451614 0.299669981 0.232553348
0.156859279 0.255112261 0.325868577
0.405600458 0.217356607 0.363121957
0.567977071 0.209798038 0.352240205
0.716695607 0.206215680 0.345451176
0.856285930 0.205099031 0.341123462
0.989402294 0.205675542 0.338473290
0.000000000 0.400786430 0.221597552
0.027032757 0.392739385 0.277381271
0.279458493 0.355015129 0.303480059
0.403136492 0.351958811 0.364258707
0.565574408 0.344498724 0.353138238
0.714110970 0.341013163 0.345992088
0.853403509 0.340015084 0.341337919
0.986042023 0.340644389 0.338317364
0.000000000 0.510926783 0.244391263
0.091350816 0.506099164 0.293283433
0.321557939 0.476338923 0.305806071
0.411775202 0.484519392 0.353204638
0.562365472 0.479577333 0.353144288
0.710469723 0.476114094 0.346554518
0.849459887 0.475108236 0.342413545
0.981694639 0.475747973 0.339981735
0.002839359 0.633955836 0.240789711
0.110394016 0.635777116 0.280810565
0.320086956 0.612117887 0.293363839
0.419525594 0.617428958 0.341277391
0.559180081 0.614754736 0.351191163
0.706179082 0.611540914 0.345861554
0.844199240 0.610702515 0.342380971
0.975549042 0.611621141 0.340683699
0.009483219 0.765544772 0.225573748
0.110566944 0.771254957 0.266465873
0.320450127 0.746965826 0.284246594
0.427756280 0.750118077 0.329816431
0.556942463 0.749690056 0.349325180
0.702699482 0.746660590 0.345798939
0.839462638 0.746002495 0.343535990
0.969673097 0.747199833 0.342778057
0.012244019 0.900253415 0.210739851
0.109990433 0.906545579 0.256127834
0.325687319 0.880266190 0.275812507
0.437419385 0.882338107 0.319801778
0.557715833 0.883755267 0.347194582
0.700344443 0.881366253 0.346471786
0.835880995 0.880937338 0.345290214
0.964978993 0.882378280 0.345262200
0.000000000 0.159352154 0.025806461
0.006451614 0.103485107 0.187382132
0.094851807 0.025784293 0.258647621
0.296392798 0.001810138 0.300641835
0.464459807 0.000000000 0.345880002
0.637862742 0.000000000 0.385395616
0.816257656 0.000000000 0.416315705
0.984592080 0.000000000 0.433463424
0.000000000 0.252986431 0.050093900
0.006451614 0.224578410 0.287917674
0.143319681 0.127558678 0.435699970
0.398679525 0.089250356 0.457844406
0.571623743 0.077686749 0.456633598
0.720455289 0.074023411 0.450279206
0.860162318 0.072844543 0.446185887
0.992269993 0.073238276 0.443562359
0.000000000 0.337927908 0.157601476
0.006451614 0.335161000 0.243693680
0.103659354 0.279089898 0.379377663
0.394701272 0.222684175 0.475889295
0.572806001 0.210923359 0.461409003
0.721451461 0.207381040 0.454501539
0.860894918 0.206236273 0.450050503
0.992348611 0.206722736 0.447236210
0.000000000 0.426746607 0.207475021
0.011036115 0.420286447 0.262328476
0.225658685 0.385880530 0.290396869
0.349778771 0.375783384 0.417913109
0.570390642 0.345605582 0.462577611
0.718945205 0.342094272 0.455607325
0.858247817 0.340998828 0.451173931
0.990912914 0.341525465 0.448380411
0.000000000 0.525520325 0.250933766
0.094466634 0.517411232 0.306645989
0.347042084 0.479610533 0.332681715
0.470626026 0.476392090 0.393294126
0.566014409 0.481064379 0.461800188
0.714366138 0.477630943 0.454708397
0.853265166 0.476676404 0.450091392
0.985314250 0.477391303 0.447153479
0.028532954 0.634267449 0.275825739
0.166945934 0.627793074 0.327952266
0.410748780 0.593176544 0.347189724
0.511994839 0.598063946 0.394489437
0.573754668 0.614049554 0.449848115
0.709899783 0.613103151 0.453983784
0.847883463 0.612165213 0.450099796
0.979338825 0.613149822 0.448161513
0.079695180 0.752773464 0.279374629
0.206255153 0.750592768 0.323890418
0.430626839 0.722596169 0.334477335
0.511210680 0.733616054 0.382120103
0.581970274 0.746847034 0.438378423
0.706729114 0.748195589 0.452721447
0.843227506 0.747612298 0.450367928
0.973445952 0.748864949 0.449249029
0.109849527 0.878946245 0.268951505
0.222210422 0.881425261 0.309084773
0.432826728 0.857324958 0.320768863
0.513148248 0.867952287 0.373931020
0.591210246 0.879231811 0.427940756
0.704923511 0.882884979 0.451670825
0.839912534 0.882602811 0.450860262
0.968910933 0.884155095 0.450658500
0.000000000 0.188181177 0.032258086
0.006451614 0.130153611 0.205670044
0.065459855 0.041016839 0.328852087
0.301020861 0.004051889 0.395146996
0.485661566 0.000000000 0.446741581
0.660119295 0.000000000 0.496531099
0.837204039 0.000000000 0.535074115
0.990059495 0.000000000 0.548072934
0.000000000 0.285002381 0.077784613
0.006451614 0.248917431 0.336942464
0.088946775 0.148941994 0.517357767
0.380253166 0.095590733 0.582186878
0.575205743 0.078543834 0.572116435
0.725022137 0.074662171 0.565022230
0.864604831 0.073428132 0.560838223
0.992695093 0.073860668 0.558229029
0.000000000 0.374075651 0.171047628
0.006451614 0.367124021 0.282888621
0.049950972 0.302563608 0.438559055
0.347839504 0.239645988 0.578782260
0.573059082 0.212595120 0.578720629
0.725840449 0.208057895 0.569434404
0.865147412 0.206852525 0.564775109
0.992754042 0.207444802 0.561934114
0.000000000 0.458080232 0.196825668
0.006451614 0.454082757 0.256628245
0.147742972 0.420844674 0.307535052
0.296115845 0.399291068 0.477322251
0.559077621 0.350574970 0.581206083
0.723267555 0.342800766 0.570447326
0.862351239 0.341618001 0.565667152
0.992498636 0.342331022 0.562851369
0.000000000 0.550128341 0.243540764
0.057179846 0.542901158 0.298286170
0.304732651 0.506597877 0.323179096
0.416453391 0.506841123 0.385784388
0.512382984 0.504607677 0.521052003
0.718689919 0.478290796 0.569463968
0.857428193 0.477186710 0.564756751
0.989685118 0.478072047 0.562149644
0.018064877 0.650104046 0.284276754
0.160957754 0.641947985 0.339942575
0.413414150 0.603916049 0.365737438
0.537177920 0.600914776 0.426570505
0.632380724 0.605639040 0.495122045
0.713153183 0.614206314 0.567520559
0.851299644 0.613262177 0.562925458
0.982699633 0.614407420 0.560415268
0.098385088 0.757679582 0.310311705
0.238763243 0.750397444 0.363892823
0.486917585 0.714084268 0.386369973
0.601779401 0.714361608 0.440715671
0.674265802 0.727164507 0.496142417
0.720999479 0.747127056 0.555675268
0.846563816 0.748794079 0.562575400
0.976909339 0.750137687 0.561091423
0.159806907 0.872622192 0.319008410
0.292452782 0.868087113 0.367170572
0.528364420 0.836229384 0.382391989
0.623233259 0.843316734 0.428343952
0.674394906 0.862388372 0.484205723
0.729507089 0.879597068 0.544495583
0.843619227 0.883840680 0.561680138
0.972425222 0.885510921 0.561465442
0.000000000 0.215785325 0.038709681
0.006451614 0.155808851 0.235434622
0.029055107 0.059445124 0.401457012
0.287925214 0.010515260 0.503167093
0.497421712 0.000000000 0.566154480
0.680308938 0.000000000 0.620363176
0.855281830 0.000000000 0.664186060
0.992361188 0.000000000 0.668164313
0.000000000 0.313984156 0.125230148
0.006451614 0.272187978 0.399659663
0.033720516 0.171045974 0.600286543
0.340702623 0.108692370 0.702909112
0.564786971 0.082475990 0.698399961
0.728935122 0.074892223 0.685459077
0.868573904 0.073530093 0.681069195
0.993082225 0.074074402 0.678517699
0.000000000 0.408293605 0.201087207
0.006451614 0.395791680 0.337748051
0.019939890 0.325623900 0.503266513
0.289774716 0.261552453 0.666828513
0.550110638 0.220332503 0.704230070
0.728685737 0.208492160 0.690614700
0.869030952 0.207067162 0.685121477
0.993127108 0.207727492 0.682209373
0.000000000 0.492162645 0.198481187
0.006451614 0.489098608 0.271536767
0.072121434 0.452225596 0.352335155
0.242047399 0.422398359 0.542182565
0.511873484 0.367244452 0.689720571
0.722952306 0.343990892 0.693084717
0.866183817 0.341858238 0.685858369
0.992863417 0.342659593 0.682883978
0.000000000 0.579234600 0.237612456
0.013381671 0.573728323 0.293047458
0.238234073 0.539866328 0.322755575
0.338189870 0.541425586 0.408235401
0.458316028 0.527722359 0.585650623
0.706847310 0.482767463 0.693061590
0.861283720 0.477524370 0.684549570
0.992385030 0.478490472 0.681591749
0.000000000 0.673692703 0.282834649
0.126049042 0.666081548 0.337651193
0.375846803 0.628993690 0.362409264
0.494661659 0.627596855 0.422065675
0.577855647 0.635673821 0.492326260
0.659005702 0.637231290 0.631195664
0.855261207 0.613645375 0.682118416
0.986606717 0.614809692 0.679481566
0.085098930 0.774093509 0.321482778
0.228064209 0.765682697 0.376901299
0.480776131 0.727795601 0.402850598
0.604409456 0.724844754 0.463724017
0.699208558 0.729653597 0.532361627
0.779174268 0.738206029 0.604755521
0.849554121 0.749629319 0.680002511
0.980075359 0.751007080 0.677729189
0.169875771 0.880307376 0.347829521
0.311060160 0.872505069 0.402125955
0.560822308 0.835716128 0.426368207
0.679425895 0.834564030 0.484141201
0.764658451 0.842783570 0.546490252
0.821474910 0.859596908 0.605924785
0.857608140 0.882495642 0.668365896
0.975523591 0.886450887 0.677482903
0.000000000 0.242152810 0.045161311
0.006451614 0.180399969 0.277987063
0.017369891 0.079186395 0.478701323
0.260789067 0.020476395 0.618620813
0.494484186 0.000000000 0.700574577
0.694315314 0.000000000 0.758268952
0.864263535 0.000000000 0.794170260
0.992752552 0.000000000 0.793444932
0.000000000 0.340731174 0.188824415
0.006451614 0.294454724 0.474792778
0.016726449 0.192760184 0.687649310
0.288152069 0.127071202 0.810152709
0.537681699 0.091024935 0.828094900
0.724624753 0.076600432 0.815310240
0.872171521 0.073331356 0.806466579
0.993431628 0.073910721 0.803908110
0.000000000 0.440363944 0.247102946
0.006451614 0.422104448 0.402473330
0.012903227 0.348333508 0.573037624
0.229900762 0.284567714 0.749698877
0.507749379 0.234303638 0.824589670
0.717564285 0.211968124 0.821956456
0.872359276 0.206930518 0.810625970
0.993463933 0.207615495 0.807548165
0.000000000 0.526949823 0.215675071
0.006451614 0.522801280 0.306473047
0.021353953 0.480419517 0.412281245
0.187591314 0.445127219 0.612001956
0.453341186 0.388717085 0.782677233
0.699502528 0.351298213 0.823400080
0.868625164 0.341994464 0.811872244
0.993194520 0.342590928 0.807960093
0.000000000 0.611240685 0.239075765
0.006451614 0.607287645 0.299516410
0.160374999 0.574554563 0.342565179
0.262343049 0.572539151 0.457896054
0.403811008 0.550399005 0.655084848
0.659221292 0.499060094 0.806070864
0.860623956 0.478479892 0.811659217
0.992713273 0.478498220 0.806066275
0.000000000 0.701097488 0.281869322
0.075462200 0.694616735 0.336154193
0.319208562 0.659487426 0.361701220
0.427998245 0.660596311 0.426065087
0.499258548 0.669851840 0.518889248
0.604605794 0.660016894 0.699761510
0.843176961 0.617943525 0.809638441
0.990042806 0.614867389 0.802877784
0.053072423 0.796806335 0.324908257
0.194787845 0.788821816 0.379516512
0.445816547 0.751606286 0.404529363
0.566712081 0.749577641 0.464134574
0.656384528 0.755884647 0.531288564
0.724457979 0.767989278 0.605409443
0.795309186 0.772565603 0.747162104
0.983738780 0.751099408 0.800152183
0.154809698 0.896946967 0.361368448
0.297749549 0.888519466 0.416775286
0.550157368 0.850798488 0.442876130
0.673141479 0.848019063 0.503929019
0.766900122 0.852847695 0.572591543
0.846169770 0.861851990 0.645426273
0.915692866 0.873505235 0.720903814
0.978260934 0.887032151 0.798264146
