Desert Affinity Presets/Desert Affinity Preset #3.cube
TITLE "32x32x32 Adobe/IRIDAS cube 3D LUT exported with GrossGrade v0.1.027.1 (beta) 64 bit"
LUT_3D_SIZE 8
DOMAIN_MIN 0.000000 0.000000 0.000000
DOMAIN_MAX 0.903226 0.903226 0.903226
0.000000000 0.052852683 0.053374514
0.064083815 0.044149909 0.044671755
0.162338734 0.030360388 0.030885970
0.303537965 0.004246882 0.004712630
0.458977938 0.000000000 0.000000000
0.609900653 0.000000000 0.000000000
0.740701258 0.000000000 0.000000000
0.859371781 0.000000000 0.000000000
0.000000000 0.098585278 0.057746239
0.057697136 0.091365345 0.047116436
0.154409096 0.079371989 0.029658949
0.299134582 0.056690309 0.005261142
0.461485267 0.033473693 0.000000000
0.623566866 0.016719047 0.000000000
0.769118667 0.010961292 0.000000000
0.901888967 0.011447142 0.000000000
0.000000000 0.160603732 0.037970353
0.045669544 0.161819562 0.037798256
0.148260266 0.163933992 0.034495492
0.303651869 0.157393485 0.021204488
0.478141606 0.147739574 0.007339224
0.649510086 0.140490308 0.000000000
0.800799966 0.140401930 0.000000000
0.938459992 0.145662904 0.001221409
0.000000000 0.280947089 0.013556640
0.032801270 0.293660849 0.025300324
0.142123759 0.303907812 0.032436091
0.298344284 0.303665429 0.026050808
0.473579794 0.299981922 0.015313945
0.647261500 0.297687411 0.007377096
0.801553547 0.301613271 0.007544969
0.942067504 0.310064584 0.013580468
0.000000000 0.434077680 0.000287584
0.023166999 0.451230317 0.015783891
0.136426911 0.465444058 0.028070454
0.294566184 0.468877941 0.027118858
0.469170272 0.468566537 0.020336129
0.641473413 0.469215631 0.013822699
0.794404984 0.474792063 0.013056753
0.933645129 0.483629882 0.017000146
0.000000000 0.599207759 0.001299967
0.026997665 0.618688166 0.019670708
0.141678751 0.634270132 0.033836152
0.299907744 0.638170302 0.034656357
0.472513258 0.637603700 0.028980456
0.640701711 0.637274265 0.022013016
0.788661063 0.641426027 0.018971598
0.922536969 0.647810996 0.018631203
0.000000000 0.761379182 0.024592349
0.049686860 0.779927075 0.042390727
0.162648305 0.793764412 0.055032659
0.318124503 0.794911802 0.053963743
0.486670434 0.790947139 0.046026915
0.649424970 0.786843657 0.036357570
0.790923178 0.787106812 0.029870821
0.918152452 0.789768517 0.025330674
0.000000000 0.912241518 0.053951118
0.075340234 0.927072644 0.068060480
0.184086502 0.936694384 0.076622985
0.335069120 0.933281958 0.071492247
0.499076724 0.924980223 0.060094628
0.657381296 0.917206287 0.047746751
0.794430375 0.914543509 0.039218914
0.917331219 0.915073454 0.032931373
0.000000000 0.054154523 0.087423384
0.055756945 0.047899265 0.081811987
0.160877109 0.030818658 0.075822338
0.304231733 0.004024768 0.050162878
0.460180074 0.000000000 0.020316897
0.611726582 0.000000000 0.006451614
0.743537962 0.000000000 0.006451614
0.863745749 0.000000000 0.006451614
0.000000000 0.099332690 0.091706723
0.058473788 0.092154734 0.084528826
0.158018976 0.079646528 0.072031401
0.303699136 0.057966445 0.050340544
0.467606753 0.036490291 0.028871454
0.631268144 0.021468613 0.013850218
0.777639031 0.016640007 0.009739886
0.910864949 0.017666422 0.010089656
0.000000000 0.163598180 0.074444279
0.051009744 0.166468650 0.077062927
0.154765233 0.170439541 0.077624083
0.312375009 0.164013192 0.065729804
0.488180220 0.154385269 0.054391522
0.660028875 0.147355616 0.046748344
0.811715961 0.147693932 0.046783421
0.949729025 0.153413817 0.052329324
0.000000000 0.288399160 0.054585114
0.041217875 0.301446527 0.067264006
0.150964022 0.312091053 0.076520935
0.307049930 0.312369138 0.071386546
0.483307600 0.308679640 0.060943265
0.658488810 0.306410193 0.054464474
0.813573539 0.310355932 0.056211963
0.954376817 0.318803102 0.063432410
0.000000000 0.443079263 0.042113379
0.032925621 0.460352689 0.058980670
0.146611884 0.474898368 0.072550416
0.304656923 0.478520483 0.073078364
0.478903115 0.478292406 0.066697754
0.651612401 0.478788704 0.060131501
0.805408120 0.484080404 0.059784975
0.945110977 0.492433786 0.064377889
0.000000000 0.609013379 0.044458941
0.037377339 0.628438294 0.063424923
0.152178735 0.644077122 0.078222148
0.310184389 0.647723556 0.079931267
0.482100368 0.646902621 0.074739315
0.649784803 0.646366596 0.067730241
0.797688246 0.650095999 0.064300738
0.931730092 0.655807436 0.063656874
0.000000000 0.771013200 0.067916378
0.059612900 0.789225280 0.085655347
0.172275037 0.802730083 0.098374531
0.327326745 0.803361058 0.097588837
0.495231599 0.798918843 0.090059787
0.657283545 0.794495404 0.080534011
0.798142552 0.794330180 0.073728330
0.925125718 0.796496689 0.068701975
0.000000000 0.920565188 0.095978864
0.083896063 0.935027242 0.109951593
0.192260906 0.944208264 0.118391164
0.342838317 0.940343916 0.113331079
0.506370783 0.931523561 0.102294497
0.664256632 0.923608184 0.090397909
0.800790370 0.920755029 0.081978470
0.923416793 0.921148002 0.075639971
0.000000000 0.052385561 0.163548023
0.053011578 0.045812301 0.156956568
0.141682550 0.033856750 0.146321163
0.289100260 0.004677093 0.131288692
0.453124851 0.000000000 0.106860675
0.608208299 0.000000000 0.081051141
0.742149770 0.000000000 0.062689275
0.864517391 0.000000000 0.052374613
0.000000000 0.096984223 0.167304352
0.056512158 0.090191215 0.160471126
0.147140145 0.080845922 0.151780352
0.301112711 0.057294488 0.139312923
0.469035923 0.036852222 0.120216198
0.634914756 0.023607934 0.106990732
0.782213330 0.019492960 0.102846757
0.916053772 0.021001481 0.104321063
0.000000000 0.164000615 0.152965486
0.053366028 0.168453157 0.157418013
0.158188671 0.173863113 0.162827745
0.318677217 0.166981548 0.155948356
0.494724482 0.157652453 0.146623954
0.666895628 0.151126534 0.140101954
0.818924487 0.151953250 0.140925214
0.957190216 0.158027232 0.146991849
0.000000000 0.292612284 0.137135237
0.046492565 0.306213349 0.150667444
0.156870455 0.317306966 0.161518246
0.312715262 0.318036377 0.158825338
0.490811199 0.314077348 0.149410695
0.667056978 0.311592132 0.145217031
0.822514057 0.315653682 0.148658037
0.963313997 0.324108571 0.156813711
0.000000000 0.448782563 0.126290441
0.039692957 0.466579586 0.143940479
0.153661594 0.481300086 0.158300206
0.311734438 0.484947026 0.160557449
0.485438764 0.484820783 0.155011803
0.658915520 0.485055923 0.148500204
0.813659132 0.489834040 0.149052531
0.953489304 0.497532308 0.154563814
0.000000000 0.615598559 0.129601553
0.044612281 0.635118246 0.148903474
0.159371957 0.650644422 0.164016545
0.317106426 0.653905571 0.166306943
0.488446772 0.652817070 0.162120327
0.655467808 0.652055204 0.155206472
0.803397954 0.655243397 0.151338875
0.937770069 0.660129964 0.150581867
0.000000000 0.777201295 0.152730316
0.066250220 0.795307755 0.170566961
0.178553402 0.808377266 0.183192238
0.333067209 0.808407187 0.182376668
0.500419676 0.803387165 0.175419226
0.661731064 0.798652887 0.166306823
0.801970899 0.798157990 0.159340337
0.928821146 0.799851835 0.153878838
0.000000000 0.925573766 0.179661125
0.089058682 0.939598978 0.193391442
0.196954936 0.948290110 0.201597676
0.347102135 0.943943262 0.196474805
0.510459423 0.934857547 0.185968637
0.667926490 0.926676035 0.174696088
0.803867519 0.923625469 0.166538209
0.926068306 0.923811734 0.160085797
0.000000000 0.045803852 0.300196826
0.045939840 0.038736761 0.293104142
0.133545250 0.027054816 0.281404227
0.266203642 0.003873724 0.259438276
0.426182687 0.000000000 0.241531581
0.589619696 0.000000000 0.224751607
0.730406523 0.000000000 0.211109683
0.857684255 0.000000000 0.203768909
0.000000000 0.090000451 0.303545594
0.050052971 0.083733924 0.297232121
0.141120046 0.075482368 0.288967758
0.280134112 0.058553759 0.273354143
0.453633755 0.037394639 0.266394824
0.629003763 0.022947671 0.260007709
0.779984236 0.018394031 0.257571936
0.915418208 0.020027881 0.259712875
0.000000000 0.160468757 0.292721808
0.051603571 0.166614637 0.298845977
0.157374129 0.173045799 0.305242836
0.308829993 0.169216037 0.302059293
0.492470562 0.157303989 0.301246047
0.667557359 0.150717884 0.295995176
0.820369422 0.151893079 0.297189415
0.959103107 0.158229381 0.303490579
0.000000000 0.292409062 0.280322582
0.047074750 0.306541771 0.294451237
0.158017322 0.318071187 0.305980802
0.313671529 0.318992287 0.306900263
0.494331807 0.314268380 0.302174658
0.670776904 0.312023997 0.299932241
0.826187849 0.316232741 0.304140568
0.966773152 0.324618250 0.312531412
0.000000000 0.450070709 0.271105140
0.041718215 0.468222439 0.289234579
0.156002402 0.483139902 0.304094404
0.314100236 0.486632705 0.307335347
0.487252980 0.486636430 0.303932935
0.662283480 0.486314744 0.298146844
0.817647994 0.490430504 0.300549626
0.957211673 0.497613221 0.307119519
0.000000000 0.617520690 0.275168061
0.047056042 0.637112319 0.294683158
0.161752433 0.652488410 0.309919357
0.319247246 0.655400634 0.312478215
0.490232378 0.653949797 0.309630305
0.656389832 0.652971804 0.303229392
0.804544330 0.655361056 0.298871696
0.939517379 0.659375966 0.298668295
0.000000000 0.778783143 0.298048824
0.067998193 0.796566129 0.315708756
0.179932058 0.809206128 0.328131437
0.333919287 0.808627129 0.327142566
0.500930488 0.803154349 0.320693731
0.661425829 0.797908783 0.312357217
0.800810874 0.796992123 0.305286855
0.927887321 0.798346281 0.299587220
0.000000000 0.925883293 0.323781580
0.089366786 0.939412653 0.337135315
0.196750745 0.947513878 0.344988346
0.346508592 0.942721128 0.339737415
0.509699106 0.933417380 0.329578340
0.666907787 0.924928129 0.319166064
0.802256584 0.921716630 0.311569631
0.924160242 0.921890497 0.305279285
0.000000000 0.037298847 0.458976895
0.037130907 0.029929720 0.451570898
0.124643393 0.018141577 0.439764738
0.256027937 0.000000000 0.416519791
0.404532313 0.000000000 0.392387211
0.559946120 0.000000000 0.378010839
0.705804586 0.000000000 0.373619229
0.840896308 0.000000000 0.373538673
0.000000000 0.081316359 0.462140918
0.041987099 0.075662374 0.456443578
0.134158432 0.068524748 0.449283898
0.273899913 0.053650841 0.434395552
0.434298247 0.039418928 0.422153264
0.606250167 0.026631059 0.422921240
0.765402496 0.019455045 0.429340005
0.907026291 0.019391457 0.435549527
0.000000000 0.155647576 0.455192894
0.048724499 0.163724661 0.463233888
0.155088738 0.170758560 0.470239311
0.306472123 0.167520285 0.466967642
0.474372953 0.161449209 0.462228119
0.653937280 0.153048068 0.468009770
0.814956605 0.151724413 0.474755913
0.956991732 0.157250360 0.482402951
0.000000000 0.290779561 0.446037680
0.046019804 0.305390596 0.460637659
0.157311678 0.317302108 0.472522169
0.313131094 0.318451852 0.473637283
0.484765321 0.316776782 0.472620726
0.668672442 0.311830848 0.478765547
0.826406419 0.315375179 0.483645231
0.967280805 0.323621243 0.491924167
0.000000000 0.449801564 0.438267052
0.041959502 0.468258381 0.456724316
0.156451985 0.483332485 0.471798718
0.314609528 0.486755103 0.475221068
0.487317204 0.486706108 0.475172102
0.664493978 0.485201627 0.473667145
0.819496214 0.488986909 0.477452397
0.958583534 0.495888770 0.484353274
0.000000000 0.617850840 0.443020374
0.047654118 0.637397349 0.462556988
0.162107453 0.652457058 0.477597684
0.319476217 0.655127466 0.480213314
0.490293354 0.653309047 0.478148282
0.655405223 0.651991963 0.473414004
0.804594338 0.653298080 0.469256043
0.939974189 0.656439602 0.470683128
0.000000000 0.778559625 0.465449423
0.067769974 0.795957029 0.482808709
0.179240912 0.808059871 0.494837373
0.332965374 0.807135582 0.493773192
0.499563843 0.801153243 0.487418532
0.659465373 0.795299172 0.480179161
0.797891557 0.794067740 0.473532259
0.925470114 0.794894874 0.467608988
0.000000000 0.924231231 0.489841402
0.087709993 0.937326431 0.502852321
0.194639623 0.944919884 0.510328770
0.344200492 0.939859331 0.505047977
0.507142246 0.930224061 0.494997591
0.664086819 0.921371698 0.485170484
0.798965752 0.918003738 0.478710681
0.920465648 0.918207765 0.472760499
0.000000000 0.028734030 0.615359426
0.028420161 0.021208236 0.607803047
0.115958817 0.009459379 0.596026957
0.247552380 0.000000000 0.572980046
0.394700468 0.000000000 0.547491670
0.541468978 0.000000000 0.528302610
0.679269910 0.000000000 0.524598718
0.815614402 0.000000000 0.531913459
0.000000000 0.073083974 0.618858159
0.034400038 0.068068340 0.613806963
0.127594575 0.061967801 0.607669711
0.269135743 0.048886742 0.594572306
0.430115759 0.037223965 0.582896829
0.590789378 0.029302092 0.577635825
0.741402388 0.025073007 0.585940182
0.887113810 0.023625681 0.600404561
0.000000000 0.151557252 0.616057992
0.046164740 0.161163092 0.625621974
0.153060526 0.168729573 0.633161426
0.304930419 0.165970832 0.630364954
0.472473383 0.160880893 0.625264287
0.637562096 0.158032358 0.624406457
0.794431269 0.157641754 0.637572050
0.944561839 0.160454527 0.653981209
0.000000000 0.289490789 0.609718263
0.045275353 0.304607809 0.624816179
0.156926170 0.316902071 0.637077749
0.313081235 0.318396837 0.638538361
0.484536916 0.317210078 0.637328029
0.652364016 0.317763567 0.639212370
0.814060271 0.318975687 0.654611349
0.962966383 0.324555248 0.668253005
0.000000000 0.449882746 0.603371322
0.042376600 0.468564928 0.622044265
0.156897083 0.483681113 0.637149751
0.315231770 0.487313867 0.640760779
0.487866789 0.487261087 0.640669942
0.655299246 0.488082200 0.642147481
0.817043126 0.488451421 0.653612971
0.958310366 0.494543314 0.661033869
0.000000000 0.618380189 0.608640671
0.048318125 0.637855887 0.628121555
0.162439406 0.652576804 0.642842889
0.319719315 0.655111194 0.645368695
0.490241557 0.652881384 0.643142641
0.654330075 0.650902629 0.641169131
0.805310130 0.650689900 0.640951097
0.940162003 0.653349698 0.643614113
0.000000000 0.778471708 0.630516291
0.067489445 0.795401037 0.647443831
0.178477630 0.806985974 0.659023702
0.331869632 0.805664241 0.657674313
0.498103559 0.799185514 0.651139259
0.657676697 0.792821765 0.644521713
0.795062482 0.791238248 0.639537513
0.923985839 0.791305065 0.634141207
0.000000000 0.922626436 0.653467834
0.085824199 0.935097218 0.665919960
0.192525432 0.942418098 0.673193514
0.341886163 0.937097132 0.667807460
0.504636109 0.927180946 0.657742023
0.661319077 0.917964756 0.648167372
0.796036363 0.914415479 0.643222928
0.916913629 0.914657235 0.638050795
0.000000000 0.021860516 0.749375403
0.021399893 0.014191171 0.741674840
0.109052449 0.002924937 0.730003715
0.241025835 0.000000000 0.707344592
0.388868421 0.000000000 0.682538927
0.534335434 0.000000000 0.662061751
0.665680468 0.000000000 0.654938400
0.795005381 0.000000000 0.662248135
0.000000000 0.066811852 0.753475428
0.029059861 0.062728152 0.749363959
0.123552695 0.057925731 0.744519830
0.266711861 0.046451896 0.733031690
0.429275692 0.036384143 0.722946227
0.588606834 0.029769730 0.716333330
0.730037332 0.029424150 0.719296098
0.866522193 0.031622831 0.733286738
0.000000000 0.150023937 0.755417585
0.045548439 0.160534158 0.765894711
0.152885094 0.168556124 0.773876309
0.305300862 0.166345313 0.771633923
0.473407030 0.161807910 0.767081201
0.637447417 0.159910917 0.765168130
0.782757878 0.164094195 0.772016287
0.924251795 0.169755146 0.790211856
0.000000000 0.290060759 0.751192391
0.046218056 0.305532604 0.766638815
0.158264548 0.318240345 0.779308200
0.314928770 0.320244014 0.781283081
0.486632377 0.319308996 0.780309796
0.653555393 0.320286214 0.781278253
0.800463855 0.326737344 0.789722562
0.945022285 0.333051533 0.809592366
0.000000000 0.451791167 0.746202886
0.044523899 0.470650584 0.765044093
0.159091175 0.485845029 0.780213058
0.317552239 0.489614755 0.783959448
0.490085036 0.489477634 0.783787966
0.656776190 0.490221590 0.784504533
0.802118242 0.495764494 0.791373253
0.947044492 0.499226213 0.809024036
0.000000000 0.620650828 0.751880527
0.050531331 0.639956236 0.771183908
0.164501980 0.654524565 0.785752416
0.321508139 0.656816363 0.788020551
0.491626352 0.654193461 0.785390437
0.655051172 0.651636243 0.782791972
0.796158552 0.653605461 0.785413802
0.937743545 0.652847350 0.795740724
0.000000000 0.779992223 0.773063421
0.068690263 0.796410799 0.789489985
0.179367915 0.807687163 0.800758421
0.332296520 0.805877090 0.798948646
0.498044580 0.798868060 0.791943312
0.657154441 0.791914403 0.784985363
0.793879867 0.790067315 0.783138335
0.924819529 0.788815141 0.781884849
0.000000000 0.922698498 0.794620037
0.085591696 0.934612155 0.806541622
0.191997215 0.941617668 0.813535988
0.341116071 0.936007917 0.807913184
0.503659010 0.925815284 0.797695398
0.660277188 0.916414738 0.788242757
0.794987738 0.912668109 0.784243703
0.915094733 0.912836492 0.781002283
0.000000000 0.016119631 0.868340135
0.015559829 0.008349266 0.860535860
0.103346057 0.000000000 0.848986685
0.235853732 0.000000000 0.826852381
0.384597480 0.000000000 0.802946210
0.531511307 0.000000000 0.783912778
0.661782622 0.000000000 0.775743008
0.785760045 0.000000000 0.780249059
0.000000000 0.061824754 0.873192012
0.025154809 0.058823105 0.870148718
0.121408448 0.055780321 0.867075384
0.266378105 0.046114754 0.857383966
0.429837197 0.036945727 0.848198831
0.589640260 0.030801274 0.842045486
0.729193807 0.031879578 0.843127608
0.858221531 0.037493777 0.852710485
0.000000000 0.150234878 0.880319774
0.046240497 0.161227822 0.891280353
0.154149175 0.169822931 0.899846017
0.307042658 0.168081641 0.898068845
0.475555658 0.163953617 0.893914998
0.639939725 0.162393928 0.892341852
0.783793151 0.167785019 0.897735775
0.915995657 0.177224398 0.910484910
0.000000000 0.292017579 0.877860546
0.048541676 0.307846636 0.893646181
0.160924822 0.320891440 0.906658113
0.317992657 0.323305964 0.909042239
0.489835948 0.322511375 0.908210456
0.656926274 0.323652893 0.909341395
0.802526891 0.330795676 0.916467249
0.935089290 0.341252238 0.929579794
0.000000000 0.454947859 0.874065042
0.047763526 0.473852158 0.892955780
0.162544951 0.489276767 0.908350825
0.321030051 0.493087202 0.912127078
0.493335247 0.492724180 0.911726296
0.659896314 0.493331730 0.912312269
0.804062188 0.499037176 0.917996585
0.933743715 0.507284880 0.928232729
0.000000000 0.623995185 0.879967153
0.053648468 0.643001020 0.898960054
0.167595148 0.657558084 0.913497090
0.324271739 0.659530401 0.915449619
0.493935078 0.656494200 0.912385821
0.656980515 0.653562307 0.909414351
0.797167003 0.655281246 0.911111951
0.921936095 0.659276247 0.916425109
0.000000000 0.782496214 0.900346100
0.070902072 0.798500836 0.916349292
0.181219727 0.809413433 0.927255988
0.333686411 0.807153940 0.924987972
0.498856664 0.799579024 0.917408884
0.657689512 0.792389512 0.910194218
0.794066072 0.790241778 0.908015192
0.915197372 0.791268289 0.909686387
0.000000000 0.923710704 0.920456946
0.086412355 0.935261309 0.932008266
0.192518115 0.941956699 0.938702643
0.341371626 0.936074674 0.932822347
0.503560603 0.925507367 0.922254205
0.660209477 0.916093290 0.912850201
0.794908106 0.912213922 0.908972621
0.914429486 0.912172258 0.908919871
