Desert Affinity Presets/Desert Affinity Preset #21.cube
TITLE "32x32x32 Adobe/IRIDAS cube 3D LUT exported with GrossGrade v0.1.027.1 (beta) 64 bit"
LUT_3D_SIZE 8
DOMAIN_MIN 0.000000 0.000000 0.000000
DOMAIN_MAX 0.903226 0.903226 0.903226
0.002087435 0.001710532 0.002957198
0.105107002 0.017138602 0.021003908
0.225819543 0.023446662 0.029704813
0.381883085 0.010421277 0.025788013
0.509132862 0.005940583 0.010722434
0.657205820 0.000000000 0.000025719
0.797977388 0.000000000 0.000000000
0.934906363 0.017505616 0.055776637
0.026300093 0.084444672 0.020222487
0.093322366 0.089445338 0.030928547
0.196854964 0.095885336 0.033582270
0.328940868 0.090742469 0.031648699
0.472790897 0.069545045 0.015699713
0.630937457 0.034604415 0.002188440
0.781971455 0.006451614 0.001699783
0.926831424 0.019209580 0.050731111
0.029571990 0.170716047 0.030342147
0.101974204 0.177480504 0.040585235
0.201701432 0.195376247 0.048602968
0.325294137 0.192415744 0.031159991
0.450801551 0.189504266 0.025469119
0.610337675 0.178737074 0.018832281
0.766687453 0.145621866 0.012689702
0.920260191 0.162298769 0.060341075
0.024111636 0.286094010 0.036295332
0.091982104 0.290956080 0.038579665
0.189314723 0.302706182 0.048912577
0.313258529 0.311600357 0.051249195
0.475892544 0.320429534 0.011947089
0.627455354 0.313406080 0.012476443
0.776959002 0.315843761 0.024503965
0.925326705 0.334315479 0.073809788
0.001129291 0.397343248 0.035495710
0.062114190 0.411002964 0.028611505
0.170457095 0.422727406 0.039188035
0.315146536 0.440930188 0.052729204
0.479764730 0.460278869 0.051894024
0.658481956 0.470536113 0.002485377
0.808247864 0.479436666 0.007425737
0.943596303 0.493158937 0.079044729
0.000201542 0.530869901 0.028712023
0.045651313 0.547650516 0.023667375
0.181092292 0.556886375 0.030399200
0.331571937 0.575077176 0.042231731
0.498721778 0.602462113 0.061392277
0.666347802 0.627727926 0.066606171
0.832278490 0.637937069 0.023796005
0.959777534 0.644819796 0.086768292
0.008819222 0.671257615 0.031111393
0.054306854 0.690774441 0.031366665
0.206246078 0.706908762 0.025645873
0.356051832 0.720879972 0.043166038
0.524564385 0.747964501 0.081054546
0.683247805 0.769321203 0.120588094
0.833922684 0.783958912 0.130965203
0.969851732 0.788500369 0.125297949
0.024022296 0.817691147 0.062229298
0.053784575 0.835934877 0.069840208
0.223638445 0.846655309 0.071670890
0.377783239 0.858569145 0.090962827
0.541666031 0.875772059 0.116290323
0.694064915 0.894879758 0.154731005
0.840208411 0.912502825 0.198081270
0.976048529 0.930394053 0.283649415
0.003050257 0.015511226 0.067765281
0.057540424 0.003129282 0.094120137
0.220029786 0.008047193 0.088360980
0.378331810 0.000709841 0.086347893
0.508649290 0.000343697 0.077345826
0.661369622 0.000000000 0.072279699
0.804357827 0.000000000 0.073120438
0.942194819 0.028139168 0.112492099
0.009419179 0.097336359 0.057099510
0.057881292 0.078873985 0.081304684
0.199392334 0.080366611 0.084825777
0.354951382 0.065721340 0.081849426
0.502995789 0.045113556 0.072881497
0.662641525 0.008973466 0.068306789
0.809247136 0.006451614 0.073189661
0.950064361 0.053704068 0.120563760
0.021090409 0.178946942 0.054872267
0.088935129 0.160887524 0.081220485
0.187775686 0.176465571 0.100404859
0.322141290 0.178854614 0.093365788
0.463687748 0.175747544 0.087569296
0.643940747 0.150085911 0.083503798
0.810272813 0.114893317 0.092715390
0.960493803 0.168920919 0.144112542
0.022112593 0.291543156 0.051448822
0.084379673 0.274803638 0.079919092
0.178971469 0.276880503 0.100608803
0.311506629 0.298044711 0.110746071
0.480517775 0.308846861 0.096753269
0.634567022 0.303647429 0.099490620
0.790645123 0.307400227 0.114030831
0.949322999 0.328710586 0.157469794
0.000701422 0.403401196 0.042074542
0.063354276 0.397894651 0.071290188
0.166756406 0.396448463 0.096987009
0.313547969 0.423421025 0.120819442
0.484314084 0.451637834 0.131648645
0.668481469 0.465457767 0.101658113
0.816903532 0.476329982 0.126226619
0.953241885 0.492220551 0.178134188
0.000249239 0.536359668 0.035039250
0.046914816 0.543988645 0.068367600
0.178756893 0.532270610 0.096316010
0.329768389 0.553539455 0.123627365
0.500441551 0.592819095 0.152246565
0.673295796 0.624606550 0.170567408
0.839204907 0.636772156 0.149403542
0.967490077 0.646054268 0.202472731
0.008854760 0.677209735 0.038456108
0.057568971 0.691789687 0.059870549
0.205868289 0.682719409 0.101679042
0.354411542 0.698138654 0.135574013
0.525162876 0.734283030 0.173267648
0.686805427 0.764444411 0.213959679
0.839585006 0.783177495 0.233241960
0.976517677 0.790995479 0.245764390
0.025761418 0.823076248 0.071101286
0.066079982 0.834678888 0.089699715
0.227423489 0.829904497 0.127670735
0.379935563 0.839514375 0.160119101
0.542640090 0.861962557 0.195078373
0.697170675 0.888872623 0.235641479
0.844058394 0.911423266 0.278388798
0.980135620 0.932855427 0.366059035
0.003815272 0.027072137 0.128095254
0.018970592 0.011078740 0.197367325
0.110178716 0.000560203 0.218119159
0.328241229 0.000000000 0.173836648
0.482542276 0.000000000 0.175146326
0.644218743 0.000000000 0.185602441
0.795205355 0.000000000 0.199633196
0.942239702 0.014367000 0.235133737
0.000726674 0.112878792 0.114073858
0.007228793 0.102546953 0.166977853
0.101809509 0.070997454 0.197348878
0.313642114 0.058451362 0.166281506
0.486623824 0.021365266 0.165910453
0.651274979 0.006451614 0.177044377
0.804771125 0.006451614 0.195085749
0.954986632 0.036294308 0.240962714
0.015652487 0.196846753 0.099280655
0.009413958 0.200105771 0.155675471
0.123606823 0.165269926 0.172852695
0.309228152 0.155193329 0.161766827
0.482752055 0.143293872 0.166801214
0.663112521 0.093008518 0.182929561
0.828180075 0.064907171 0.210273385
0.969549775 0.161286905 0.269937485
0.017319087 0.304393470 0.080811232
0.039472751 0.293794990 0.130741507
0.155782625 0.256784916 0.153470442
0.296549439 0.278341979 0.185181305
0.475746989 0.288570404 0.188205183
0.645374000 0.278669536 0.196940750
0.823529303 0.283134699 0.225342065
0.976195097 0.314478010 0.282694966
0.000000000 0.417748898 0.068592459
0.034055386 0.410513103 0.125462562
0.153182551 0.377129376 0.150375813
0.300769448 0.398055434 0.193713009
0.481191725 0.437528908 0.224772468
0.670817971 0.454598278 0.230772942
0.818323791 0.467368543 0.264793754
0.962073863 0.483035535 0.306858122
0.001007241 0.548499644 0.059857883
0.032663319 0.547277689 0.128107876
0.170461401 0.511301160 0.151846156
0.321225792 0.530044913 0.200997457
0.493195534 0.576271832 0.248716086
0.671082675 0.616668522 0.285767347
0.840552986 0.631594777 0.293279618
0.970969260 0.642684162 0.333338648
0.008293156 0.688538253 0.050839435
0.032529119 0.695877194 0.134751171
0.197318599 0.660549164 0.162623569
0.348015219 0.676782131 0.216204032
0.517653525 0.714218259 0.267414689
0.679634988 0.752241850 0.315674812
0.836708903 0.778132498 0.346013904
0.982903838 0.790564835 0.363811284
0.028807901 0.832789719 0.083672561
0.057530165 0.836498678 0.150684327
0.221724272 0.812027633 0.184998840
0.375226974 0.820006847 0.233357966
0.537153602 0.844068706 0.281498700
0.690217018 0.876137793 0.329789668
0.840729356 0.907314837 0.378471464
0.979279637 0.933919072 0.466023743
0.005970506 0.033586901 0.199395195
0.036409363 0.009102618 0.295307934
0.071709141 0.000017769 0.362059861
0.139578789 0.000000000 0.363198847
0.415797561 0.000000000 0.293565869
0.592137456 0.000000000 0.312324256
0.764870882 0.000000000 0.345433950
0.926247776 0.000000000 0.386137515
0.000400279 0.122966908 0.179684833
0.007111886 0.111911476 0.249557838
0.018239655 0.083518349 0.331282914
0.160341576 0.023657024 0.338557482
0.426920384 0.019080013 0.283281714
0.607693553 0.006451614 0.305747092
0.780772328 0.006451614 0.343019664
0.943951070 0.006720959 0.390620351
0.002689722 0.220779672 0.160796180
0.006451614 0.213836432 0.224334091
0.012903227 0.197197065 0.296353400
0.165513277 0.148896679 0.313494623
0.431815118 0.140776008 0.289378732
0.628767431 0.046049211 0.311463028
0.808954537 0.020120852 0.355547100
0.963354111 0.108426414 0.411629677
0.009680575 0.319684684 0.131184161
0.007350842 0.323399156 0.199544489
0.024194269 0.314179480 0.263240010
0.185779586 0.268088669 0.283251137
0.446826667 0.259491414 0.288027436
0.644220471 0.240335613 0.315018415
0.830743432 0.241499558 0.361913562
0.977788448 0.288195759 0.420655012
0.000000000 0.436951488 0.113863997
0.006451614 0.439930558 0.184019074
0.083121240 0.407242149 0.225425482
0.263053030 0.377370924 0.260525018
0.456514716 0.423453361 0.337328076
0.653823614 0.432752550 0.346835375
0.824280202 0.439349204 0.375804037
0.979976594 0.459484905 0.424007952
0.003009568 0.565965295 0.097392783
0.009502799 0.570479989 0.184671775
0.129386514 0.520297348 0.213656351
0.299774438 0.511515498 0.268041432
0.469039559 0.552471817 0.346906096
0.654076934 0.601566851 0.398437858
0.833542228 0.619041383 0.418807745
0.969778121 0.630470097 0.455724388
0.007624464 0.706339240 0.093027592
0.012247233 0.714117646 0.196938828
0.165229887 0.659389615 0.221397951
0.332074761 0.661460042 0.285789937
0.498326957 0.692362785 0.362143874
0.655844271 0.730742514 0.419835478
0.824756682 0.768324077 0.462300152
0.980246902 0.787390113 0.491364419
0.032437049 0.847953677 0.127518445
0.040063318 0.850289166 0.212627456
0.194262356 0.804927468 0.240461171
0.358613670 0.806385398 0.303050518
0.521452665 0.825368166 0.370525688
0.668640375 0.855436563 0.428395510
0.828207850 0.898230195 0.484786838
0.977574110 0.933204949 0.564203024
0.013708614 0.032596052 0.292735189
0.064715534 0.003252263 0.378445327
0.096965916 0.000000000 0.447575063
0.116136834 0.000000000 0.487250388
0.178266957 0.000000000 0.485572636
0.513697922 0.000000000 0.452550232
0.692780554 0.000000000 0.474913388
0.882260442 0.000000000 0.525889635
0.000239886 0.132426262 0.260771692
0.008352940 0.113706023 0.333815396
0.025522269 0.080773897 0.408078909
0.064304806 0.036245249 0.464807928
0.245872110 0.006910345 0.463020504
0.536117435 0.006451614 0.443486989
0.717099667 0.006451614 0.475604564
0.907080352 0.006451614 0.533028185
0.000000000 0.235156849 0.231248155
0.006451614 0.216338694 0.299872339
0.012903226 0.196621373 0.371803522
0.024003873 0.168613821 0.449078858
0.246790841 0.121239491 0.455712765
0.562701762 0.049374409 0.452432990
0.753777742 0.018908342 0.491600841
0.940785408 0.032543071 0.552975714
0.001695104 0.336457491 0.191511735
0.006451614 0.335729122 0.265065253
0.012903227 0.323525846 0.341677815
0.019354852 0.307107896 0.420234531
0.275728345 0.256115049 0.456575453
0.581935823 0.241935536 0.461314738
0.781674862 0.221388772 0.504060209
0.967113495 0.243607104 0.563856304
0.000000000 0.454829186 0.172609210
0.006451614 0.453998834 0.248191684
0.012903227 0.452829987 0.325877041
0.052546196 0.437358499 0.391367108
0.302405655 0.402607799 0.432970762
0.598638594 0.400284141 0.461870641
0.800604403 0.404771060 0.505616844
0.980285823 0.421832711 0.558384240
0.004535863 0.583918512 0.158249781
0.007603353 0.586602390 0.243497536
0.014692329 0.583428919 0.325146645
0.189258814 0.532289267 0.345288247
0.417882979 0.539141595 0.425743431
0.611124039 0.583607018 0.517237723
0.806138456 0.590961039 0.528747499
0.973676980 0.595821559 0.556825757
0.007024514 0.726810277 0.161279693
0.009571076 0.732620120 0.254436523
0.043994986 0.721577048 0.330669731
0.253590316 0.666048706 0.349539280
0.470268071 0.681668103 0.444174320
0.615181208 0.699769914 0.514374554
0.803020656 0.752441883 0.569984019
0.973097146 0.777495980 0.604935706
0.038054544 0.862627923 0.175873220
0.045102805 0.863273799 0.265448928
0.105737843 0.843126297 0.331272334
0.295758218 0.806571305 0.367204905
0.499320209 0.816606283 0.452552319
0.638387024 0.828834116 0.515779436
0.804071963 0.880458236 0.582302630
0.976861358 0.932456434 0.660352826
0.029721614 0.027607553 0.375376999
0.080631711 0.005958353 0.451188534
0.119483076 0.000011223 0.530242383
0.138540357 0.000000000 0.594957709
0.149470419 0.000000000 0.620647192
0.234412581 0.000000000 0.616715670
0.598987103 0.000000000 0.604948699
0.807161629 0.000000000 0.645595551
0.000527002 0.133785158 0.340660155
0.013606123 0.111497074 0.408864945
0.035218295 0.078089327 0.481996089
0.102010578 0.025544820 0.565106213
0.146469519 0.006965990 0.607646465
0.338672966 0.006451614 0.599125683
0.630119860 0.006451614 0.601931155
0.840585351 0.006451614 0.654796481
0.000000000 0.235128134 0.304314137
0.006451614 0.215877771 0.373911738
0.013261420 0.198013380 0.446782649
0.035169594 0.173039988 0.534953713
0.060839247 0.126939818 0.603233099
0.399254680 0.029172525 0.605270207
0.675515652 0.013004231 0.617951632
0.884297311 0.012903227 0.675814390
0.000000000 0.349853516 0.262402475
0.006451614 0.339583874 0.341330677
0.012903227 0.327173829 0.422217697
0.019354852 0.314239532 0.506543458
0.028938079 0.282432348 0.593585253
0.400184005 0.229684770 0.617855608
0.704803348 0.197136998 0.635010004
0.912366390 0.187698528 0.689178586
0.000000000 0.469391793 0.240660727
0.006451614 0.466961235 0.320276290
0.012903227 0.465527117 0.404375255
0.019354852 0.455988348 0.486988246
0.025806461 0.438674420 0.568120062
0.415052474 0.397201926 0.629888475
0.727928162 0.391688913 0.640451014
0.933664441 0.390656173 0.690548599
0.002089773 0.599934161 0.231402293
0.006451614 0.600058377 0.317752153
0.012903227 0.598398447 0.402735621
0.019388516 0.595120609 0.478906333
0.158064783 0.573016107 0.531095445
0.444801122 0.562730730 0.604587674
0.738865554 0.553286314 0.633051217
0.945783675 0.555673063 0.678585351
0.005789540 0.745344579 0.232942581
0.006989371 0.750449657 0.326995403
0.012903227 0.750429869 0.414724469
0.061586991 0.732114136 0.479205310
0.329814196 0.694751918 0.510700822
0.552140892 0.686186314 0.578930557
0.764231145 0.738993943 0.684201002
0.956462562 0.744362652 0.699024558
0.044885930 0.874892354 0.235918269
0.050224118 0.877609849 0.326853305
0.045504384 0.879171848 0.416445106
0.172590196 0.843507648 0.460625798
0.418419302 0.822114050 0.512112319
0.599547923 0.810194075 0.579174519
0.764768779 0.851226807 0.669143438
0.964771330 0.927880406 0.763535440
0.042970579 0.026122382 0.448819011
0.105864525 0.003095149 0.529352486
0.134301856 0.000000000 0.614115953
0.153184891 0.000000000 0.687180817
0.166040644 0.000000000 0.737751245
0.174122348 0.000000000 0.755900025
0.316418380 0.000000000 0.756231725
0.695536613 0.000000000 0.775476396
0.004188897 0.132262930 0.414876729
0.022707339 0.109642878 0.482996613
0.052584130 0.067045674 0.566125035
0.137846529 0.013393821 0.651872873
0.163905755 0.006451614 0.716713369
0.173325285 0.006451614 0.746550143
0.426871240 0.006451614 0.754229844
0.739355147 0.006451614 0.784067869
0.000000000 0.234643370 0.378529400
0.006451614 0.217353344 0.447893679
0.020643655 0.200078771 0.527498782
0.048844036 0.172072515 0.620489001
0.084042780 0.119076319 0.702304125
0.134023622 0.061320577 0.747106731
0.505299568 0.012903227 0.772509694
0.792153239 0.012903227 0.804639578
0.000000000 0.355841041 0.340390503
0.006451614 0.343479186 0.422812581
0.012903227 0.332638890 0.505652964
0.019366078 0.319499731 0.592878759
0.045669362 0.293072581 0.683204234
0.079122469 0.253337473 0.754758179
0.526209593 0.145746514 0.792207658
0.832869709 0.020527625 0.814806521
0.000000000 0.481549233 0.314492881
0.006451614 0.480743915 0.400773704
0.012903227 0.473443389 0.488730282
0.019354852 0.464793593 0.575091362
0.025806461 0.453313470 0.661776066
0.034433864 0.427413225 0.748723209
0.553780079 0.380347162 0.807251394
0.865163565 0.316974223 0.830346823
0.000026186 0.614435732 0.308685780
0.006451614 0.613005638 0.395490587
0.012903227 0.616855443 0.480233282
0.019354852 0.611349106 0.563565731
0.025806461 0.603553712 0.646169484
0.039942358 0.591002524 0.725755274
0.554216623 0.556663990 0.807610214
0.885440350 0.529434800 0.826043904
0.002654650 0.762780011 0.315684319
0.006451614 0.765827775 0.408187240
0.012903227 0.765116632 0.492885143
0.019354852 0.762394071 0.571735382
0.030710811 0.749924779 0.643783450
0.325665116 0.727010369 0.687351584
0.582781017 0.714929223 0.764637530
0.894280314 0.706217229 0.815141439
0.051417530 0.887611628 0.309175670
0.052674904 0.892409563 0.401446611
0.039435700 0.896241426 0.491184622
0.020448592 0.892518938 0.571946442
0.180462390 0.860774457 0.613769233
0.476116449 0.838572443 0.655945063
0.695287466 0.841386378 0.730320871
0.944753230 0.922577024 0.868697286
0.078770265 0.013730155 0.527822196
0.126516104 0.000000000 0.612890542
0.146967739 0.000000000 0.694853604
0.162761897 0.000000000 0.781108618
0.174615666 0.000000000 0.848196924
0.181625620 0.000000000 0.855157852
0.188077241 0.000000000 0.855157852
0.523232102 0.000000000 0.866318643
0.012666286 0.131821543 0.488069415
0.035650875 0.101182014 0.565792918
0.087681457 0.046035215 0.648300588
0.156780183 0.009480820 0.737862229
0.172570497 0.006451614 0.822390914
0.181528807 0.006451614 0.853992164
0.188077241 0.006451614 0.855157852
0.596966445 0.006451614 0.871714413
0.000000000 0.235898957 0.452652603
0.009787115 0.220054820 0.527649343
0.034872741 0.199814439 0.612376571
0.065696895 0.167832851 0.702332199
0.104395233 0.124426179 0.799354970
0.164198339 0.066350222 0.857508004
0.186312675 0.027107509 0.857465446
0.666970193 0.012903227 0.880128384
0.000000000 0.360063612 0.423499882
0.006451614 0.349187404 0.506758392
0.012903227 0.337825298 0.589426696
0.026099265 0.324855089 0.677388072
0.066229440 0.309667200 0.775633335
0.102212846 0.271952510 0.861876428
0.118401580 0.229055747 0.880053580
0.701541901 0.019629799 0.900587201
0.000000000 0.494795531 0.397948861
0.006451614 0.487970442 0.487271994
0.012903227 0.480194718 0.573831201
0.019354852 0.477637798 0.664808333
0.025806461 0.471932948 0.752458394
0.061768778 0.450106084 0.843192697
0.098096818 0.412373543 0.904415190
0.716444314 0.277395010 0.933668911
0.000000000 0.628095388 0.389027208
0.006451614 0.629991949 0.476914912
0.012903227 0.629391789 0.564603508
0.019354852 0.629035413 0.655563414
0.025806461 0.622629821 0.737120092
0.032258086 0.609944165 0.816747904
0.052486558 0.580259383 0.900272846
0.713654220 0.512812555 0.956259608
0.000044891 0.779163241 0.399565011
0.006451614 0.779322505 0.486598730
0.012903227 0.781362951 0.572138786
0.019354852 0.780717731 0.654076159
0.025806461 0.766720772 0.723746717
0.032258086 0.751066029 0.793201268
0.123454496 0.737178385 0.874861658
0.685657144 0.699179113 0.971811056
0.054894704 0.900865436 0.389790475
0.047416527 0.906778157 0.481815100
0.020656740 0.912662566 0.573023438
0.019354852 0.908280134 0.650541544
0.025806461 0.901956201 0.719692647
0.108326510 0.885999143 0.776496887
0.476633817 0.876291811 0.830631554
0.729753911 0.880294561 0.930583477
