Desert Affinity Presets/Desert Affinity Preset #26.cube
TITLE "32x32x32 Adobe/IRIDAS cube 3D LUT exported with GrossGrade v0.1.027.1 (beta) 64 bit"
LUT_3D_SIZE 5
DOMAIN_MIN 0.000000 0.000000 0.000000
DOMAIN_MAX 0.903226 0.903226 0.903226
0.002087435 0.001710532 0.002957198
0.172177240 0.021009980 0.035875890
0.412593126 0.001523493 0.049996484
0.632071137 0.000000000 0.052671731
0.861481667 0.000000000 0.086172596
0.111579277 0.127623364 0.026547907
0.285313606 0.140230671 0.033102009
0.521137714 0.123210341 0.039759900
0.793594241 0.035213053 0.068483196
0.977142692 0.253586262 0.259419441
0.227749497 0.280755579 0.033390049
0.430584997 0.299001038 0.000006547
0.683388174 0.302191347 0.010197736
0.941856384 0.336535245 0.114448175
0.986820221 0.409268409 0.303266823
0.392131567 0.467547208 0.017999876
0.629589975 0.496154696 0.000000000
0.863445759 0.533763707 0.002599002
0.980728805 0.585323989 0.273911953
0.992516518 0.595029473 0.303028852
0.608460307 0.685149372 0.035561226
0.823754013 0.714784563 0.001171842
0.968517065 0.746177733 0.211800084
0.980444133 0.775203168 0.286436707
0.991812229 0.793644607 0.318360776
0.144359499 0.018809360 0.043747943
0.226286530 0.022970174 0.052167844
0.414334238 0.002447964 0.072325327
0.611807108 0.000000000 0.089072511
0.828956544 0.000000000 0.130689383
0.032844350 0.134166837 0.077261947
0.174581036 0.144337982 0.107443303
0.409733772 0.138867795 0.121497959
0.686656594 0.064120121 0.164288566
0.942426264 0.102269113 0.265920699
0.141832367 0.315343797 0.043156900
0.331277192 0.317396402 0.067373767
0.588462412 0.335486263 0.114353836
0.864364386 0.352735639 0.210156485
0.988249362 0.422787040 0.382969886
0.304958284 0.499377817 0.026256341
0.536976576 0.527287960 0.022976033
0.784241498 0.565003157 0.062014878
0.977084279 0.606280804 0.268954694
0.993519843 0.623177469 0.384320974
0.537117958 0.716356874 0.035517931
0.751600504 0.747633696 0.064696655
0.941884577 0.770836890 0.087041244
0.980517089 0.807526708 0.343253821
0.991917551 0.830731034 0.409430414
0.352694541 0.005530956 0.069919191
0.410973728 0.004159905 0.056642212
0.508560002 0.002132792 0.065908916
0.682300806 0.000000000 0.094046779
0.873334765 0.000000000 0.155825734
0.261825025 0.070522681 0.179348543
0.378251493 0.105394073 0.126938462
0.470298052 0.137567565 0.135070801
0.686580837 0.074178502 0.199646264
0.920358717 0.098973267 0.311550438
0.004533998 0.340810984 0.181597456
0.232477948 0.293823630 0.152248487
0.444422096 0.340870202 0.233575940
0.743867517 0.348082781 0.315140128
0.985531747 0.396796733 0.446090043
0.137966663 0.549588263 0.040423449
0.416684121 0.553742230 0.091135390
0.674904525 0.577907264 0.193627179
0.920946062 0.628973484 0.363040686
0.994319320 0.645800471 0.489213079
0.387471706 0.759649575 0.039546650
0.666721880 0.779300809 0.094427377
0.869731426 0.796646655 0.178349674
0.980607331 0.834479749 0.426920325
0.991726756 0.867534578 0.523873925
0.537243068 0.000481646 0.080191061
0.593641937 0.000057984 0.055765640
0.676779866 0.000000000 0.056882810
0.800606966 0.000000000 0.092203654
0.955816627 0.051428683 0.187481716
0.527179778 0.011290320 0.216013163
0.609673023 0.017435271 0.160097435
0.681017995 0.041496873 0.148425445
0.808502674 0.053102572 0.211931691
0.971248925 0.167952418 0.346224248
0.193983138 0.208893090 0.412357807
0.549828351 0.219927102 0.364835113
0.693247318 0.284100890 0.302921593
0.799904943 0.350694120 0.340080559
0.984978020 0.401225954 0.477158338
0.000000000 0.561999142 0.297838300
0.198853001 0.527367949 0.303272069
0.583509564 0.548712671 0.309601933
0.780277550 0.622010291 0.474032909
0.994427085 0.645185471 0.581709802
0.176593989 0.812496483 0.100029096
0.476357579 0.811249077 0.171073079
0.755108178 0.827092648 0.295760155
0.966869056 0.844637752 0.451135874
0.991911590 0.902184844 0.645128965
0.742274404 0.000000000 0.102886938
0.791562021 0.000000000 0.074895978
0.855487406 0.000000000 0.087312564
0.944239974 0.060972292 0.150842488
0.978765130 0.261352867 0.322893023
0.743193984 0.011290320 0.279809713
0.815784216 0.011290320 0.221299902
0.884670496 0.022180595 0.210384518
0.957954764 0.152850226 0.279490590
0.980924964 0.284261256 0.406977147
0.650598049 0.046875112 0.503583610
0.836951256 0.116565295 0.472716302
0.928068757 0.266935885 0.422997475
0.972208619 0.365798622 0.423241824
0.989455760 0.432469517 0.508524239
0.013355132 0.440152556 0.638837099
0.568317056 0.449887753 0.632792354
0.871616542 0.493041575 0.628862143
0.978494167 0.584517539 0.571684062
0.994774938 0.639811993 0.596263289
0.000052373 0.815632701 0.459566683
0.225683182 0.786813080 0.474733829
0.551554561 0.798807204 0.529440403
0.923203170 0.809520543 0.518026054
0.992760658 0.906389475 0.741415679
