Desert Affinity Presets/Desert Affinity Preset #16.cube
TITLE "32x32x32 Adobe/IRIDAS cube 3D LUT exported with GrossGrade v0.1.027.1 (beta) 64 bit"
LUT_3D_SIZE 8
DOMAIN_MIN 0.000000 0.000000 0.000000
DOMAIN_MAX 0.903226 0.903226 0.903226
0.000000000 0.086295150 0.099732906
0.065485217 0.070759527 0.115713149
0.169882387 0.063481562 0.139319509
0.290405750 0.051481642 0.157496914
0.448136657 0.029242281 0.164756939
0.631316960 0.001712876 0.164501846
0.813708723 0.000000000 0.164015725
0.986564398 0.000000000 0.166208252
0.000000000 0.147403538 0.169720009
0.107976735 0.141912833 0.141489014
0.238126099 0.131280661 0.112191044
0.387550235 0.112555400 0.109058499
0.560941756 0.087170392 0.105151072
0.748150170 0.058347054 0.099875815
0.925076663 0.032904632 0.099610232
0.995161295 0.013022089 0.106499530
0.000000000 0.230879128 0.179048732
0.132553488 0.219956636 0.146246299
0.235769659 0.218695194 0.117449209
0.376647681 0.208485425 0.076702423
0.560813069 0.184910685 0.054235406
0.754478812 0.158397347 0.047657017
0.934270442 0.136988580 0.051757514
0.995161295 0.121987775 0.063875742
0.000000000 0.330134749 0.162533566
0.128584906 0.316117167 0.135103554
0.239103049 0.315526515 0.123245120
0.355999678 0.316521496 0.100182988
0.518562615 0.307935417 0.061782233
0.715077579 0.290417284 0.032188289
0.907707274 0.274100870 0.023520542
0.995161295 0.262922168 0.030863987
0.000000000 0.445953697 0.144485995
0.113664813 0.435602546 0.122324660
0.232215852 0.439944178 0.114948340
0.350309581 0.446547031 0.107952915
0.496493071 0.448395282 0.082898811
0.673086762 0.443873584 0.047218848
0.858550906 0.437114626 0.019992439
0.995161295 0.431207001 0.010931446
0.000000000 0.586204648 0.128529444
0.098451152 0.579865336 0.110250197
0.224087790 0.587758124 0.106527820
0.346963048 0.597596169 0.105343260
0.490751624 0.602843702 0.094769731
0.652245760 0.604577303 0.069528297
0.817388475 0.605793893 0.040412270
0.982521474 0.605854273 0.017055308
0.000000000 0.738181233 0.132709786
0.101112410 0.733518779 0.117241979
0.231175616 0.742404819 0.115859389
0.356612921 0.752331972 0.116173625
0.499481082 0.756737113 0.111215673
0.652986884 0.757896900 0.094983883
0.801015794 0.760264218 0.070897952
0.944611371 0.762712419 0.043524671
0.000000000 0.889693201 0.156267479
0.119193807 0.883403778 0.140852198
0.249227509 0.889903903 0.138405249
0.372982115 0.896647990 0.136277288
0.512299001 0.897613049 0.128323302
0.660397112 0.895116746 0.114792265
0.798285365 0.895415545 0.094590627
0.926742554 0.898172736 0.069069542
0.000000000 0.098092064 0.030605849
0.043738343 0.091675960 0.062100593
0.151865467 0.079163007 0.124096155
0.279226512 0.063098125 0.161134496
0.441366822 0.037997473 0.183011696
0.626949966 0.006706092 0.195711568
0.810244858 0.000000000 0.206826180
0.982802033 0.000000000 0.219114348
0.002784179 0.160616770 0.100816235
0.116993278 0.149298966 0.125985384
0.248384103 0.133922547 0.140622586
0.389957726 0.116183415 0.152379274
0.559325099 0.091368258 0.156710759
0.743663371 0.063047975 0.157317951
0.918011129 0.038269084 0.161355048
0.995161295 0.019289983 0.171224728
0.011326083 0.239047453 0.143446147
0.141392574 0.225120753 0.156472668
0.243362606 0.223593116 0.138700098
0.396012038 0.208809584 0.112853296
0.577900052 0.184222355 0.111727640
0.765442550 0.159039497 0.115245730
0.941018641 0.139148280 0.124508977
0.995161295 0.125548542 0.140008509
0.000000000 0.335458368 0.159541517
0.138652578 0.320892632 0.160532951
0.249579877 0.320713967 0.150997981
0.364832908 0.322320104 0.134318054
0.534602761 0.311855882 0.099462599
0.737354279 0.291975528 0.083850808
0.928812683 0.275468349 0.088228151
0.995161295 0.265106797 0.103933342
0.000000000 0.451771170 0.156337783
0.125152558 0.441811830 0.153878614
0.244526491 0.446560919 0.148324057
0.362254232 0.453603148 0.145025969
0.507193863 0.455916733 0.124151558
0.687995791 0.450489640 0.089920938
0.880213559 0.441484869 0.070045412
0.995161295 0.434011042 0.071608648
0.000000000 0.593125224 0.149707422
0.111253396 0.587308407 0.147006288
0.237564489 0.595505178 0.144810721
0.360673010 0.605494559 0.144745469
0.503342450 0.610768080 0.138289794
0.663643181 0.612686276 0.115364082
0.831047595 0.613064945 0.086710297
0.993020535 0.611031115 0.066295609
0.000000000 0.745734215 0.160477713
0.114820160 0.741440356 0.157649830
0.245063052 0.750219762 0.157060966
0.370448530 0.759867370 0.157715335
0.512434542 0.764120817 0.153421402
0.664571643 0.765021205 0.140655577
0.811228633 0.767150581 0.117432028
0.955928981 0.768623710 0.089609496
0.000000000 0.896642268 0.187511608
0.132633239 0.890578508 0.182478815
0.262356400 0.896727800 0.180160493
0.385747254 0.903043389 0.177899182
0.524476647 0.903529227 0.169669643
0.671568990 0.900897324 0.157840833
0.808036029 0.901012838 0.140088663
0.935628772 0.903694272 0.115357034
0.000000000 0.109575510 0.012903227
0.045972601 0.104648657 0.015131415
0.130283564 0.098621093 0.081117019
0.253142476 0.079672761 0.159305394
0.420207560 0.050327558 0.208175659
0.609621704 0.016048530 0.238273680
0.794991612 0.000000000 0.262131453
0.967978060 0.000000000 0.284083545
0.000000000 0.180802643 0.062138405
0.094308041 0.166208476 0.109808013
0.220659405 0.148623854 0.162159190
0.364938647 0.126592830 0.209636539
0.538813591 0.099151604 0.228096426
0.725202918 0.069618940 0.237247497
0.900317848 0.044507086 0.247628927
0.995161295 0.025600458 0.262119979
0.004388100 0.257426381 0.069081135
0.146514371 0.236862779 0.114150934
0.249408796 0.226839647 0.181390569
0.401777655 0.208900526 0.192686275
0.574587464 0.186678588 0.199587837
0.758109331 0.163210094 0.205191925
0.931809127 0.144609183 0.215576470
0.995161295 0.131974533 0.231884480
0.007607163 0.346704364 0.092442222
0.157002926 0.326267511 0.157677934
0.259354413 0.324506432 0.197845295
0.372495323 0.326937854 0.187901825
0.553843915 0.312499881 0.164850488
0.754635215 0.291844875 0.168744862
0.940374494 0.276822120 0.182681918
0.995161295 0.267896920 0.203144491
0.000000000 0.460675806 0.125304252
0.143852174 0.447177082 0.177540809
0.255692065 0.451912075 0.200932696
0.373553544 0.459321588 0.199433878
0.516551256 0.462079406 0.184459582
0.704392254 0.454734623 0.153398752
0.902398229 0.443085104 0.146833867
0.995161295 0.434960455 0.160517722
0.000000000 0.601325929 0.145493373
0.130113751 0.593298316 0.183893055
0.249767914 0.601834357 0.201936215
0.373112559 0.611768961 0.202829838
0.514971018 0.617179990 0.199313328
0.673576534 0.619325280 0.179815501
0.844592452 0.618382275 0.151646674
0.994894803 0.613484383 0.137383789
0.000000000 0.753201544 0.173386425
0.133562922 0.747538626 0.202093720
0.257598490 0.756542206 0.216739923
0.382784635 0.765831828 0.217691258
0.524334371 0.769798934 0.213483989
0.674898386 0.770479560 0.204002336
0.819854915 0.772435844 0.182250500
0.966465175 0.772768617 0.154179618
0.000000000 0.902968287 0.210947111
0.150249824 0.895767629 0.230443537
0.273963213 0.901925266 0.240059137
0.396835923 0.907740653 0.237683356
0.535355270 0.907975137 0.229455054
0.681489229 0.905236721 0.218097001
0.816536307 0.905051947 0.203685224
0.942896008 0.907604635 0.179985568
0.000000000 0.119500704 0.019354852
0.044033378 0.114014246 0.020714670
0.126544550 0.108563699 0.079707131
0.234975681 0.093749858 0.158499256
0.392412215 0.064023562 0.238567248
0.581743717 0.027138552 0.295995981
0.768694758 0.000000000 0.338626564
0.942586899 0.000000000 0.373542994
0.000000000 0.198779166 0.066370741
0.064682320 0.181635067 0.128773302
0.198451221 0.159943268 0.201571554
0.334092259 0.140688241 0.248297274
0.501897752 0.111653820 0.301477641
0.691284657 0.079609551 0.330875188
0.868830264 0.053145342 0.351785541
0.995161295 0.033760816 0.372216851
0.000000000 0.282540411 0.066751353
0.089346662 0.262123197 0.123242810
0.204113767 0.246146262 0.217696548
0.368585169 0.220565960 0.273294568
0.543383718 0.195280582 0.309388280
0.731879115 0.170368478 0.324112773
0.908710837 0.151240185 0.339322537
0.995161295 0.138308913 0.359238297
0.000000000 0.366962552 0.053277988
0.148795843 0.343965411 0.113438986
0.264180154 0.335379124 0.190787971
0.377834052 0.329182357 0.272966772
0.558781743 0.312102646 0.284928590
0.750949562 0.294104069 0.295912087
0.932580531 0.280727208 0.311468631
0.995161295 0.272799432 0.332416892
0.000498010 0.475534618 0.068787374
0.163279966 0.458365649 0.143225193
0.274719447 0.457121223 0.234389275
0.383053005 0.462545514 0.284859568
0.523672044 0.465992719 0.276135653
0.722828388 0.454567283 0.256401241
0.918476164 0.441934258 0.268696994
0.995161295 0.434862554 0.291037381
0.000000000 0.613682330 0.107422106
0.152836204 0.601746202 0.187008411
0.268384278 0.606131732 0.261680573
0.383331180 0.615694106 0.291975945
0.524876297 0.621196687 0.289499432
0.681109905 0.623556852 0.275127530
0.858418286 0.620148063 0.249015242
0.995161295 0.612131953 0.247035891
0.000000000 0.763376951 0.162989154
0.156447679 0.753912747 0.231479555
0.275139570 0.760143220 0.287619770
0.392711073 0.769261420 0.308252752
0.534099340 0.773020923 0.304285020
0.683178008 0.773372412 0.296762645
0.825807154 0.775046587 0.277484238
0.975914836 0.773974180 0.249532387
0.003735307 0.910494089 0.221954331
0.171796098 0.900031209 0.275027722
0.289474577 0.904142439 0.315567851
0.405450255 0.909879506 0.327916086
0.543723345 0.909897983 0.319844186
0.689424515 0.906959355 0.308531165
0.822927237 0.906579971 0.297431260
0.947927952 0.909250021 0.275574744
0.000000000 0.127169937 0.025806461
0.034163442 0.121021509 0.060916387
0.117535576 0.113952041 0.138656884
0.225695968 0.099272825 0.215766996
0.374125332 0.072379790 0.293561697
0.552345634 0.036847148 0.372330457
0.735202491 0.001951829 0.437988192
0.908000052 0.000000000 0.490329087
0.000000000 0.213673651 0.118366927
0.027727639 0.194778875 0.192698732
0.160175607 0.171735182 0.283871740
0.310217887 0.147588164 0.337889493
0.471414924 0.121780783 0.381531566
0.650075436 0.090893164 0.434767872
0.826374650 0.063182220 0.475993425
0.986595333 0.042530455 0.508898795
0.000000000 0.304711580 0.121380784
0.029137507 0.282541454 0.190530643
0.154485703 0.262696415 0.296084672
0.333024114 0.230754182 0.377256423
0.505955577 0.207384780 0.406553596
0.689078391 0.181741416 0.451861024
0.869909525 0.160468355 0.484455198
0.995161295 0.146142229 0.513162136
0.000000000 0.391529828 0.093391791
0.085447773 0.369230837 0.159908995
0.198809162 0.360964507 0.247134522
0.326660633 0.348369747 0.356860429
0.524172366 0.322667897 0.415204436
0.718776524 0.301789165 0.455000967
0.905030727 0.286736101 0.479144543
0.995161295 0.278003722 0.504293144
0.000000000 0.496808618 0.077792145
0.140375063 0.478518426 0.146597296
0.264854878 0.474597991 0.232084110
0.386659026 0.472561240 0.321556538
0.527733266 0.466821223 0.409181267
0.726126552 0.452550054 0.423839241
0.912567258 0.442206115 0.442374110
0.995161295 0.436477244 0.465503871
0.000000000 0.630003095 0.092433669
0.163962334 0.615614295 0.171751201
0.286889285 0.615657806 0.269236565
0.400903970 0.618646085 0.369629294
0.532184720 0.621936738 0.420408189
0.685397983 0.624529541 0.411293894
0.873303175 0.616515636 0.395424962
0.995161295 0.607193410 0.411473393
0.004742080 0.776174247 0.147378400
0.176529273 0.763722956 0.234701902
0.295597970 0.765272439 0.332460046
0.408396274 0.769867182 0.410497636
0.540668726 0.772956729 0.435741961
0.688818157 0.772964060 0.428376466
0.828558564 0.774442434 0.413479388
0.984374106 0.770887077 0.387355655
0.023588866 0.919806004 0.223272294
0.192031011 0.905941904 0.304875642
0.308263361 0.905795813 0.385129809
0.418473721 0.908656240 0.439175427
0.548921108 0.908573210 0.450902104
0.694288135 0.905309141 0.439649940
0.826560438 0.904851019 0.430815428
0.949733973 0.907665610 0.412025034
0.000000000 0.133801430 0.071190715
0.017083304 0.127004832 0.138425291
0.099635102 0.118683621 0.230065152
0.211917862 0.101691216 0.316665053
0.360465795 0.075126581 0.391738713
0.532886803 0.041941378 0.465338051
0.704466760 0.008909947 0.544426978
0.870829284 0.000000000 0.614554226
0.000000000 0.227195993 0.200936735
0.006451614 0.206756473 0.285418361
0.114919499 0.183251798 0.388958186
0.274009168 0.154683217 0.461961925
0.445119828 0.126726031 0.501854539
0.619466841 0.098806128 0.542573154
0.784079969 0.073562801 0.598059237
0.941047013 0.052709512 0.648684144
0.000000000 0.324244082 0.209197223
0.006451614 0.299684823 0.288943708
0.101951592 0.277549297 0.400382876
0.279986322 0.244566962 0.498818547
0.474443436 0.214777157 0.536410332
0.654463351 0.192215726 0.568036556
0.825679600 0.172233552 0.622428834
0.989367485 0.156655446 0.670733750
0.000000000 0.414729327 0.175882399
0.017254468 0.392393470 0.248878241
0.133655295 0.382515103 0.346818656
0.273432821 0.366093338 0.466480821
0.486651927 0.333603680 0.552625775
0.681321383 0.314081460 0.585328579
0.861933947 0.298089802 0.639469326
0.995161295 0.287241459 0.681612074
0.000000000 0.522186339 0.142501518
0.075983234 0.504647732 0.215702966
0.197985679 0.501286805 0.307423145
0.317800432 0.499488354 0.407062650
0.473854721 0.486894041 0.523203373
0.690907657 0.462614119 0.585334063
0.879112482 0.448840797 0.631641686
0.995161295 0.441354007 0.662740588
0.000000000 0.652514577 0.131641433
0.131499112 0.637386799 0.207377449
0.262501717 0.635746062 0.298462778
0.389875740 0.635723472 0.392743081
0.534664273 0.630933762 0.483484924
0.687605679 0.623421192 0.572434306
0.874116898 0.612114608 0.589987576
0.995161295 0.604786038 0.611495852
0.000215103 0.793391705 0.163033143
0.176646471 0.778678179 0.244510844
0.305301696 0.777138531 0.341448367
0.425167739 0.777053416 0.442516804
0.555774510 0.773002923 0.538552105
0.692910016 0.770355880 0.584563494
0.829284728 0.771809459 0.574419975
0.992714763 0.763711631 0.558481157
0.032516062 0.931996167 0.227404997
0.206051782 0.915479243 0.312585741
0.325316310 0.912134826 0.411628515
0.435714126 0.910321951 0.507732391
0.561074495 0.905531585 0.577360392
0.697145343 0.901583374 0.595695496
0.828865469 0.901127756 0.587466717
0.949547350 0.904082835 0.573580086
0.000000000 0.141763508 0.137591735
0.006662976 0.134246796 0.218044057
0.075767547 0.124919541 0.322951436
0.191277444 0.105605282 0.422987193
0.344301015 0.077352941 0.502917230
0.516544461 0.044756837 0.572250903
0.684105337 0.013746465 0.643378973
0.839773774 0.000000000 0.721161842
0.000000000 0.241529435 0.285023451
0.006451614 0.219719201 0.378393114
0.067245245 0.195920706 0.491087586
0.228820696 0.165186286 0.580221176
0.412072688 0.132997558 0.629772961
0.592256248 0.104575880 0.662371516
0.754240215 0.081983134 0.704099774
0.901771963 0.063830316 0.764063656
0.000000000 0.343364358 0.299403846
0.006451614 0.316546500 0.387207985
0.048976451 0.292903900 0.502233922
0.224487424 0.260409892 0.609507382
0.431532294 0.225640148 0.667804778
0.625436127 0.200207055 0.695029199
0.794897795 0.182952002 0.735224068
0.951081514 0.169691667 0.797749162
0.000000000 0.437521487 0.262069941
0.006451614 0.414405107 0.342075437
0.072931901 0.402607292 0.448811084
0.220211744 0.384418279 0.573504031
0.432860076 0.350926876 0.678069174
0.650677264 0.324030071 0.720225275
0.829066992 0.310736477 0.759825706
0.990524948 0.301162630 0.823294640
0.000000000 0.548895419 0.221530855
0.010093396 0.531634629 0.299882323
0.126903683 0.527976751 0.398000985
0.251539648 0.524279594 0.508459866
0.419974476 0.507366717 0.634315848
0.653381944 0.475430042 0.725355804
0.842641234 0.462477058 0.763817310
0.993877709 0.453814805 0.824107528
0.000000000 0.680184782 0.193117723
0.068264246 0.665482700 0.271777272
0.197296143 0.664266467 0.366967171
0.322083384 0.664505064 0.467227578
0.464485586 0.659335554 0.567609012
0.632349849 0.644086838 0.684804559
0.838547349 0.621942163 0.750119030
0.993949234 0.610944629 0.798739851
0.000000000 0.817574322 0.202345654
0.139120281 0.801952124 0.281050563
0.272568733 0.799301028 0.373842776
0.400325209 0.797183752 0.467963487
0.543780744 0.789387286 0.557011306
0.693976343 0.778011441 0.642968416
0.830154240 0.769326389 0.732132792
0.992763758 0.757932901 0.749571681
0.016042966 0.950319827 0.244678527
0.196364596 0.931705415 0.323516458
0.324285150 0.925927162 0.416293085
0.444171309 0.920961559 0.511408269
0.576515913 0.911381483 0.604198754
0.711091101 0.900392354 0.694473684
0.831946313 0.897522330 0.740806699
0.949592829 0.900718033 0.732123315
0.000000000 0.151545435 0.199800879
0.006451614 0.143295109 0.292963177
0.047357611 0.132996812 0.410580039
0.164196864 0.112069808 0.523646951
0.322252631 0.081489451 0.612808943
0.498294532 0.047833756 0.682823896
0.665304482 0.017773084 0.748228431
0.818307579 0.000000000 0.816030145
0.000000000 0.257175148 0.363580883
0.006451614 0.234051630 0.464703321
0.020364027 0.209945232 0.584487319
0.179558352 0.178415164 0.685334921
0.371053785 0.142776906 0.748112679
0.561188102 0.111630276 0.782276273
0.726940036 0.089383587 0.814901710
0.874523759 0.073248997 0.862789333
0.000000000 0.362762362 0.383744031
0.006451614 0.333904386 0.477535844
0.015379723 0.309354603 0.595011711
0.169885561 0.277534634 0.707587242
0.380634069 0.240653440 0.782873452
0.589735389 0.210410431 0.820832193
0.767819822 0.192255110 0.853397429
0.923612416 0.181269541 0.902344465
0.000000000 0.460406810 0.343743235
0.006451614 0.436282873 0.430241704
0.020521602 0.422797173 0.543411672
0.167355567 0.403680563 0.671247840
0.376938254 0.370772064 0.785304725
0.608109534 0.338379085 0.849318564
0.801505625 0.321660340 0.884667754
0.963697255 0.314426750 0.932872593
0.000000000 0.576075613 0.297958612
0.006451614 0.558516860 0.381407112
0.059395857 0.554024041 0.486689031
0.190706953 0.548046887 0.605816960
0.366595149 0.528723001 0.735945880
0.599188924 0.495420843 0.845548987
0.812644243 0.474421084 0.893864095
0.978851438 0.467886180 0.938433349
0.000000000 0.709818900 0.261425227
0.009457437 0.695148230 0.344461083
0.125109822 0.694013834 0.444585919
0.250486255 0.693495452 0.550717950
0.397481471 0.685700476 0.661236465
0.577798545 0.665618300 0.787553132
0.800547183 0.635274827 0.882034957
0.971791983 0.624259233 0.921781301
0.000000000 0.846493125 0.253441185
0.077147961 0.830849946 0.333895057
0.208871260 0.828255594 0.429083675
0.334200144 0.826063454 0.526646852
0.474483490 0.817952514 0.620984674
0.622091293 0.806004584 0.716373086
0.773371518 0.789460480 0.834066868
0.959295988 0.766811132 0.899688125
0.000000000 0.974872530 0.275308728
0.155052722 0.955480516 0.351917654
0.285662651 0.948729753 0.441604614
0.410038173 0.942461967 0.532180309
0.550170302 0.930730224 0.617767751
0.698158622 0.916420698 0.701364875
0.832768381 0.905164957 0.788745344
0.950354874 0.898069859 0.881141603
