Desert Affinity Presets/Desert Affinity Preset #22.cube
TITLE "32x32x32 Adobe/IRIDAS cube 3D LUT exported with GrossGrade v0.1.027.1 (beta) 64 bit"
LUT_3D_SIZE 8
DOMAIN_MIN 0.000000 0.000000 0.000000
DOMAIN_MAX 0.903226 0.903226 0.903226
0.002087435 0.001710532 0.002957198
0.102449767 0.019115189 0.015241941
0.211722776 0.027872698 0.022434777
0.362207204 0.015491149 0.019104417
0.489670217 0.006281009 0.005814798
0.626038790 0.000164601 0.000000000
0.763769686 0.000000000 0.000000000
0.896043539 0.000000000 0.019765571
0.019976510 0.084741138 0.025839485
0.147817448 0.073967792 0.040191986
0.215354726 0.094573647 0.031117942
0.321196467 0.099145561 0.022088258
0.448571920 0.086961381 0.006760317
0.591201663 0.069394507 0.000005144
0.736806870 0.009279278 0.000000000
0.873478413 0.009324646 0.006911349
0.022500265 0.172357082 0.039266605
0.196014881 0.163731873 0.038943954
0.343495816 0.143735915 0.063757464
0.429870278 0.156825766 0.049963765
0.498287559 0.182837665 0.010779009
0.616626918 0.186371848 0.000352113
0.748089731 0.169103965 0.000000000
0.886170924 0.181558892 0.003468301
0.022414688 0.286827594 0.042304635
0.189936534 0.269491494 0.039856251
0.415645123 0.243251115 0.037554659
0.583814204 0.224089354 0.086430229
0.701926410 0.226999342 0.094894946
0.770047009 0.269917130 0.045347929
0.844178259 0.308641553 0.011777826
0.945700765 0.344076931 0.048377097
0.000996021 0.398960501 0.035451312
0.164468169 0.390345395 0.026307577
0.463840216 0.371988475 0.007329869
0.685393929 0.345029026 0.061557814
0.848374188 0.352736622 0.160802320
0.955319941 0.386903256 0.231025815
0.981166065 0.449322879 0.258147061
0.990146518 0.495567739 0.276047051
0.000201542 0.532650232 0.029439667
0.151870444 0.523417115 0.018145343
0.474571735 0.508885622 0.024050381
0.761741459 0.493987978 0.014755582
0.937278986 0.498952150 0.167283550
0.979011238 0.530353189 0.355546415
0.985911906 0.537503898 0.384330839
0.992988288 0.561138272 0.365143865
0.008572786 0.673662603 0.032747071
0.157326147 0.668391228 0.023695923
0.495649368 0.655263662 0.017435480
0.805551887 0.642326415 0.005393000
0.968677223 0.636778831 0.205586046
0.980245948 0.639803946 0.344920069
0.987434983 0.636023700 0.407600105
0.994253159 0.641278744 0.446137935
0.024909385 0.820440829 0.063456349
0.152232721 0.818792284 0.057155620
0.511599600 0.799923778 0.040617485
0.817747772 0.783392072 0.074523345
0.972393453 0.765996814 0.283388853
0.979382277 0.758191884 0.344008774
0.986369550 0.753663063 0.409996778
0.993277371 0.751333237 0.481974900
0.004744891 0.002022432 0.090648077
0.092829973 0.004067319 0.066689305
0.232739687 0.013937763 0.066863745
0.390893579 0.004163178 0.052299429
0.518481553 0.004704679 0.026413176
0.666690588 0.000000000 0.007568749
0.804069757 0.000000000 0.006558231
0.937007368 0.022376316 0.061155107
0.001511328 0.077798471 0.131026119
0.072951637 0.077658683 0.073891535
0.205619782 0.087451525 0.068041667
0.349567205 0.083354227 0.055008344
0.489073992 0.069159269 0.031314746
0.640806019 0.037104752 0.011157224
0.783625662 0.006900525 0.007398068
0.922620595 0.029574262 0.049381003
0.000000000 0.173704445 0.174847931
0.076329663 0.162487134 0.087781109
0.265454024 0.156799749 0.106405497
0.346792132 0.179964453 0.080742121
0.458476722 0.190806136 0.055753686
0.619256794 0.183573619 0.035770163
0.772154152 0.160634056 0.019580411
0.918981612 0.181978822 0.056988191
0.001914883 0.287689656 0.183224410
0.058341485 0.277906686 0.096872561
0.309874624 0.261801034 0.089638978
0.498322159 0.247379869 0.139837772
0.606273115 0.263249755 0.128898725
0.683521926 0.298625261 0.074135609
0.799250603 0.323345125 0.053500250
0.933017790 0.350679904 0.080891728
0.000077156 0.400587976 0.178323850
0.024011966 0.409343690 0.110066511
0.306966513 0.387039959 0.089260176
0.596275091 0.370605439 0.111411832
0.768239915 0.368506819 0.220052004
0.884833574 0.400777638 0.259848028
0.947316825 0.452144265 0.199703842
0.987396777 0.498614848 0.199246138
0.000000000 0.535884559 0.188335568
0.009333994 0.552346408 0.124076352
0.311494887 0.522800505 0.079865329
0.651913643 0.522070587 0.080834255
0.864700556 0.516437232 0.214031652
0.976146877 0.538052082 0.373842746
0.986848295 0.559648693 0.427567065
0.993566692 0.590076685 0.389906585
0.002722452 0.679319799 0.206175819
0.012320185 0.698212326 0.139958337
0.318926334 0.666720867 0.079163872
0.666614354 0.672906101 0.120604917
0.921456039 0.658221304 0.195010424
0.980507910 0.662433982 0.389443725
0.987762272 0.657524765 0.461384058
0.994287908 0.663964808 0.497146785
0.021094117 0.824890316 0.234054700
0.035029441 0.840997636 0.166819453
0.319474339 0.815828502 0.108884543
0.680273235 0.810522258 0.145818129
0.948814631 0.792589426 0.195232645
0.979405284 0.784152925 0.387516022
0.986411214 0.779623270 0.466969550
0.993246615 0.777177632 0.542712629
0.013807707 0.001780209 0.186730176
0.035732731 0.001983155 0.170570269
0.205689654 0.000789335 0.135712072
0.368519336 0.000000000 0.125070423
0.512191355 0.000000000 0.106064729
0.671153545 0.000000000 0.087488309
0.816733420 0.000000000 0.070971675
0.953109801 0.052524358 0.108048476
0.002722454 0.065054104 0.223246887
0.019712731 0.077947639 0.185148597
0.168170929 0.074327819 0.141230911
0.343981534 0.059201404 0.126857892
0.507608175 0.040467359 0.106096119
0.672626376 0.008560563 0.087872721
0.819571733 0.006451614 0.076739699
0.956296206 0.074675187 0.118669137
0.000176291 0.145882517 0.295271248
0.006451614 0.169885576 0.249342710
0.159394473 0.158857211 0.148946241
0.326158941 0.166810110 0.131060630
0.483553916 0.169625044 0.117242508
0.657989562 0.149062648 0.103367545
0.817725956 0.133512393 0.100093357
0.960879683 0.187906653 0.137771323
0.000000000 0.245414436 0.339098334
0.006451614 0.281003505 0.285596997
0.143338129 0.259929657 0.158904612
0.406542987 0.262748659 0.193830431
0.507966816 0.294617981 0.164671391
0.643084764 0.306650043 0.136754170
0.798168719 0.318999171 0.131349400
0.952275634 0.346277416 0.157704681
0.000000000 0.371838659 0.368663847
0.006451614 0.408016413 0.296018302
0.121427111 0.381745726 0.170078203
0.472713441 0.391925544 0.179332435
0.687073290 0.386659920 0.280016899
0.792817473 0.423130512 0.286259830
0.867287993 0.470424265 0.222770065
0.970363021 0.502538860 0.214983001
0.000000000 0.511634707 0.396141291
0.006451614 0.542705774 0.315394640
0.120477423 0.516707540 0.188628510
0.482453972 0.534165144 0.184614211
0.780867934 0.536118507 0.271377951
0.933685541 0.542114198 0.403943300
0.987275422 0.579540789 0.460660696
0.993848622 0.620489001 0.412661880
0.000000000 0.657068491 0.427168310
0.006451614 0.693432391 0.345812619
0.113366671 0.673451424 0.223102033
0.499170929 0.680262446 0.193532005
0.822104692 0.683718383 0.256638348
0.979682446 0.681766152 0.420620114
0.987722278 0.678586483 0.517446339
0.994373143 0.688466787 0.547609329
0.000000000 0.812499940 0.463699251
0.018662937 0.840506017 0.377312332
0.112105526 0.824929118 0.262658298
0.508393884 0.818664968 0.212498575
0.829012215 0.822201967 0.278780252
0.979376674 0.811259985 0.437709391
0.986258388 0.805994093 0.525749803
0.993443608 0.803446651 0.605477452
0.044594567 0.000008885 0.321880966
0.044465892 0.000115501 0.301945537
0.098364577 0.000079962 0.288263857
0.317047656 0.000000000 0.212278068
0.479216278 0.000000000 0.207203940
0.651644707 0.000000000 0.204262361
0.808502018 0.000000000 0.197615117
0.955796778 0.036728803 0.213292480
0.028712953 0.031699531 0.344768852
0.015679527 0.055787809 0.313183427
0.052728120 0.057380036 0.290080369
0.289215565 0.051523615 0.216468945
0.477629989 0.020554435 0.209777594
0.656618297 0.006451614 0.208447814
0.817883074 0.006451614 0.206295088
0.963719845 0.071971960 0.233287245
0.006289423 0.120318413 0.390140951
0.007045954 0.146360621 0.347863942
0.048263356 0.161172017 0.304801852
0.269679844 0.150897250 0.225605622
0.473043531 0.140484765 0.223865733
0.668516099 0.081402786 0.222725004
0.840500414 0.083093248 0.229395002
0.972050548 0.190374821 0.267710298
0.000533549 0.212068826 0.451299489
0.006451614 0.242891759 0.409283906
0.012903227 0.273107678 0.364924520
0.261145115 0.258439273 0.241018966
0.478192508 0.275281996 0.234123990
0.660691202 0.274664819 0.233212426
0.834138334 0.293595374 0.245826900
0.977893412 0.333586484 0.280023277
0.000000000 0.333853722 0.516624153
0.006451614 0.369890690 0.470060945
0.012903227 0.405321419 0.413021266
0.254874349 0.380273402 0.262074351
0.578105867 0.403774709 0.341370583
0.697844446 0.446499527 0.312591523
0.825373769 0.474451780 0.302180111
0.966005981 0.496524513 0.317358255
0.000000000 0.472870082 0.573622048
0.006451614 0.510585189 0.515097678
0.012903227 0.547585905 0.442621648
0.257376671 0.511719584 0.281281203
0.651644468 0.550817311 0.330168158
0.851719379 0.555593610 0.459787518
0.950769186 0.592320621 0.468095362
0.992671549 0.640384018 0.424690187
0.000000000 0.627856374 0.625779688
0.006451614 0.666687429 0.557289064
0.012903227 0.701330304 0.477576435
0.255198985 0.657532632 0.312540919
0.659233868 0.696498215 0.338915676
0.929690719 0.696501315 0.450123429
0.988047123 0.701071084 0.577113688
0.994537354 0.717278183 0.597261608
0.000000000 0.785997748 0.669111252
0.006451614 0.822608471 0.595489144
0.012963077 0.848654687 0.509825826
0.256998837 0.806288183 0.350781918
0.665964484 0.828740954 0.342698097
0.960868418 0.835565329 0.442754149
0.986277461 0.831742406 0.583597600
0.993695855 0.829699159 0.668616831
0.078593463 0.000000000 0.430225343
0.079585247 0.000000000 0.412710965
0.083491169 0.000000000 0.404692471
0.222862557 0.000000000 0.369904399
0.430760384 0.000000000 0.318500012
0.604768455 0.000000000 0.324885756
0.783272326 0.000000000 0.340671510
0.946539223 0.000000000 0.360693157
0.077272460 0.011381215 0.450901747
0.060937226 0.022429127 0.423131734
0.051373012 0.032388818 0.404796124
0.215244651 0.011573410 0.373571545
0.430876940 0.013342851 0.323818803
0.609878898 0.006451614 0.332362890
0.794575930 0.006451614 0.354145408
0.957822204 0.015896497 0.380782664
0.022270637 0.092586257 0.485312462
0.019258194 0.120146006 0.449680746
0.019381104 0.138234153 0.422833323
0.155891210 0.134948716 0.381246656
0.420969486 0.134512722 0.347957730
0.622763395 0.056736536 0.354201317
0.818706274 0.023804720 0.380358547
0.970517993 0.145714253 0.413350523
0.019791337 0.184889033 0.558264256
0.011295645 0.219020024 0.511495471
0.012903227 0.249205887 0.466194719
0.143949345 0.258452863 0.409297526
0.419650316 0.260145217 0.365863770
0.633611262 0.247777864 0.373738468
0.838014066 0.247726306 0.395338833
0.981294930 0.312772930 0.429999471
0.010004630 0.302027613 0.637074649
0.006451614 0.336327046 0.593835950
0.012903227 0.368329316 0.546651542
0.049885906 0.395457029 0.492368490
0.420133263 0.407193184 0.393450469
0.650950670 0.420661896 0.390221089
0.834490180 0.441339791 0.406485528
0.985073745 0.473778397 0.434113592
0.000029927 0.448547274 0.714057148
0.006451614 0.481566757 0.670187473
0.012903227 0.512399077 0.619758606
0.019354852 0.542403996 0.556500912
0.420442998 0.542301357 0.423299134
0.743603289 0.570807219 0.518929660
0.855296373 0.611916840 0.490779430
0.976427495 0.639234483 0.481269002
0.000000000 0.602050424 0.782453656
0.006451614 0.636950612 0.733307958
0.012903227 0.669817507 0.675251544
0.019354852 0.701603830 0.600348890
0.437496006 0.684123456 0.454045475
0.805012524 0.706794202 0.499262363
0.982004642 0.719238937 0.631066680
0.994452596 0.750878513 0.638392627
0.000000000 0.748720765 0.832806170
0.006451614 0.786130309 0.776218593
0.012903227 0.822619319 0.712376952
0.019354852 0.851246178 0.631878674
0.436516792 0.817175448 0.475610852
0.807757258 0.843521595 0.495515406
0.986382604 0.856325150 0.639372110
0.993957222 0.856025100 0.732060730
0.109414071 0.000000000 0.542285681
0.110597961 0.000000000 0.519975424
0.113218017 0.000000000 0.505802929
0.117947876 0.000000000 0.499351859
0.365926296 0.000000000 0.457443565
0.555229545 0.000000000 0.447684646
0.729182124 0.000000000 0.466349155
0.917695045 0.000000000 0.498717517
0.114051841 0.006451614 0.565934420
0.113837130 0.006846282 0.536457360
0.109320134 0.009750172 0.512719870
0.109377936 0.011653364 0.501293719
0.368694454 0.006451614 0.462742507
0.561081469 0.006451614 0.456862330
0.741587818 0.006451614 0.482256293
0.934350491 0.006451614 0.521434367
0.078316651 0.041226216 0.599944353
0.046400882 0.076348804 0.563941121
0.040119831 0.102906570 0.534531474
0.040696818 0.120278448 0.516342402
0.329326630 0.098182648 0.484681100
0.572672367 0.048144601 0.483230531
0.765818954 0.021978224 0.510749400
0.960190892 0.056045376 0.554977655
0.044368263 0.150566235 0.662359178
0.035134640 0.191843912 0.621291935
0.028428981 0.222444996 0.582569122
0.023728909 0.244380578 0.552018821
0.330517381 0.243279487 0.508864880
0.576006293 0.241476774 0.508539617
0.783329308 0.236348242 0.536185384
0.974217772 0.266933143 0.576328456
0.043977328 0.279213756 0.749967992
0.030963553 0.312548131 0.702473164
0.015463425 0.343172103 0.654214799
0.019354852 0.374696434 0.607568502
0.322930872 0.386350602 0.547797382
0.574202836 0.401032269 0.527586281
0.794112682 0.412191153 0.550656974
0.983467996 0.435753942 0.578976333
0.040478148 0.427588522 0.837486267
0.015034204 0.460047722 0.792491853
0.012908839 0.488217831 0.744552732
0.019354852 0.514929116 0.696239591
0.225469947 0.536664128 0.631669700
0.571313143 0.562462747 0.554863691
0.804394245 0.580908120 0.560240924
0.978013575 0.602844059 0.576943398
0.026110675 0.576977551 0.903947771
0.007601007 0.610034049 0.867169619
0.012903227 0.639819324 0.820042551
0.019354852 0.668010533 0.768450737
0.049133416 0.695828557 0.707197964
0.566495538 0.687199414 0.572134852
0.899986386 0.727502704 0.678910911
0.990459144 0.778260350 0.666629195
0.000264671 0.722291231 0.926479816
0.006451614 0.751473844 0.919972897
0.012903227 0.782604516 0.871603787
0.019354852 0.813517153 0.810558796
0.025937384 0.844149292 0.740042388
0.575995624 0.815172315 0.585211694
0.955413520 0.871236324 0.671759069
0.994303763 0.881985784 0.794282734
0.129106462 0.000000000 0.658456683
0.131741405 0.000000000 0.636404812
0.135191321 0.000000000 0.619206429
0.139867827 0.000000000 0.608983338
0.158364326 0.000000000 0.601903796
0.489339083 0.000000000 0.566958964
0.673081517 0.000000000 0.573531032
0.866865635 0.000000000 0.614550769
0.132788107 0.006451614 0.680362105
0.134502664 0.006451614 0.652301371
0.136885181 0.006451614 0.628908455
0.140740350 0.006451614 0.613996029
0.163545802 0.006451614 0.606621623
0.497317642 0.006451614 0.578036785
0.686790884 0.006451614 0.591057003
0.886886895 0.006451614 0.638963699
0.137729779 0.013228690 0.715722263
0.131102085 0.019879114 0.681218982
0.111556605 0.036467306 0.652836800
0.085204870 0.062599011 0.633286595
0.122618735 0.064678490 0.624629557
0.517387688 0.017577991 0.608404756
0.715406954 0.013389545 0.625109911
0.914400280 0.014254640 0.671595275
0.082112722 0.108266175 0.775869131
0.067009635 0.153063565 0.736116171
0.058232885 0.184926838 0.699570239
0.054155238 0.209459573 0.671595037
0.107574150 0.220087022 0.655497432
0.506361961 0.214077443 0.642905593
0.728815079 0.202578545 0.657493830
0.932593048 0.217957258 0.698580444
0.074361563 0.258456469 0.860815048
0.062347047 0.296814620 0.814160883
0.050416730 0.328614831 0.767484605
0.035652623 0.355173469 0.726608932
0.087357223 0.374407262 0.697753429
0.508185923 0.389131576 0.674086273
0.734993458 0.395730019 0.678348541
0.943748713 0.403022051 0.710603356
0.060902633 0.412034333 0.898869097
0.061166789 0.441225708 0.896462739
0.046006646 0.470793635 0.855281293
0.021226710 0.499103010 0.805229962
0.035887282 0.527017653 0.759003460
0.502029717 0.546018243 0.714769304
0.729509413 0.555580080 0.688019812
0.949361324 0.562577069 0.710531175
0.034933202 0.562778354 0.917505145
0.033954900 0.589192927 0.920624971
0.030629149 0.613439798 0.919790864
0.019483909 0.638789535 0.887195170
0.025806461 0.664669693 0.837989926
0.448833674 0.690960407 0.780290365
0.728875577 0.717109561 0.710106075
0.959412515 0.740359724 0.724543214
0.001573526 0.708413661 0.931677938
0.006617151 0.733640075 0.933975101
0.012903227 0.756259739 0.936023772
0.019354852 0.777894914 0.936023414
0.025806461 0.804016471 0.897154689
0.188764825 0.838035524 0.836252928
0.726229668 0.844069779 0.721183300
0.994836986 0.906803250 0.854392290
0.143506959 0.000000000 0.782271683
0.147793472 0.000000000 0.755935192
0.152266264 0.000000000 0.733503759
0.156948671 0.000000000 0.718492091
0.162200093 0.000000000 0.710359931
0.327602297 0.000000000 0.697928548
0.614969671 0.000000000 0.702358603
0.817497909 0.000000000 0.728873193
0.145440340 0.006451614 0.806078374
0.149311364 0.006451614 0.774463773
0.153429940 0.006451614 0.746666133
0.158111319 0.006451614 0.726940036
0.163260639 0.006451614 0.717534781
0.350277930 0.006451614 0.709275484
0.631214976 0.006451614 0.721285999
0.839218438 0.006451614 0.754837930
0.148214638 0.012903227 0.840748727
0.152018115 0.012903227 0.807540715
0.155518129 0.014871424 0.777109742
0.155330211 0.019980596 0.753426552
0.152362540 0.028910646 0.740216434
0.382400155 0.012913047 0.741567850
0.658594489 0.012903227 0.754556894
0.869705021 0.012903227 0.789331019
0.127829134 0.077492498 0.860169172
0.106445268 0.108963467 0.856412053
0.094484314 0.141581610 0.825557470
0.089959577 0.171246409 0.797627926
0.087126233 0.195153654 0.777751744
0.362630039 0.162366435 0.779282331
0.667165935 0.112336956 0.788303256
0.886054039 0.040906757 0.810026407
0.078535959 0.249711886 0.882142007
0.082116447 0.281048357 0.886905015
0.084371679 0.308820575 0.885713637
0.077181548 0.335327953 0.851941705
0.071371838 0.356781989 0.822727680
0.375721395 0.361418486 0.820929468
0.673216641 0.361012548 0.818311810
0.898511231 0.329059422 0.836895406
0.061980534 0.404155046 0.904200196
0.064340964 0.433476120 0.908372998
0.066519059 0.460818201 0.912041128
0.067847483 0.486031353 0.912423193
0.051410757 0.511277735 0.875943542
0.350437313 0.529903769 0.860083699
0.673217714 0.539985001 0.836821139
0.901320994 0.533936918 0.848718762
0.037763689 0.551266134 0.922537923
0.037507363 0.576791346 0.925648510
0.036954995 0.600708485 0.928349853
0.035517056 0.622899473 0.930637300
0.032736499 0.644864380 0.931070566
0.223921120 0.674712360 0.909160376
0.661949635 0.693351269 0.865604997
0.895620048 0.709987283 0.856089830
0.001809671 0.694985807 0.936914742
0.007077285 0.718064427 0.939002514
0.013046319 0.739553809 0.940969646
0.019354852 0.759944677 0.942797065
0.025806461 0.780363321 0.944569230
0.040888403 0.804983675 0.955151618
0.609797537 0.845588267 0.933437705
0.904751480 0.895854533 0.884033799
