Desert Affinity Presets/Desert Affinity Preset #12.cube
TITLE "32x32x32 Adobe/IRIDAS cube 3D LUT exported with GrossGrade v0.1.027.1 (beta) 64 bit"
LUT_3D_SIZE 8
DOMAIN_MIN 0.000000 0.000000 0.000000
DOMAIN_MAX 0.903226 0.903226 0.903226
0.157876700 0.127985895 0.005508509
0.216351807 0.127601981 0.005182579
0.275283366 0.127468437 0.005071284
0.354121447 0.122341305 0.000550851
0.456431150 0.109472178 0.000000000
0.599923372 0.084869362 0.000000000
0.762049079 0.055131868 0.000000000
0.907678545 0.030128416 0.000000000
0.151158750 0.188917741 0.000000000
0.215053633 0.187001169 0.000000000
0.278779268 0.183204442 0.000000000
0.350648165 0.177182898 0.000000000
0.449231595 0.164853945 0.000000000
0.591078460 0.141612127 0.000000000
0.756781638 0.112974994 0.000000000
0.907973170 0.089795217 0.000000000
0.140725821 0.245988816 0.000000000
0.208424613 0.240962952 0.000000000
0.269573838 0.242862061 0.000000000
0.362854719 0.234356582 0.000000000
0.471004754 0.222091332 0.000000000
0.617673278 0.201390892 0.000000000
0.782409430 0.177726761 0.000000000
0.934866309 0.158717826 0.000000000
0.118238837 0.313576370 0.000000000
0.194675535 0.309904367 0.000000000
0.255262017 0.315109372 0.000000000
0.343483955 0.316396862 0.000000000
0.473381966 0.304324955 0.000000000
0.656466722 0.277885735 0.000000000
0.823415875 0.256700814 0.000000000
0.971746802 0.242706761 0.000000000
0.091666028 0.400410354 0.000000000
0.174610808 0.399033636 0.000000000
0.242739230 0.404705763 0.000000000
0.321824342 0.412637204 0.000000000
0.442236990 0.410879463 0.000000000
0.634894311 0.388815075 0.000000000
0.839198947 0.364185333 0.000000000
0.993232369 0.349767774 0.000000000
0.046391658 0.510919034 0.000000000
0.135353416 0.512733579 0.000000000
0.210117877 0.521616817 0.000000000
0.293716520 0.532712519 0.000000000
0.400635988 0.542887032 0.000000000
0.579832494 0.535659909 0.000000000
0.804320574 0.517098665 0.000000000
0.992874682 0.506656349 0.000000000
0.000000000 0.653161764 0.000000000
0.070047274 0.660394192 0.000000000
0.155141801 0.675561249 0.000000000
0.254256696 0.692315519 0.000000000
0.367834985 0.710590422 0.000000000
0.529052794 0.720779896 0.000000000
0.752348900 0.713949561 0.000000000
0.966645241 0.708470166 0.000000000
0.000000000 0.816509306 0.000000000
0.045100924 0.832541347 0.000000000
0.141938910 0.854249775 0.000000000
0.252312541 0.874988854 0.000000000
0.375324965 0.894828200 0.000000000
0.527429163 0.909165621 0.000000000
0.727397084 0.909590840 0.000000000
0.932481706 0.904431880 0.000000000
0.145378590 0.127074763 0.107548922
0.215527833 0.126222610 0.078500807
0.274301827 0.126565441 0.078433521
0.352600068 0.121033676 0.073287390
0.454255968 0.108081199 0.060930654
0.597057998 0.083598860 0.037047677
0.759119749 0.053833719 0.009318563
0.905275881 0.028720902 0.006451614
0.110298887 0.200094521 0.061547879
0.212184742 0.184320107 0.074830495
0.269558221 0.182819232 0.073201843
0.346052855 0.176428884 0.066673420
0.445701957 0.164117977 0.054179221
0.586924255 0.141351148 0.031283826
0.753607750 0.113058902 0.008043370
0.905797005 0.090304412 0.006451614
0.103957683 0.257296473 0.034530524
0.202349678 0.241583750 0.063354261
0.267041624 0.240701333 0.053470284
0.352680087 0.234128311 0.055287912
0.452364534 0.225531563 0.054054849
0.601476729 0.205483183 0.035279125
0.774771690 0.180238575 0.010500232
0.931925058 0.160583869 0.006807001
0.087741897 0.324470878 0.012871501
0.185634047 0.313651443 0.044953149
0.257723749 0.313592285 0.060595863
0.342631131 0.315858960 0.029179111
0.470331073 0.304483622 0.018784519
0.634478927 0.283271462 0.015071653
0.798569918 0.263930053 0.008578793
0.952842712 0.249431714 0.007370011
0.063704163 0.412188619 0.006451614
0.163480774 0.405104220 0.021183824
0.243010327 0.406722963 0.044882581
0.325756967 0.412247717 0.038156394
0.443231493 0.412233353 0.007794607
0.635129452 0.390671104 0.006451614
0.832313895 0.368421018 0.006451614
0.989824712 0.358038962 0.006451614
0.015298002 0.525693536 0.006451614
0.120503999 0.522290468 0.006451614
0.207015127 0.527366459 0.010487609
0.300110072 0.534662426 0.021250702
0.406706512 0.545102417 0.006979084
0.583611369 0.540090144 0.006451614
0.809309542 0.522544682 0.006451614
0.992975593 0.513363838 0.006451614
0.000000000 0.670145273 0.006451614
0.054977924 0.673382103 0.006451614
0.151841447 0.685408473 0.006451614
0.260050923 0.699239194 0.006451614
0.380252928 0.715282381 0.006451614
0.538142741 0.726767659 0.006451614
0.759296715 0.721387565 0.006451614
0.973750591 0.715756178 0.006451614
0.000000000 0.835667372 0.006451614
0.033260450 0.847967207 0.006451614
0.140068710 0.866947412 0.006451614
0.257322907 0.885291576 0.006451614
0.387724191 0.901633024 0.008409986
0.541152239 0.913967431 0.006451614
0.734872043 0.915450215 0.006451614
0.937584937 0.909959793 0.006451614
0.131448254 0.124833494 0.228375748
0.219608828 0.119281508 0.193098456
0.272413343 0.123596191 0.172940060
0.349251986 0.118038356 0.166780218
0.449691951 0.105261013 0.154613405
0.589862823 0.081475414 0.131044865
0.752289712 0.051732287 0.101521552
0.898885012 0.026640540 0.076540507
0.083386563 0.200512156 0.190548167
0.198183373 0.181491718 0.196386129
0.266723067 0.179567605 0.167102039
0.342409283 0.173352435 0.160383239
0.441571444 0.161424398 0.148422137
0.581482828 0.139366597 0.126456916
0.748920262 0.111306675 0.098550178
0.902848959 0.088779971 0.076299235
0.057617225 0.266553104 0.133889958
0.161689237 0.250870883 0.147882834
0.263167500 0.237047911 0.163184866
0.342155874 0.233624354 0.159648538
0.446167260 0.224947155 0.150858074
0.596360087 0.205300897 0.131047294
0.770859361 0.180199161 0.105889887
0.928414166 0.160753533 0.086441316
0.038523994 0.338816434 0.086221084
0.149813786 0.325010240 0.114281878
0.251716375 0.314511687 0.150309056
0.340271682 0.313857257 0.140553892
0.457023710 0.305236846 0.140763879
0.606281877 0.289209425 0.132391632
0.782483578 0.268102854 0.112612396
0.944558859 0.252459973 0.097426444
0.015798856 0.428673357 0.049876168
0.131564319 0.416840881 0.090645641
0.233395994 0.410712034 0.130264312
0.328945786 0.410580784 0.146788120
0.442502350 0.412114412 0.113486551
0.630095124 0.391893089 0.095343232
0.811776161 0.374222130 0.094588548
0.967338562 0.366910547 0.097825341
0.000000000 0.545793414 0.012903227
0.087121315 0.536722839 0.043552116
0.194352731 0.534930766 0.089272290
0.301448017 0.537210643 0.118839018
0.414064258 0.545152545 0.114163183
0.585585237 0.543066502 0.073195204
0.811729014 0.526400030 0.057470709
0.992432714 0.520065010 0.066340432
0.000000000 0.691022277 0.012903227
0.025466733 0.689894021 0.012903227
0.140166685 0.696958363 0.033741109
0.260519087 0.706801236 0.076696686
0.391702324 0.718790889 0.100756787
0.547326207 0.730509877 0.075962059
0.764294207 0.726970375 0.038261995
0.979147255 0.721132398 0.032967184
0.000000000 0.857835948 0.012903227
0.010522668 0.866203666 0.012903227
0.130332023 0.880700529 0.022343442
0.256898344 0.895296097 0.071884476
0.395259857 0.908115923 0.105727099
0.554086149 0.916722119 0.104837738
0.741102517 0.919151127 0.059645087
0.940790713 0.913852692 0.024639418
0.117347799 0.122870177 0.346585512
0.216695800 0.114340991 0.310330093
0.279009908 0.117450923 0.273097813
0.347976834 0.115220904 0.252409160
0.446218401 0.103006966 0.239393592
0.584340751 0.079736814 0.216484770
0.746893942 0.050042756 0.187244877
0.894075811 0.024987957 0.162634626
0.066538393 0.198660508 0.311223060
0.184734762 0.179236129 0.310183018
0.270913064 0.173034072 0.271961063
0.340693444 0.170813352 0.245581582
0.438439608 0.159486204 0.233444393
0.577461720 0.138139680 0.212490648
0.745736063 0.110451147 0.185145557
0.900103867 0.088201046 0.163103133
0.027430296 0.269060552 0.253380984
0.135833159 0.252360374 0.268301219
0.250542939 0.235881224 0.276805729
0.341150492 0.232300475 0.245806798
0.444935650 0.224269703 0.237364784
0.594899774 0.204990298 0.218242273
0.769959152 0.180057690 0.193558276
0.928323925 0.160936669 0.174676657
0.000675239 0.348617643 0.189642578
0.103966117 0.336982995 0.208261847
0.212923065 0.326493233 0.227509245
0.338603765 0.312637150 0.243457898
0.446323663 0.307693064 0.238695234
0.601096809 0.291414291 0.222418100
0.781219780 0.269967943 0.200942189
0.944346547 0.254725367 0.185630247
0.000000000 0.445512742 0.127189428
0.079644158 0.434838295 0.157038122
0.197366834 0.425230831 0.191999868
0.324480355 0.414135844 0.229532987
0.442404777 0.412584484 0.219852448
0.614152014 0.396756411 0.213373914
0.789014041 0.382641554 0.205902055
0.955157518 0.374628633 0.198666483
0.000000000 0.569851875 0.045516960
0.030550163 0.559882700 0.094355658
0.158503294 0.552019835 0.147972614
0.291984499 0.545684099 0.196970642
0.423028767 0.546768129 0.219005227
0.589004338 0.547204554 0.185620666
0.812829792 0.531615555 0.175263867
0.988637149 0.530603051 0.191704392
0.000000000 0.716394663 0.019354852
0.006451614 0.714069366 0.034245122
0.110664912 0.715998471 0.097442426
0.250998825 0.719707012 0.155467972
0.397429138 0.726232529 0.194475681
0.559998035 0.734330237 0.192820951
0.770240724 0.733086050 0.154444098
0.984360576 0.727002561 0.151460201
0.000000000 0.885001838 0.019354852
0.006451614 0.890882134 0.025082197
0.106673561 0.900103331 0.091402188
0.247838318 0.909599006 0.151925027
0.396463513 0.917950451 0.195059896
0.566462100 0.920907974 0.210241482
0.749304235 0.922419488 0.176730692
0.944835603 0.918220639 0.138974681
0.099871412 0.117504887 0.508922875
0.206679985 0.108656161 0.457915634
0.281148046 0.109611638 0.399732500
0.354082614 0.108100407 0.358228326
0.444227666 0.099546731 0.331179738
0.578865886 0.077562399 0.306537449
0.741147101 0.048161089 0.276854515
0.889070630 0.023245648 0.251872689
0.049721070 0.194015056 0.460252643
0.168874502 0.174788356 0.452294141
0.265879571 0.166425154 0.404424965
0.346469223 0.163771167 0.353119314
0.436632812 0.156689793 0.324860573
0.573401034 0.136676967 0.302892268
0.742409587 0.109468639 0.275639951
0.897565424 0.087429486 0.253686577
0.005917216 0.267910093 0.387921840
0.117803685 0.249817416 0.405646563
0.236735806 0.233340353 0.408379108
0.346548587 0.226344272 0.361058563
0.444316208 0.222893581 0.330094934
0.592987955 0.204493210 0.310467422
0.768383861 0.179883078 0.285972565
0.927243054 0.161063328 0.267453521
0.000000000 0.353181303 0.311565727
0.074676685 0.340969473 0.333348155
0.188791007 0.328854054 0.357155561
0.325908124 0.312595278 0.369027466
0.446528167 0.307546854 0.332267702
0.600937247 0.292005271 0.316273302
0.781484783 0.270781100 0.295280397
0.945271671 0.255993128 0.280844688
0.000000000 0.456956357 0.232556745
0.034575392 0.447722346 0.258093506
0.151634365 0.439605206 0.284489542
0.282200485 0.429444253 0.310157359
0.442313790 0.412980556 0.329539508
0.599881709 0.402729332 0.319389164
0.785934210 0.387087673 0.303576469
0.956455708 0.379403591 0.295558661
0.000000000 0.590150714 0.126716197
0.006451614 0.582668781 0.164189160
0.100151286 0.576116920 0.205371916
0.249145165 0.566484928 0.255872458
0.419052929 0.554118276 0.308545560
0.592389703 0.551454604 0.298968643
0.801914871 0.540125132 0.299527586
0.969801903 0.543166280 0.309638321
0.000000000 0.740735352 0.044987537
0.006451614 0.740635991 0.095132262
0.060264207 0.742189229 0.152318805
0.217484936 0.741285563 0.218906149
0.389127463 0.738870382 0.280122638
0.573848546 0.738315403 0.304964781
0.775913477 0.739245474 0.269861758
0.987118006 0.733244479 0.270941377
0.000000000 0.913082838 0.025806461
0.006451614 0.919430971 0.081645332
0.064096786 0.926366091 0.149938285
0.221065462 0.930148304 0.219802439
0.385920823 0.931537271 0.278632283
0.570592523 0.927873313 0.307408571
0.759740949 0.924615383 0.292562962
0.948546290 0.922732949 0.252498239
0.075789660 0.105045237 0.761257350
0.187450543 0.096579418 0.694124818
0.273557633 0.097944260 0.592219234
0.356959969 0.097878553 0.504164517
0.450269073 0.091077410 0.449427903
0.576054633 0.073299184 0.408836901
0.735580802 0.045334816 0.375803381
0.884041607 0.020664835 0.349574059
0.026564289 0.182189330 0.698114038
0.146447599 0.163880736 0.679145575
0.250858217 0.156137332 0.603527606
0.346686631 0.153889924 0.505588055
0.443538785 0.148601994 0.444266558
0.572048903 0.133359551 0.405396461
0.739141941 0.107502997 0.376163363
0.895039201 0.085866727 0.354174048
0.000000000 0.260929942 0.583600640
0.097223654 0.241576955 0.609959960
0.217988059 0.225810826 0.606199563
0.339992136 0.218606159 0.530720353
0.453065544 0.215434521 0.456662834
0.593063235 0.202143684 0.416376799
0.766683459 0.178663388 0.390771985
0.925811648 0.160197809 0.372672170
0.000000000 0.353457302 0.462170064
0.051282376 0.339534730 0.496491581
0.170520753 0.325120509 0.533361495
0.310024619 0.309156358 0.539813578
0.454504192 0.300874740 0.469061017
0.601889372 0.291004628 0.423378378
0.781390846 0.270888716 0.402254224
0.945352733 0.256551623 0.388716102
0.000000000 0.463895470 0.356815279
0.009194181 0.453877032 0.389555752
0.121189632 0.444787741 0.424959213
0.257122427 0.432720721 0.461064190
0.427040637 0.414214462 0.479829758
0.601843715 0.403792530 0.426798433
0.788040638 0.389423639 0.411918342
0.959194005 0.382482916 0.405379355
0.000000000 0.605267704 0.227099970
0.006451614 0.598888397 0.264837801
0.049381450 0.594075084 0.305331767
0.197521195 0.586619496 0.349460572
0.364384115 0.577430129 0.394600958
0.594794869 0.554686487 0.425225765
0.790291905 0.549305022 0.420129031
0.970014989 0.550569832 0.421535254
0.000000000 0.761891663 0.132177949
0.006451614 0.764212906 0.177337363
0.016453359 0.768469691 0.227201134
0.164199129 0.768980503 0.282526165
0.342155784 0.765364349 0.346628368
0.568379045 0.749078393 0.406347543
0.781085610 0.744674385 0.393210918
0.977154493 0.741576135 0.404669762
0.000000000 0.939947128 0.093000285
0.006451614 0.947891295 0.149602756
0.017927293 0.955891371 0.210570991
0.173546970 0.957825482 0.276787430
0.348881721 0.954398155 0.347226322
0.555241108 0.940875530 0.400643110
0.770676315 0.926432848 0.411264300
0.952222049 0.926681936 0.369163334
0.053817838 0.094725184 0.979668856
0.166651919 0.084641606 0.931216240
0.257797390 0.082932964 0.841318190
0.350419998 0.082183853 0.731197536
0.453369886 0.077281356 0.629426479
0.584370971 0.061703719 0.553145528
0.733114719 0.039282035 0.498211056
0.878791273 0.016534440 0.465944737
0.004505943 0.170384616 0.934555292
0.123266898 0.152481243 0.913453460
0.230096474 0.142950505 0.849924922
0.335609227 0.139025986 0.742477000
0.446105033 0.135244966 0.631043851
0.582795143 0.122203425 0.552434802
0.738587260 0.102377407 0.501951814
0.891757786 0.082356788 0.476708293
0.000000000 0.248707980 0.839756966
0.074159950 0.229823068 0.858861864
0.195812315 0.214878589 0.849821270
0.322346181 0.206498742 0.779313922
0.452948004 0.202547014 0.665322781
0.605536878 0.190810069 0.575702846
0.766501844 0.174061522 0.526290476
0.923388124 0.156958804 0.506369770
0.000000000 0.345898122 0.698076606
0.025447566 0.330177456 0.747116327
0.148408711 0.314855427 0.786303103
0.288751572 0.299931377 0.784101963
0.445363462 0.290296644 0.697784364
0.616145372 0.280103624 0.591226697
0.781998336 0.267752618 0.540925026
0.944304049 0.254631639 0.526698887
0.000000000 0.464946628 0.529949725
0.006451614 0.452769876 0.585012078
0.093867630 0.441312581 0.645169556
0.235822842 0.426457554 0.696354330
0.406564116 0.409453690 0.706796288
0.615130484 0.394574851 0.607060850
0.790462434 0.389167190 0.549156249
0.960832536 0.383855015 0.542758524
0.000000000 0.615299106 0.355959505
0.006451614 0.608097732 0.405544728
0.020001613 0.602502823 0.462705284
0.165017843 0.593264759 0.524484694
0.334084600 0.583165407 0.590284586
0.572398603 0.558754086 0.624334455
0.794984639 0.552863300 0.554723859
0.974182546 0.554943502 0.555961430
0.000000000 0.779127598 0.239449531
0.006451614 0.782121897 0.288850218
0.012903227 0.787523627 0.343143612
0.120119818 0.789024055 0.399058729
0.288594812 0.789300680 0.458200574
0.491744369 0.780770361 0.512261629
0.783602357 0.747929752 0.544959903
0.964907587 0.749654770 0.547121048
0.000000000 0.963548541 0.182937756
0.006451614 0.972494245 0.238115996
0.012903227 0.981763899 0.295726180
0.121739194 0.984517992 0.354048640
0.291538417 0.983050525 0.415071368
0.490243524 0.970078945 0.475591838
0.761953473 0.934599161 0.526086628
0.953834236 0.929135382 0.504859090
0.032782633 0.085361749 0.995161295
0.146598071 0.074373752 0.995161295
0.241845116 0.070692204 0.995161295
0.340752006 0.067622304 0.954897463
0.451347023 0.060936354 0.850178301
0.590854406 0.044750776 0.756244659
0.739259183 0.024784977 0.680399776
0.875178993 0.007581918 0.627677917
0.000000000 0.160075903 0.995161295
0.101430729 0.142598778 0.995161295
0.210563242 0.132242665 0.995161295
0.321609318 0.126218021 0.969210029
0.441796660 0.119893357 0.860064924
0.590825379 0.105662376 0.762658715
0.747551918 0.088457741 0.690021992
0.889638186 0.074217483 0.644127727
0.000000000 0.238548279 0.995161295
0.053541880 0.220379859 0.995161295
0.175974593 0.206223875 0.995161295
0.304253787 0.196979359 0.991788805
0.444453746 0.189492062 0.900646985
0.614032686 0.174837336 0.795470715
0.776143432 0.160619527 0.722123325
0.921781600 0.149583191 0.680497646
0.000000000 0.337014645 0.941846907
0.008271568 0.321406603 0.981023371
0.128876954 0.306652516 0.992969990
0.269562602 0.292749196 0.992246211
0.428754121 0.281372905 0.934615910
0.621182561 0.265858293 0.822931528
0.793357015 0.255167156 0.742067456
0.943877935 0.249078512 0.702944517
0.000000000 0.458712190 0.783545315
0.006451614 0.445901155 0.840121031
0.069199905 0.434259117 0.895421267
0.216769218 0.419461191 0.936167657
0.386361301 0.404350251 0.938234329
0.607787251 0.385352433 0.853995740
0.804966331 0.378418237 0.758114934
0.962689519 0.381866395 0.719943285
0.000000000 0.616787136 0.568422854
0.006451614 0.607937217 0.639432490
0.012903227 0.601162791 0.712697804
0.137230545 0.590941250 0.781723320
0.312767178 0.579924345 0.846801162
0.547854185 0.559309840 0.869257569
0.810907960 0.543891907 0.779713094
0.977203548 0.555603504 0.730787992
0.000000000 0.789781570 0.399652302
0.006451614 0.791855156 0.468908250
0.012903227 0.796002924 0.544897318
0.085313804 0.796229601 0.618442595
0.254333258 0.795334518 0.692236841
0.450894564 0.787313581 0.762296736
0.757465482 0.750354767 0.788417518
0.966670990 0.750383198 0.717789531
0.000000000 0.982081950 0.304877609
0.006451614 0.990283549 0.368442088
0.012903227 0.991144896 0.436034173
0.076862149 0.991471827 0.502080858
0.242495880 0.991501212 0.566572368
0.420736820 0.991017222 0.626717925
0.666389108 0.965470314 0.668321848
0.951404333 0.927180946 0.700069606
