Desert Affinity Presets/Desert Affinity Preset #1.cube
TITLE "32x32x32 Adobe/IRIDAS cube 3D LUT exported with GrossGrade v0.1.027.1 (beta) 64 bit"
DOMAIN_MIN 0 0 0
DOMAIN_MAX 1 1 1
LUT_3D_SIZE 32
0.002087435 0.001710532 0.002957198
0.028613443 0.006416149 0.006500320
0.054543309 0.011288681 0.009903621
0.079081543 0.015371403 0.012716366
0.103074379 0.019022567 0.015316301
0.127440616 0.021779632 0.017450018
0.153343558 0.024180392 0.019425185
0.181942046 0.026248680 0.021163357
0.214043200 0.027584173 0.022502575
0.249604240 0.027337261 0.022819178
0.288673759 0.024992587 0.022209402
0.327213675 0.020292148 0.020905204
0.365934819 0.014564827 0.018870121
0.402551383 0.009318156 0.016185559
0.434723258 0.006478811 0.013004854
0.464363962 0.005724079 0.009310686
0.493255466 0.006464779 0.005263015
0.523353994 0.006514814 0.001879351
0.558101237 0.003303235 0.000285713
0.595088840 0.000702825 0.000000000
0.631718218 0.000108019 0.000000000
0.667955220 0.000000000 0.000000000
0.702998936 0.000000000 0.000000000
0.736600280 0.000000000 0.000000000
0.770056129 0.000000000 0.000000000
0.803399384 0.000000000 0.000000000
0.836447120 0.000000000 0.000717321
0.869716704 0.000000000 0.007407957
0.903404176 0.000000000 0.025308229
0.935869515 0.014672834 0.051396020
0.962002099 0.076582246 0.082109027
0.973268926 0.155122653 0.137161955
0.008762637 0.024131360 0.008986631
0.026415186 0.025773149 0.011670767
0.048647616 0.029097930 0.013852180
0.072188847 0.031449582 0.015314828
0.095919468 0.033141855 0.016497457
0.119602598 0.034911301 0.018041039
0.144058987 0.036361404 0.019761387
0.170972034 0.038352460 0.021308718
0.201626986 0.039825462 0.022551658
0.235519722 0.040356245 0.023172166
0.273319781 0.038613454 0.022892069
0.312756538 0.034794439 0.021738952
0.351260900 0.029067522 0.019741803
0.388560355 0.022624714 0.017011838
0.423414171 0.017419711 0.013826896
0.454659045 0.014724855 0.010201955
0.484579563 0.013799424 0.006264175
0.514583111 0.013164853 0.002534480
0.548544407 0.009560494 0.000536822
0.585587800 0.004961962 0.000067336
0.622748554 0.002477523 0.000000000
0.659419954 0.001669485 0.000000000
0.695194006 0.001612904 0.000000000
0.729282498 0.001612904 0.000000000
0.762878478 0.001612904 0.000000000
0.796592116 0.001612904 0.000000000
0.829943717 0.001612904 0.000140284
0.863551617 0.001612904 0.005738573
0.897404313 0.001635817 0.020730266
0.931171656 0.006192719 0.046468254
0.959296525 0.066170394 0.075135879
0.972161293 0.144020975 0.127167821
0.015360668 0.045747951 0.014436196
0.029905496 0.045866214 0.017514022
0.048890289 0.048044402 0.018977677
0.071133912 0.049578596 0.019502800
0.094199114 0.050322141 0.019998463
0.117642045 0.051220402 0.020242600
0.140172049 0.052452154 0.021466844
0.164944783 0.053894710 0.022935141
0.193440482 0.055690322 0.024172455
0.225257963 0.056682158 0.024894908
0.260273546 0.055948015 0.024397379
0.298678935 0.052957170 0.022615286
0.336801201 0.047781602 0.020208931
0.374072373 0.041511346 0.017495394
0.409438729 0.035439815 0.014255735
0.442333430 0.030992784 0.010818271
0.474111408 0.028081421 0.007052106
0.504770517 0.026477540 0.003065693
0.537989497 0.022811411 0.000686460
0.575130761 0.016481761 0.000117839
0.612801850 0.010730102 0.000000000
0.650136888 0.005434363 0.000000000
0.686460912 0.003278648 0.000000000
0.721054792 0.003226742 0.000000000
0.755011678 0.003225807 0.000000000
0.788885534 0.003225807 0.000000000
0.822589397 0.003225807 0.000000000
0.856490016 0.003225807 0.003882141
0.890519738 0.003887950 0.016123381
0.924766600 0.006845144 0.040978447
0.954492450 0.056686293 0.069364622
0.971068382 0.131166548 0.116023965
0.020165894 0.065185823 0.018532084
0.032744873 0.064907126 0.022034027
0.050024718 0.066799134 0.023566855
0.071407504 0.069311120 0.023891414
0.093575813 0.070691071 0.024447843
0.118587971 0.072341301 0.023663692
0.142822102 0.073847026 0.023651028
0.167195335 0.075507060 0.024722792
0.194069475 0.077441551 0.025765104
0.224142313 0.078882307 0.026487611
0.257394433 0.079243302 0.026300982
0.292001605 0.077676341 0.024612904
0.326607615 0.074236572 0.021663681
0.361586630 0.069519244 0.018114969
0.395502150 0.064401649 0.014263663
0.428605765 0.059501503 0.010676141
0.461440474 0.055056378 0.007048836
0.494650334 0.051349569 0.003372446
0.529292285 0.046743561 0.000882857
0.566152751 0.039820541 0.000112227
0.604175568 0.031275805 0.000000000
0.641930759 0.019881906 0.000000000
0.678926826 0.008733487 0.000000000
0.714198172 0.004917736 0.000000000
0.748565912 0.004841985 0.000000000
0.782768726 0.004838713 0.000000000
0.816767573 0.004838713 0.000000000
0.850998223 0.004838713 0.002428323
0.885334611 0.005811815 0.012544666
0.920355201 0.013556913 0.036992956
0.951121509 0.055235397 0.065481476
0.970471144 0.125623912 0.108243458
0.024858883 0.083614193 0.022020496
0.035970435 0.083253711 0.025710426
0.051571567 0.084864646 0.027523838
0.073007174 0.087846130 0.027923163
0.094246387 0.090818204 0.028722819
0.118512772 0.093695961 0.028233176
0.144301221 0.095572151 0.027254026
0.171075985 0.097515516 0.026619447
0.198559538 0.099571019 0.026806481
0.227154851 0.101016060 0.027113270
0.258622050 0.101602413 0.026761616
0.291113168 0.100775220 0.025175929
0.322989881 0.098452076 0.022359002
0.355977684 0.095319055 0.018923959
0.388553441 0.091728702 0.015163361
0.421062529 0.088193066 0.011158681
0.453595668 0.084764533 0.006869737
0.487128615 0.081468359 0.003145183
0.523111522 0.077512324 0.000711709
0.560614467 0.072041653 0.000029927
0.598190725 0.065294884 0.000000000
0.635700285 0.051936578 0.000000000
0.673199713 0.030980881 0.000000000
0.709610343 0.012835978 0.000000000
0.744279683 0.008401100 0.000000000
0.778994083 0.008146253 0.000000000
0.813445985 0.008314592 0.000000000
0.847704291 0.008574585 0.001483744
0.882194042 0.009932534 0.009889558
0.918392420 0.034101613 0.034403324
0.949871421 0.067990713 0.063301936
0.970562816 0.131050780 0.104485750
0.027557014 0.102947816 0.024663392
0.038833700 0.102628022 0.028011084
0.054291692 0.103978492 0.030166756
0.074652731 0.106898591 0.031261969
0.095927961 0.110495232 0.032257002
0.119470805 0.114867069 0.032668561
0.145058945 0.118192002 0.032105014
0.173277974 0.120695561 0.030182226
0.202840880 0.123022363 0.028066291
0.231720850 0.124402680 0.027374683
0.261604428 0.124566168 0.026199086
0.292051077 0.123719171 0.024285143
0.321907043 0.121886775 0.021469152
0.353132665 0.119973533 0.018250074
0.384950191 0.117696814 0.014787410
0.417171150 0.115287282 0.011102595
0.449399620 0.112738453 0.006996930
0.483056456 0.110505134 0.003579132
0.519712508 0.107874699 0.001054005
0.558552802 0.103793822 0.000090250
0.596609294 0.098190762 0.000005144
0.633672059 0.087367885 0.000000000
0.670521438 0.069323055 0.000000000
0.707815230 0.043717381 0.000000000
0.743442655 0.029839009 0.000000000
0.778323412 0.027065141 0.000000000
0.813090742 0.028116325 0.000000000
0.847622633 0.030778453 0.001102172
0.882301509 0.034207456 0.008449335
0.918848336 0.060429841 0.033340938
0.950566828 0.096557796 0.062514946
0.971399188 0.148079410 0.103858843
0.029534124 0.123145692 0.027752519
0.040569890 0.122882269 0.030918743
0.056874815 0.124128520 0.032961268
0.076564796 0.126883447 0.034293465
0.097819902 0.130890995 0.035608929
0.120927021 0.136008993 0.036492653
0.146014825 0.141060159 0.036886401
0.174444392 0.144945309 0.035382073
0.205171496 0.147659242 0.031730011
0.235202983 0.148660704 0.027407400
0.264928162 0.148618460 0.024922501
0.294313788 0.147321448 0.022343626
0.323469937 0.145749167 0.019392943
0.353554189 0.144433394 0.016289875
0.384632707 0.143196180 0.013156818
0.416295946 0.141961724 0.009901738
0.448324353 0.140571788 0.006237521
0.482580394 0.139279872 0.003164824
0.520102441 0.137602121 0.001109184
0.559856415 0.134792626 0.000196866
0.598369062 0.130047977 0.000036006
0.635199249 0.121382535 0.000000000
0.671668053 0.108014479 0.000000000
0.708452880 0.091068588 0.000000000
0.745106936 0.074775063 0.000000000
0.781036973 0.068214826 0.000000000
0.815923333 0.069381088 0.000000000
0.850513518 0.075071588 0.001275187
0.885360241 0.086289711 0.007929347
0.921815872 0.106035069 0.033519551
0.952966332 0.132671043 0.063016728
0.972900093 0.173839211 0.105269678
0.029369958 0.145413831 0.030795267
0.040872432 0.145328760 0.033771656
0.059209149 0.146320015 0.035340045
0.079303585 0.148800328 0.036601160
0.099968970 0.153216556 0.038148053
0.122752160 0.158824980 0.039724849
0.147430688 0.164251193 0.040656336
0.175118044 0.169904649 0.040540807
0.204999477 0.173666447 0.037856694
0.235554680 0.174111426 0.030424433
0.266534775 0.173752695 0.023430798
0.295911908 0.172425672 0.019771736
0.325639397 0.170948103 0.016516643
0.355871290 0.169927299 0.013298973
0.386688083 0.169232756 0.010213687
0.417586029 0.168693706 0.007338311
0.449656367 0.168215543 0.004581228
0.484738916 0.167932048 0.002166932
0.523061216 0.167023078 0.000683652
0.563270092 0.164500058 0.000072948
0.602131248 0.159997374 0.000005144
0.639114082 0.152950957 0.000000000
0.675325334 0.143381894 0.000000000
0.711777747 0.132750273 0.000000000
0.748405874 0.123617530 0.000000000
0.785042822 0.120062530 0.000000000
0.820469439 0.121032417 0.000000000
0.854853630 0.125694871 0.001700714
0.889728248 0.134637624 0.008766844
0.925796568 0.149237081 0.034870930
0.956449091 0.169203550 0.064403214
0.974934101 0.203931272 0.108226292
0.027581802 0.169726461 0.033589762
0.039228760 0.169846237 0.036306098
0.059785251 0.170578092 0.037676219
0.080846280 0.172914267 0.038721319
0.101981595 0.177478671 0.040590852
0.124254346 0.183219120 0.042512279
0.147927016 0.188673109 0.044093270
0.174533695 0.194016308 0.044297650
0.203134835 0.198721126 0.042867683
0.232636839 0.200264305 0.037055209
0.264844835 0.199879155 0.026427286
0.296710908 0.199249864 0.017717946
0.327274650 0.198210120 0.013629134
0.358144611 0.197617337 0.010185591
0.389689565 0.197179720 0.007007682
0.420477957 0.197125286 0.004210878
0.452571750 0.196897283 0.002280561
0.488442808 0.196524575 0.001206447
0.527128994 0.196118787 0.000424595
0.567396462 0.194299161 0.000108486
0.607002139 0.190733910 0.000026186
0.643934369 0.185066462 0.000007482
0.679862738 0.177704379 0.000000000
0.716071963 0.171357512 0.000000000
0.752486944 0.166883335 0.000000000
0.789088428 0.165980428 0.000000000
0.824991703 0.167860195 0.000000000
0.859818220 0.172340825 0.001741867
0.894880474 0.179992676 0.010001812
0.930446446 0.191766247 0.036646981
0.960771024 0.207911000 0.066186242
0.977238655 0.236735567 0.111585490
0.027242778 0.195555761 0.035698228
0.038470317 0.196006268 0.038137767
0.059983980 0.196817994 0.039246008
0.081634238 0.199022174 0.040249493
0.102690585 0.203622013 0.042163916
0.125199735 0.209210411 0.044009168
0.148454785 0.214963794 0.045585964
0.172918111 0.219513103 0.046293862
0.199777678 0.223693103 0.045755167
0.228522062 0.226116851 0.042000268
0.259593904 0.227383360 0.034440305
0.294240296 0.227704197 0.020547470
0.328002006 0.227710560 0.010715878
0.359736323 0.227325812 0.007584249
0.392222583 0.227380782 0.004883306
0.424509555 0.227323145 0.002864141
0.457240909 0.227088526 0.001436045
0.492858052 0.226280868 0.000955338
0.530659139 0.225407198 0.000676639
0.570797205 0.224147260 0.000423192
0.610898077 0.221617281 0.000199204
0.648510218 0.217736140 0.000073416
0.684568346 0.212400928 0.000021043
0.720832527 0.209105134 0.000000000
0.757284522 0.207849205 0.000008417
0.793652058 0.208564922 0.000021043
0.829850912 0.211554438 0.000096796
0.865385413 0.216460198 0.001317274
0.900671959 0.223709702 0.010890244
0.935817063 0.233743772 0.038402386
0.965421557 0.247043699 0.067729838
0.979726732 0.272418916 0.115447119
0.025520120 0.224009410 0.037318952
0.037149791 0.224530250 0.039387230
0.058835536 0.225424021 0.040372919
0.080650382 0.227412820 0.041061278
0.101278357 0.231247336 0.042693239
0.123181343 0.236060560 0.044087250
0.146623015 0.241371885 0.045478404
0.170964226 0.246071756 0.046247602
0.196505129 0.249992102 0.046484664
0.224164665 0.252661377 0.045115493
0.255179733 0.254729182 0.040154092
0.288734525 0.256811768 0.030766733
0.325360745 0.257901520 0.014912700
0.360561252 0.258432031 0.005103087
0.394526213 0.258662194 0.003595492
0.428819805 0.258875757 0.002346023
0.463629633 0.258711129 0.001730645
0.499540895 0.257952809 0.001166703
0.536355257 0.256647378 0.000777645
0.574916840 0.255366504 0.000522326
0.614558995 0.253410995 0.000284778
0.653002203 0.250748932 0.000120177
0.689700246 0.247393355 0.000046294
0.726385057 0.246566445 0.000011223
0.763147473 0.247623459 0.000013093
0.799453139 0.249764383 0.000124853
0.835848331 0.253697962 0.000651387
0.871889055 0.259113550 0.001568849
0.907218933 0.266158670 0.013077754
0.941786110 0.274952680 0.040752612
0.970612049 0.286461651 0.070357338
0.982267737 0.309194803 0.120747015
0.025160514 0.253816158 0.037957240
0.035466354 0.254531682 0.039671090
0.056072861 0.255245775 0.040466920
0.076961800 0.256987184 0.040915400
0.097460732 0.259637594 0.041989021
0.119225793 0.263091981 0.042762015
0.142666250 0.267985255 0.043890849
0.167469800 0.273027509 0.044962596
0.193839833 0.277479410 0.045703303
0.221365780 0.280438781 0.045445185
0.251252890 0.282791048 0.044025499
0.284192681 0.285131484 0.038277104
0.319658250 0.288161010 0.027415823
0.357930601 0.289588064 0.011687105
0.396084607 0.290744424 0.003436503
0.433765769 0.291681916 0.001832117
0.470146924 0.291829050 0.001200835
0.506418407 0.291234553 0.000823940
0.543348789 0.290020853 0.000411502
0.581403434 0.288448155 0.000171615
0.619989216 0.286387891 0.000036006
0.657918036 0.284620821 0.000000000
0.695137322 0.283383697 0.000000000
0.732415736 0.284461260 0.000000000
0.769693315 0.287140816 0.000000000
0.806480169 0.290600330 0.000117838
0.842868447 0.295018494 0.001669382
0.878619432 0.300576270 0.002372214
0.914201677 0.307522088 0.017074021
0.947951913 0.315785378 0.043458704
0.975644112 0.326317161 0.074937180
0.984932423 0.346598029 0.127734080
0.024019560 0.284022808 0.037828162
0.034143485 0.284802377 0.039065491
0.052550767 0.285224348 0.039380208
0.071255937 0.286514819 0.039586872
0.091894224 0.288772196 0.040627360
0.114515543 0.292062849 0.041400332
0.138138488 0.296296030 0.042119522
0.163663760 0.301105022 0.043264680
0.190450832 0.305675298 0.044392109
0.218610659 0.309038132 0.044753600
0.248687252 0.311737567 0.044424839
0.280333132 0.314001888 0.043324545
0.315237314 0.317079067 0.037210938
0.353556484 0.321465194 0.024564296
0.395479828 0.323669553 0.010578876
0.437770844 0.325545520 0.002554114
0.476328582 0.326231986 0.000795881
0.513175726 0.325870395 0.000309562
0.550493836 0.324893296 0.000086976
0.588757873 0.323443055 0.000031330
0.627293706 0.321458757 0.000005144
0.665296316 0.320667922 0.000000000
0.702028990 0.321020603 0.000000000
0.739153147 0.323352516 0.000000000
0.776474953 0.326737970 0.000000000
0.813513994 0.331067264 0.000000000
0.849796832 0.335911900 0.001969591
0.885667086 0.341676414 0.003617939
0.921421349 0.348612159 0.020826168
0.954891205 0.356254995 0.046265367
0.980788469 0.366298437 0.080211371
0.987616658 0.384632200 0.135840476
0.019818004 0.312860370 0.036954198
0.029167164 0.313902855 0.037301626
0.045062874 0.314469010 0.036918219
0.063347653 0.315939605 0.036718551
0.085392520 0.317966044 0.037998904
0.108329959 0.321277499 0.038869604
0.132461458 0.325506806 0.039947916
0.158531949 0.329955637 0.041405458
0.186264947 0.334163934 0.042797051
0.215240732 0.337945521 0.043410119
0.245861501 0.341379881 0.043502707
0.278436333 0.344552338 0.043096829
0.312823445 0.347365528 0.042452436
0.350963384 0.351565480 0.036027890
0.393403620 0.357499570 0.020973025
0.439386249 0.360779911 0.006001378
0.481540769 0.361611158 0.001162492
0.519315600 0.361472070 0.000098199
0.557273865 0.360861063 0.000000000
0.595986664 0.359820336 0.000000000
0.635052323 0.358361542 0.000000000
0.673797309 0.358827978 0.000000000
0.710848927 0.360424727 0.000000000
0.747049391 0.362963289 0.000000000
0.783479393 0.366526306 0.000000000
0.819939911 0.371029437 0.000000000
0.856193483 0.376314461 0.001100297
0.892130315 0.382143706 0.005280311
0.927920103 0.388901353 0.023891378
0.961682796 0.395851284 0.049685936
0.984881103 0.405380845 0.086986668
0.989992559 0.422211617 0.145799011
0.014329132 0.340160668 0.036241561
0.022308156 0.342110276 0.035794072
0.034374125 0.343941510 0.034787778
0.053579163 0.346051693 0.034014326
0.078799143 0.347861260 0.034963157
0.103254572 0.350757152 0.036043327
0.126314417 0.354934126 0.037393812
0.152418956 0.358940661 0.039453179
0.181059390 0.363121957 0.040773202
0.211571589 0.366994977 0.041603684
0.243378550 0.371125281 0.042098008
0.276964396 0.375225037 0.042343471
0.313099772 0.379826754 0.042141020
0.351374179 0.383753896 0.042156439
0.392752051 0.388757527 0.034729779
0.437663615 0.395116121 0.018664367
0.482883543 0.397502184 0.004983841
0.524346292 0.397476852 0.000333878
0.563444436 0.396923363 0.000000000
0.602674484 0.396883994 0.000000000
0.642665505 0.397032768 0.000000000
0.682360232 0.398332775 0.000000000
0.719930053 0.400718242 0.000000000
0.755819321 0.403238595 0.000000000
0.791305125 0.406340927 0.000000000
0.826591969 0.410443217 0.000000000
0.861828566 0.415472895 0.000224455
0.897605181 0.421300709 0.006237053
0.933109760 0.427719235 0.024118662
0.967058659 0.434234768 0.052139040
0.986736178 0.443656474 0.094209552
0.991888225 0.458929479 0.157457903
0.007224204 0.366203934 0.035937145
0.011377631 0.369020432 0.035562605
0.018408336 0.372305095 0.034619905
0.039948657 0.375062644 0.033112757
0.070248783 0.377254874 0.032710645
0.098606005 0.380192131 0.033117004
0.120914511 0.383813590 0.035543907
0.146107212 0.387947619 0.037908662
0.175133064 0.392227381 0.039629452
0.207627192 0.396570265 0.040458038
0.241806582 0.401710391 0.041140754
0.277123481 0.406741291 0.041851569
0.314323992 0.412257671 0.042094715
0.353392303 0.417643487 0.041344188
0.394044191 0.422027290 0.041133769
0.436942339 0.427349091 0.033250686
0.481754184 0.432705849 0.017140903
0.525578082 0.434071034 0.006381552
0.568288326 0.433974266 0.000059387
0.609343231 0.434643507 0.000000000
0.650060236 0.436336786 0.000000000
0.690883458 0.438841194 0.000000000
0.728564680 0.441347271 0.000000000
0.764334857 0.443830937 0.000000000
0.799379170 0.446746528 0.000000000
0.833982468 0.450158805 0.000000000
0.868023396 0.454357862 0.000000000
0.902416646 0.459366560 0.006290364
0.937177062 0.465250671 0.020868275
0.971047461 0.471516669 0.053036857
0.987827957 0.480790466 0.099782683
0.993567467 0.494636863 0.167915374
0.001395835 0.395013094 0.035548080
0.002623421 0.398777962 0.035459250
0.006482281 0.402913719 0.034972455
0.030695019 0.405364633 0.032799460
0.062845528 0.407485574 0.031489201
0.093489319 0.410498738 0.031327438
0.116617873 0.413658142 0.034458097
0.141319111 0.417922944 0.037147846
0.170483097 0.422742575 0.039158102
0.204962775 0.427459955 0.040208809
0.241752148 0.433355153 0.041055668
0.278529644 0.439406753 0.041516718
0.316762745 0.445299655 0.042132128
0.356273711 0.451129705 0.041666389
0.397096813 0.456517279 0.039590634
0.438816756 0.461365759 0.038191076
0.481254011 0.466363788 0.031103417
0.525435448 0.470670134 0.014504023
0.570000947 0.472451657 0.003591756
0.614348173 0.473632485 0.000095393
0.657073796 0.475979298 0.000000000
0.698624074 0.478793889 0.000000000
0.736646831 0.481579751 0.000000000
0.772164345 0.484177351 0.000000000
0.807022810 0.487061441 0.000000000
0.841374397 0.490140259 0.000000000
0.874816954 0.493583173 0.000000000
0.907571554 0.497172862 0.003537045
0.940688789 0.501789272 0.016604094
0.973114192 0.507998705 0.052429885
0.988566101 0.517047107 0.103206299
0.994756997 0.529880524 0.178771600
0.000000000 0.428138971 0.034486126
0.001696606 0.432376295 0.034317803
0.005971167 0.436921448 0.033826787
0.030018380 0.439767897 0.031641167
0.059927635 0.441890776 0.030409483
0.088655613 0.443848014 0.031018324
0.114410289 0.445826560 0.034175660
0.140650719 0.449689984 0.036759712
0.169350684 0.454764694 0.038712461
0.204642713 0.459887624 0.039785635
0.242936224 0.465836316 0.040407561
0.281080365 0.472235650 0.040812548
0.319637746 0.478498936 0.040945332
0.359632999 0.484514207 0.040878009
0.400784463 0.490153968 0.039189890
0.442659706 0.495594800 0.036916342
0.484266222 0.500902712 0.035363857
0.525854230 0.506047964 0.028224314
0.570891440 0.510989130 0.011005281
0.616994321 0.514001369 0.000785593
0.662090123 0.516254902 0.000046294
0.704898357 0.518855453 0.000000000
0.744090080 0.521477461 0.000000000
0.779718757 0.524280548 0.000000000
0.814154208 0.527211428 0.000000000
0.848042488 0.530121684 0.000000000
0.881063521 0.532819629 0.000000000
0.912910938 0.535294116 0.000662613
0.944668889 0.538610280 0.014079406
0.974343240 0.543931484 0.048780601
0.989456713 0.552480042 0.102826260
0.995408893 0.564740062 0.190662161
0.000000000 0.462848604 0.033136580
0.001788259 0.467038721 0.032915909
0.008646865 0.471166611 0.032030225
0.030407907 0.474728435 0.030356620
0.057338905 0.477684498 0.029674422
0.087307014 0.478811800 0.030898139
0.116449110 0.479833990 0.033769757
0.143121183 0.482867271 0.036139645
0.171048239 0.487318844 0.038011983
0.205448866 0.492542326 0.038870055
0.244478658 0.498439163 0.039312422
0.283741951 0.504921198 0.039352182
0.323421806 0.511493564 0.039118841
0.363577664 0.517793596 0.038912173
0.404865026 0.523641288 0.037917070
0.446981430 0.529419780 0.036526803
0.489091665 0.535849512 0.036414154
0.530192375 0.542139947 0.035617765
0.572321951 0.548325598 0.027969923
0.618362665 0.553637564 0.010361372
0.664610267 0.556969166 0.002020098
0.709558845 0.559307098 0.000185175
0.750175238 0.561672091 0.000000000
0.786845386 0.564191997 0.000000000
0.820993781 0.567033231 0.000000000
0.854032040 0.569663346 0.000597611
0.886271358 0.571803629 0.001228893
0.917828560 0.573799133 0.002217895
0.949139714 0.576321840 0.015551435
0.976183951 0.580386341 0.046156321
0.990920365 0.587664008 0.100280091
0.995945454 0.598996043 0.202687159
0.000000000 0.495807111 0.031340044
0.001824732 0.499871343 0.031031413
0.010169424 0.503849804 0.029920334
0.028968133 0.507717490 0.029144548
0.053451121 0.511128902 0.029039852
0.087392144 0.512285709 0.030465569
0.120449163 0.513768196 0.032883152
0.147995293 0.516668022 0.035152029
0.175106436 0.520461261 0.036631599
0.207702637 0.525359809 0.037325513
0.246968389 0.531182468 0.037266571
0.287337869 0.537640810 0.037210017
0.327534854 0.544395030 0.036938805
0.368387699 0.551056147 0.036671314
0.410005838 0.557826221 0.036794785
0.452606291 0.564602196 0.036181752
0.494664043 0.571485460 0.036946740
0.535721481 0.578544319 0.039539691
0.576828480 0.585180283 0.038949553
0.620074391 0.591473699 0.030110693
0.665797234 0.596266150 0.014407661
0.711567760 0.599707007 0.004449833
0.755116642 0.601946354 0.000616785
0.792622566 0.603897095 0.000000000
0.826947272 0.605873466 0.000000000
0.859431863 0.608088851 0.001523019
0.891042292 0.609935343 0.004135592
0.922251403 0.611776650 0.006232376
0.953418851 0.614111483 0.022118650
0.978084505 0.617296696 0.049600359
0.991913974 0.622982502 0.101978928
0.996238530 0.633025944 0.216223985
0.000168341 0.527794778 0.028953329
0.001992138 0.531848669 0.028608210
0.009773822 0.536125064 0.027677678
0.023383388 0.540429115 0.028311742
0.046143230 0.543946981 0.028736820
0.087163478 0.545502901 0.030030698
0.124483906 0.547880590 0.031645849
0.153768688 0.551038563 0.033458807
0.180669144 0.554463148 0.034454372
0.211788222 0.559035063 0.034601215
0.250956684 0.564457893 0.034699395
0.292069167 0.570817113 0.034746137
0.332695127 0.577787280 0.034770921
0.373942554 0.585161567 0.034875695
0.415854931 0.592756867 0.035620127
0.458915353 0.600736022 0.036321566
0.501164019 0.608119249 0.037960552
0.541944146 0.615246773 0.041166026
0.582269669 0.621782660 0.046058223
0.623638570 0.628027916 0.045619119
0.667601407 0.633916914 0.035190824
0.712950885 0.638576090 0.021153960
