Desert Affinity Presets/Desert Affinity Preset #17.cube
TITLE "32x32x32 Adobe/IRIDAS cube 3D LUT exported with GrossGrade v0.1.027.1 (beta) 64 bit"
DOMAIN_MIN 0 0 0
DOMAIN_MAX 1 1 1
LUT_3D_SIZE 32
0.137741446 0.062550567 0.000000000
0.144913748 0.065546572 0.000000000
0.153304935 0.068642162 0.000000000
0.162678435 0.071664825 0.000000000
0.173016757 0.074206777 0.000000000
0.184633791 0.076353580 0.000000000
0.197738484 0.078038916 0.000000000
0.212631077 0.079196244 0.000000000
0.229633987 0.079828441 0.000000000
0.249058291 0.079872906 0.000000000
0.271013260 0.079056397 0.000000000
0.296013236 0.077386066 0.000000000
0.324343920 0.074801110 0.000000000
0.355776042 0.071388006 0.000000000
0.390119523 0.067256182 0.000000000
0.427219212 0.062351365 0.000000000
0.466697752 0.056710057 0.000000000
0.508268595 0.050499182 0.000000000
0.551485121 0.043847822 0.000000000
0.596048117 0.036959387 0.000000000
0.641302228 0.029838551 0.000000000
0.686609983 0.022640515 0.000000000
0.731650531 0.015509379 0.000000000
0.776142240 0.008541455 0.000000000
0.820080161 0.001819028 0.000000000
0.863645256 0.000070143 0.000000000
0.906898558 0.000000000 0.000000000
0.950057685 0.000000000 0.000000000
0.991454959 0.000000000 0.000000000
0.996774197 0.000000000 0.000000000
0.998387098 0.000000000 0.000000000
1.000000000 0.000000000 0.000000000
0.158453256 0.076332211 0.000000000
0.155434996 0.083436161 0.000000000
0.165585071 0.087039165 0.000000000
0.178510055 0.088900767 0.000000000
0.191521510 0.090607971 0.000000000
0.205447584 0.092044987 0.000000000
0.220741004 0.093129866 0.000000000
0.237835631 0.093826130 0.000000000
0.256786197 0.093825221 0.000000000
0.278005183 0.093195818 0.000000000
0.301773369 0.091880366 0.000000000
0.328428119 0.089775659 0.000000000
0.358379453 0.086835787 0.000000000
0.391340315 0.083121017 0.000000000
0.426941663 0.078564584 0.000000000
0.465112031 0.073320791 0.000000000
0.505542934 0.067467630 0.000000000
0.547896266 0.061120227 0.000000000
0.591777742 0.054445494 0.000000000
0.636686444 0.047462087 0.000000000
0.682087958 0.040281877 0.000000000
0.727449536 0.033142779 0.000000000
0.772375643 0.026139280 0.000000000
0.816610813 0.019377615 0.000000000
0.860133648 0.012886182 0.000000000
0.903031409 0.006519602 0.000000000
0.945542216 0.002489686 0.000000000
0.987067878 0.001779374 0.000000000
0.995022416 0.001612904 0.000000000
0.996774197 0.001612904 0.000000000
0.998387098 0.001612904 0.000000000
1.000000000 0.001612904 0.000000000
0.175697893 0.091677122 0.000000000
0.173271343 0.098493524 0.000000000
0.173419461 0.104767129 0.000000000
0.183200598 0.108550012 0.000000000
0.199593231 0.109873749 0.000000000
0.217209354 0.110477589 0.000000000
0.235704333 0.110856608 0.000000000
0.255316705 0.110752687 0.000000000
0.276525885 0.110180177 0.000000000
0.299756855 0.109047316 0.000000000
0.325313449 0.107268855 0.000000000
0.353650212 0.104792230 0.000000000
0.385039151 0.101564005 0.000000000
0.419124484 0.097476453 0.000000000
0.455743372 0.092712358 0.000000000
0.494746804 0.087318920 0.000000000
0.535825312 0.081360556 0.000000000
0.578701198 0.075022027 0.000000000
0.622869015 0.068347313 0.000000000
0.667855144 0.061377026 0.000000000
0.713227630 0.054315098 0.000000000
0.758397162 0.047339261 0.000000000
0.803080320 0.040631749 0.000000000
0.846868098 0.034145430 0.000000000
0.889718175 0.027880363 0.000000000
0.931870878 0.021808401 0.000000000
0.973112583 0.015919248 0.000000000
0.991814494 0.010182989 0.000000000
0.995161295 0.004808217 0.000000000
0.996774197 0.003991758 0.000000000
0.998387098 0.003678459 0.000000000
1.000000000 0.003374508 0.000000000
0.188579470 0.108200453 0.000000000
0.187552050 0.114575624 0.000000000
0.187866077 0.120589003 0.000000000
0.191224188 0.126083598 0.000000000
0.202281684 0.129608527 0.000000000
0.220488861 0.130957201 0.000000000
0.241644263 0.130879432 0.000000000
0.264253348 0.130152285 0.000000000
0.288187921 0.128979340 0.000000000
0.313766539 0.127337918 0.000000000
0.341403246 0.125193819 0.000000000
0.371402711 0.122313224 0.000000000
0.404105455 0.118669398 0.000000000
0.439350843 0.114331447 0.000000000
0.476947010 0.109399147 0.000000000
0.516765714 0.103943519 0.000000000
0.558490276 0.098001733 0.000000000
0.601675570 0.091583267 0.000000000
0.645983815 0.084871531 0.000000000
0.691034079 0.077986829 0.000000000
0.736347675 0.071091823 0.000000000
0.781380713 0.064401694 0.000000000
0.825646341 0.057873789 0.000000000
0.868888497 0.051595110 0.000000000
0.911151648 0.045637712 0.000000000
0.952658296 0.039961789 0.000000000
0.986847758 0.034486465 0.000000000
0.993548393 0.029228617 0.000000000
0.995161295 0.024016986 0.000000000
0.996774197 0.018966738 0.000000000
0.998387098 0.013999296 0.000000000
1.000000000 0.009202953 0.000000000
0.196887612 0.126117930 0.000000000
0.197486252 0.132094383 0.000000000
0.199290231 0.137743235 0.000000000
0.202607274 0.143095762 0.000000000
0.209341735 0.147820801 0.000000000
0.222377762 0.150865525 0.000000000
0.241860732 0.151920080 0.000000000
0.265607238 0.151477754 0.000000000
0.291710645 0.150084257 0.000000000
0.319645077 0.148116395 0.000000000
0.349293351 0.145512849 0.000000000
0.381080210 0.142248988 0.000000000
0.415325165 0.138328746 0.000000000
0.451857835 0.133776590 0.000000000
0.490486771 0.128701016 0.000000000
0.531100631 0.123152249 0.000000000
0.573345780 0.117086217 0.000000000
0.616951048 0.110684276 0.000000000
0.661517382 0.104060866 0.000000000
0.706652820 0.097279280 0.000000000
0.751959443 0.090588704 0.000000000
0.796778262 0.084069200 0.000000000
0.840713084 0.077758238 0.000000000
0.883547246 0.071757302 0.000000000
0.925281286 0.066125363 0.000000000
0.966238081 0.060883455 0.000000000
0.989080727 0.055836905 0.000000000
0.993548393 0.050933994 0.000000000
0.995161295 0.046166215 0.000000000
0.996774197 0.041556891 0.000000000
0.998387098 0.037124831 0.000000000
1.000000000 0.033027563 0.000000000
0.201111928 0.145468280 0.000000000
0.203379050 0.151055321 0.000000000
0.206876695 0.156341925 0.000000000
0.211438179 0.161355957 0.000000000
0.217823267 0.165911734 0.000000000
0.227632523 0.169826299 0.000000000
0.242884800 0.172355801 0.000000000
0.263963968 0.173153982 0.000000000
0.289795458 0.172532871 0.000000000
0.318684608 0.170648932 0.000000000
0.349889189 0.167930454 0.000000000
0.383332968 0.164480746 0.000000000
0.419104993 0.160365671 0.000000000
0.457014918 0.155703261 0.000000000
0.496744812 0.150488287 0.000000000
0.538162947 0.144770309 0.000000000
0.581056535 0.138652906 0.000000000
0.625160277 0.132265195 0.000000000
0.670114815 0.125768021 0.000000000
0.715505481 0.119194165 0.000000000
0.760769248 0.112595282 0.000000000
0.805403888 0.106190898 0.000000000
0.849111557 0.100113116 0.000000000
0.891671240 0.094467111 0.000000000
0.933083832 0.089279026 0.000000000
0.973434031 0.084317558 0.000000000
0.990312815 0.079591863 0.000000000
0.993548393 0.075105108 0.000000000
0.995161295 0.070854045 0.000000000
0.996774197 0.066717051 0.000000000
0.998387098 0.062768944 0.000000000
1.000000000 0.058822267 0.000000000
0.201841593 0.166216508 0.000000000
0.205922320 0.171447277 0.000000000
0.211008087 0.176290736 0.000000000
0.217021346 0.180864155 0.000000000
0.224374041 0.185109064 0.000000000
0.233692706 0.189044073 0.000000000
0.246387228 0.192324907 0.000000000
0.263977081 0.194398671 0.000000000
0.286736190 0.194883883 0.000000000
0.314220607 0.193879411 0.000000000
0.345451921 0.191683680 0.000000000
0.379703730 0.188445643 0.000000000
0.416611463 0.184391633 0.000000000
0.455617368 0.179640368 0.000000000
0.496368825 0.174338251 0.000000000
0.538722038 0.168626949 0.000000000
0.582409203 0.162556201 0.000000000
0.627109051 0.156231657 0.000000000
0.672465384 0.149798974 0.000000000
0.718076348 0.143294409 0.000000000
0.763491631 0.136897624 0.000000000
0.808174789 0.130761907 0.000000000
0.851769030 0.124928601 0.000000000
0.894196987 0.119609185 0.000000000
0.935341418 0.114693090 0.000000000
0.975469291 0.110087574 0.000000000
0.990715027 0.105726585 0.000000000
0.993548393 0.101549216 0.000000000
0.995161295 0.097644746 0.000000000
0.996774197 0.093814999 0.000000000
0.998387098 0.090024561 0.000000000
1.000000000 0.086326964 0.000000000
0.199787855 0.188181341 0.000000000
0.205488890 0.192898601 0.000000000
0.212224722 0.197359547 0.000000000
0.219770342 0.201630950 0.000000000
0.228328422 0.205626696 0.000000000
0.238336608 0.209307835 0.000000000
0.250402570 0.212716371 0.000000000
0.265681982 0.215362430 0.000000000
0.285412192 0.216899335 0.000000000
0.309988469 0.217080548 0.000000000
0.339225620 0.215855628 0.000000000
0.372722626 0.213419959 0.000000000
0.409624755 0.209765121 0.000000000
0.449142873 0.205239490 0.000000000
0.490610600 0.200085714 0.000000000
0.533736169 0.194476113 0.000000000
0.578194439 0.188545704 0.000000000
0.623525798 0.182372123 0.000000000
0.669296741 0.176020876 0.000000000
0.715232849 0.169638336 0.000000000
0.760939300 0.163430333 0.000000000
0.805910230 0.157596037 0.000000000
0.849777579 0.152126864 0.000000000
0.892356694 0.146987885 0.000000000
0.933780015 0.142220527 0.000000000
0.974455059 0.137817323 0.000000000
0.990612090 0.133749276 0.000000000
0.993548393 0.129922271 0.000000000
0.995161295 0.126155809 0.000000000
0.996774197 0.122501343 0.000000000
0.998387098 0.118985206 0.000000000
1.000000000 0.115694024 0.000000000
0.195568129 0.211069331 0.000000000
0.202938467 0.215410233 0.000000000
0.211232990 0.219516426 0.000000000
0.220231384 0.223487914 0.000000000
0.230187729 0.227344662 0.000000000
0.241084754 0.230811581 0.000000000
0.253399104 0.233989164 0.000000000
0.267879903 0.236802369 0.000000000
0.285621405 0.238986880 0.000000000
0.307507783 0.240141571 0.000000000
0.334048629 0.240093395 0.000000000
0.365184903 0.238570780 0.000000000
0.400690466 0.235740751 0.000000000
0.439656675 0.231931359 0.000000000
0.481162012 0.227278814 0.000000000
0.524623215 0.222029015 0.000000000
0.569484830 0.216320202 0.000000000
0.615303159 0.210300446 0.000000000
0.661690235 0.204200715 0.000000000
0.708246589 0.198116630 0.000000000
0.754559875 0.192123771 0.000000000
0.800177395 0.186442852 0.000000000
0.844836116 0.181104586 0.000000000
0.888350248 0.176190510 0.000000000
0.930742502 0.171689823 0.000000000
0.972282648 0.167502061 0.000000000
0.990331531 0.163697451 0.000000000
0.993548393 0.160076976 0.000000000
0.995161295 0.156612605 0.000000000
0.996774197 0.153247312 0.000000000
0.998387098 0.149984390 0.000000000
1.000000000 0.147006005 0.000000000
0.189894453 0.234837964 0.000000000
0.198919132 0.238878623 0.000000000
0.208693460 0.242695123 0.000000000
0.219106063 0.246471748 0.000000000
0.230144486 0.249967054 0.000000000
0.242007852 0.253302336 0.000000000
0.255068332 0.256414413 0.000000000
0.269623458 0.259239435 0.000000000
0.286425322 0.261654049 0.000000000
0.306503475 0.263486922 0.000000000
0.330522567 0.264260173 0.000000000
0.359075308 0.263827562 0.000000000
0.392274648 0.262122482 0.000000000
0.429511458 0.259194314 0.000000000
0.470080882 0.255415708 0.000000000
0.513143480 0.250782460 0.000000000
0.558063686 0.245559499 0.000000000
0.604260921 0.239926979 0.000000000
0.651306808 0.234155536 0.000000000
0.698770225 0.228371292 0.000000000
0.746143937 0.222686708 0.000000000
0.792733669 0.217187375 0.000000000
0.838309169 0.212022334 0.000000000
0.882764339 0.207331002 0.000000000
0.926213562 0.203174472 0.000000000
0.968797266 0.199361056 0.000000000
0.989901423 0.195716515 0.000000000
0.993548393 0.192243263 0.000000000
0.995161295 0.188975781 0.000000000
0.996774197 0.185961664 0.000000000
0.998387098 0.183046848 0.000000000
1.000000000 0.180212051 0.000000000
0.183354408 0.259469569 0.000000000
0.193927243 0.263266861 0.000000000
0.205096513 0.266854614 0.000000000
0.216676176 0.270339519 0.000000000
0.228835776 0.273665518 0.000000000
0.241680890 0.276889741 0.000000000
0.255398303 0.279943466 0.000000000
0.270549059 0.282865077 0.000000000
0.287193447 0.285412252 0.000000000
0.306189954 0.287496448 0.000000000
0.328395128 0.288877100 0.000000000
0.354782850 0.289397210 0.000000000
0.385619611 0.288743734 0.000000000
0.420726538 0.287027597 0.000000000
0.459429681 0.284137487 0.000000000
0.501384735 0.280358106 0.000000000
0.545968473 0.275972515 0.000000000
0.592316926 0.271032959 0.000000000
0.639855385 0.265774190 0.000000000
0.687962711 0.260368437 0.000000000
0.736044466 0.254972339 0.000000000
0.783600330 0.249844387 0.000000000
0.830287576 0.245104626 0.000000000
0.875713646 0.240690336 0.000000000
0.920034528 0.236725092 0.000000000
0.963441730 0.233079478 0.000000000
0.989176452 0.229696199 0.000000000
0.993548393 0.226507902 0.000000000
0.995161295 0.223493099 0.000000000
0.996774197 0.220711932 0.000000000
0.998387098 0.217933252 0.000000000
1.000000000 0.215296209 0.000000000
0.176336363 0.285027146 0.000000000
0.188201725 0.288497090 0.000000000
0.200593948 0.291846961 0.000000000
0.213323161 0.295197487 0.000000000
0.226602063 0.298498958 0.000000000
0.240382373 0.301676095 0.000000000
0.254865706 0.304795861 0.000000000
0.270344317 0.307627589 0.000000000
0.287201583 0.310293585 0.000000000
0.305954427 0.312752068 0.000000000
0.327228010 0.314659953 0.000000000
0.351891726 0.315789968 0.000000000
0.380856901 0.316118956 0.000000000
0.413858771 0.315382034 0.000000000
0.450712621 0.313653648 0.000000000
0.491157681 0.311018139 0.000000000
0.534584403 0.307503909 0.000000000
0.580456972 0.303466856 0.000000000
0.627851009 0.298936367 0.000000000
0.676201999 0.294121295 0.000000000
0.724782348 0.289192200 0.000000000
0.773017168 0.284501791 0.000000000
0.820459843 0.280119538 0.000000000
0.866776347 0.276093841 0.000000000
0.911910892 0.272333056 0.000000000
0.956109226 0.268865317 0.000000000
0.988166392 0.265682012 0.000000000
0.993548393 0.262809724 0.000000000
0.995161295 0.260119766 0.000000000
0.996774197 0.257422239 0.000000000
0.998387098 0.254777968 0.000000000
1.000000000 0.252308905 0.000000000
0.169019163 0.311339438 0.000000000
0.182168201 0.314648181 0.000000000
0.195735395 0.317895710 0.000000000
0.209494472 0.321176410 0.000000000
0.223691389 0.324508101 0.000000000
0.238290876 0.327783257 0.000000000
0.253380746 0.330969751 0.000000000
0.269267261 0.333984822 0.000000000
0.286428839 0.336828142 0.000000000
0.305149317 0.339528292 0.000000000
0.326169133 0.342018723 0.000000000
0.350055426 0.343828768 0.000000000
0.377511889 0.344790190 0.000000000
0.408785403 0.344879568 0.000000000
0.443942755 0.344242811 0.000000000
0.482669860 0.342685312 0.000000000
0.524707019 0.340345532 0.000000000
0.569284558 0.337129176 0.000000000
0.615900993 0.333376914 0.000000000
0.663988233 0.329387486 0.000000000
0.712637246 0.325152695 0.000000000
0.761137843 0.320985287 0.000000000
0.809012890 0.316979110 0.000000000
0.855824530 0.313221425 0.000000000
0.901657224 0.309802175 0.000000000
0.946713269 0.306762666 0.000000000
0.986826777 0.303831488 0.000000000
0.993548393 0.301130354 0.000000000
0.995161295 0.298549086 0.000000000
0.996774197 0.296081215 0.000000000
0.998387098 0.293666154 0.000000000
1.000000000 0.291441172 0.000000000
0.162177682 0.338407487 0.000000000
0.176363632 0.341658264 0.000000000
0.190939844 0.345031440 0.000000000
0.205541193 0.348451287 0.000000000
0.220335051 0.351867616 0.000000000
0.235409871 0.355268449 0.000000000
0.251028299 0.358724207 0.000000000
0.267457664 0.362161785 0.000000000
0.284981579 0.365365863 0.000000000
0.304011762 0.368362218 0.000000000
0.324883103 0.371078938 0.000000000
0.348393232 0.373359442 0.000000000
0.375231743 0.375078171 0.000000000
0.405374199 0.375997931 0.000000000
0.438924938 0.376074076 0.000000000
0.476079971 0.375479817 0.000000000
0.516400218 0.374020249 0.000000000
0.559552670 0.371835977 0.000000000
0.605021894 0.369104356 0.000000000
0.652179301 0.365843296 0.000000000
0.700353861 0.362392038 0.000000000
0.748631597 0.358835995 0.000000000
0.796510518 0.355341882 0.000000000
0.843591154 0.352016300 0.000000000
0.889935791 0.349045634 0.000000000
0.935526609 0.346332669 0.000000000
0.980546117 0.343756288 0.000000000
0.993548393 0.341231585 0.000000000
0.995161295 0.338789850 0.000000000
0.996774197 0.336472392 0.000000000
0.998387098 0.334374338 0.000000000
1.000000000 0.332385957 0.000000000
0.155831307 0.366553098 0.000000000
0.170755550 0.370005429 0.000000000
0.185909078 0.373582840 0.000000000
0.200974792 0.377212882 0.000000000
0.216310695 0.380938232 0.000000000
0.231949180 0.384685248 0.000000000
0.248084813 0.388428479 0.000000000
0.265030086 0.392186195 0.000000000
0.283027768 0.395822078 0.000000000
0.302415848 0.399135649 0.000000000
0.323512137 0.402124524 0.000000000
0.346949786 0.404756457 0.000000000
0.373345286 0.406881422 0.000000000
0.402846426 0.408478051 0.000000000
0.435386389 0.409340292 0.000000000
0.471056253 0.409385532 0.000000000
0.509809613 0.408697814 0.000000000
0.551532149 0.407505482 0.000000000
0.595556796 0.405649692 0.000000000
0.641516924 0.403346509 0.000000000
0.688635767 0.400577396 0.000000000
0.736198366 0.397674978 0.000000000
0.783795953 0.394900918 0.000000000
0.830827236 0.392205626 0.000000000
0.877219856 0.389694750 0.000000000
0.923005641 0.387285858 0.000000000
0.968330204 0.384949744 0.000000000
0.992113709 0.382722437 0.000000000
0.995161295 0.380660325 0.000000000
0.996774197 0.378562927 0.000000000
0.998387098 0.376597852 0.000000000
1.000000000 0.374592900 0.000000000
0.149177521 0.396303356 0.000000000
0.164690763 0.400120944 0.000000000
0.180296794 0.403910905 0.000000000
0.195872679 0.407805383 0.000000000
0.211751521 0.411844015 0.000000000
0.228051499 0.416020483 0.000000000
0.244778290 0.420136333 0.000000000
0.262216836 0.424171388 0.000000000
0.280536473 0.427994639 0.000000000
0.300271362 0.431631953 0.000000000
0.321840733 0.435024977 0.000000000
0.345462590 0.437972963 0.000000000
0.371724278 0.440424979 0.000000000
0.400722980 0.442349136 0.000000000
0.432497472 0.443704844 0.000000000
0.467255622 0.444517672 0.000000000
0.504856229 0.444633693 0.000000000
0.545040965 0.444058597 0.000000000
0.587680221 0.443062574 0.000000000
0.632157266 0.441493839 0.000000000
0.678040981 0.439578891 0.000000000
0.724649191 0.437524915 0.000000000
0.771432102 0.435391545 0.000000000
0.817955554 0.433312029 0.000000000
0.863988161 0.431301296 0.000000000
0.909634650 0.429301202 0.000000000
0.954973459 0.427343518 0.000000000
0.990492046 0.425499707 0.000000000
0.995161295 0.423702091 0.000000000
0.996774197 0.421850175 0.000000000
0.998387098 0.419919729 0.000000000
1.000000000 0.418035269 0.000000000
0.142257109 0.427828401 0.000000000
0.158227995 0.431864202 0.000000000
0.174437135 0.436012894 0.000000000
0.190627530 0.440290689 0.000000000
0.207073480 0.444669008 0.000000000
0.223865002 0.449110061 0.000000000
0.241062626 0.453475296 0.000000000
0.258997738 0.457777113 0.000000000
0.277839452 0.461910248 0.000000000
0.297940791 0.465862453 0.000000000
0.319779456 0.469488651 0.000000000
0.343779206 0.472765565 0.000000000
0.370123118 0.475491583 0.000000000
0.398895055 0.477709174 0.000000000
0.430239379 0.479452372 0.000000000
0.464285105 0.480742633 0.000000000
0.500942945 0.481489748 0.000000000
0.540048957 0.481654614 0.000000000
0.581255674 0.481214136 0.000000000
0.624323785 0.480330557 0.000000000
0.668947935 0.479283601 0.000000000
0.714268327 0.477938980 0.000000000
0.759933293 0.476525933 0.000000000
0.805491090 0.475016654 0.000000000
0.850797832 0.473504990 0.000000000
0.896024406 0.472086757 0.000000000
0.941190839 0.470632136 0.000000000
0.984426439 0.469117790 0.000000000
0.995161295 0.467511266 0.000000000
0.996774197 0.465809643 0.000000000
0.998387098 0.464046329 0.000000000
1.000000000 0.462406754 0.000000000
0.135379538 0.461017191 0.000000000
0.151859611 0.465309471 0.000000000
0.168560222 0.469716609 0.000000000
0.185380384 0.474385798 0.000000000
0.202391759 0.479107112 0.000000000
0.219588175 0.483715773 0.000000000
0.237222120 0.488289922 0.000000000
0.255662739 0.492877811 0.000000000
0.275076479 0.497378290 0.000000000
0.295596153 0.501588643 0.000000000
0.317726344 0.505506158 0.000000000
0.341889054 0.508860946 0.000000000
0.368435055 0.511804044 0.000000000
0.397396892 0.514435112 0.000000000
0.428548336 0.516525149 0.000000000
0.462074220 0.518105805 0.000000000
0.497972965 0.519243956 0.000000000
0.536059260 0.519867182 0.000000000
0.576217115 0.520089269 0.000000000
0.618150651 0.519949675 0.000000000
0.661318183 0.519396901 0.000000000
0.705314636 0.518742561 0.000000000
0.749615788 0.517893195 0.000000000
0.793964505 0.517019391 0.000000000
0.838356853 0.516150773 0.000000000
0.882797897 0.515268266 0.000000000
0.927318335 0.514227390 0.000000000
0.971972525 0.513025999 0.000000000
0.994346261 0.511677206 0.000000000
0.996774197 0.510213614 0.000000000
0.998387098 0.508726299 0.000000000
1.000000000 0.507238448 0.000000000
0.128788069 0.495595336 0.000000000
0.145951509 0.500333428 0.000000000
0.163158357 0.505005598 0.000000000
0.180413723 0.509870052 0.000000000
0.197795033 0.514715910 0.000000000
0.215509459 0.519622207 0.000000000
0.233703196 0.524523437 0.000000000
0.252609611 0.529368758 0.000000000
0.272446781 0.534080267 0.000000000
0.293366671 0.538490355 0.000000000
0.315784812 0.542608500 0.000000000
0.340219647 0.546231449 0.000000000
0.367097825 0.549401820 0.000000000
0.396092832 0.552140296 0.000000000
0.427269399 0.554539382 0.000000000
0.460528910 0.556397617 0.000000000
0.495868832 0.557779908 0.000000000
0.533226252 0.558764040 0.000000000
0.572470248 0.559500277 0.000000000
0.613247633 0.559798360 0.000000000
0.655240595 0.559851646 0.000000000
0.697821856 0.559645653 0.000000000
0.740753293 0.559333205 0.000000000
0.783935547 0.559150994 0.000000000
0.827041209 0.558788359 0.000000000
0.870327473 0.558344543 0.000000000
0.913870156 0.557696462 0.000000000
0.957723439 0.556842327 0.000000000
0.992981195 0.555861473 0.000000000
0.996774197 0.554744303 0.000000000
0.998387098 0.553417504 0.000000000
1.000000000 0.551958025 0.000000000
0.122913018 0.531523526 0.000000000
0.140552327 0.536502063 0.000000000
0.158297285 0.541452169 0.000000000
0.175953686 0.546478212 0.000000000
0.193770394 0.551521063 0.000000000
0.211945236 0.556649327 0.000000000
0.230664521 0.561859727 0.000000000
0.250046462 0.566961408 0.000000000
0.270183980 0.571770668 0.000000000
0.291451246 0.576332510 0.000000000
0.314284623 0.580688775 0.000000000
0.339060426 0.584623992 0.000000000
0.366095096 0.587902844 0.000000000
0.395317525 0.590797603 0.000000000
0.426380754 0.593200386 0.000000000
0.459461480 0.595218480 0.000000000
0.494637936 0.597001433 0.000000000
0.531455278 0.598265350 0.000000000
0.569847941 0.599176109 0.000000000
0.609635234 0.599858105 0.000000000
0.650434494 0.600222230 0.000000000
0.691806018 0.600472987 0.000000000
0.733579934 0.600790262 0.000000000
0.775282383 0.600944102 0.000000000
0.817052305 0.601057589 0.000000000
0.859005392 0.600970745 0.000000000
0.901272893 0.600723445 0.000000000
0.944158673 0.600275815 0.000000000
0.986182332 0.599706113 0.000000000
0.996774197 0.598796189 0.000000000
0.998387098 0.597576857 0.000000000
1.000000000 0.596182287 0.000000000
0.118085429 0.568502963 0.000000000
0.136065543 0.573566079 0.000000000
0.154230967 0.578691006 0.000000000
0.172372803 0.583957911 0.000000000
0.190792799 0.589368403 0.000000000
0.209393784 0.594683409 0.000000000
0.228447154 0.600010157 0.000000000
0.248103470 0.605160475 0.000000000
0.268646598 0.610158384 0.000000000
0.290362656 0.614977419 0.000000000
0.313518763 0.619480014 0.000000000
0.338526160 0.623545349 0.000000000
0.365703672 0.626964629 0.000000000
0.395020127 0.629864693 0.000000000
0.426187426 0.632352650 0.000000000
0.459318519 0.634588003 0.000000000
0.494121611 0.636359572 0.000000000
0.530593574 0.637854278 0.000000000
0.568344712 0.638950050 0.000000000
0.607279718 0.639770210 0.000000000
0.647033513 0.640415609 0.000000000
0.687433481 0.641133010 0.000000000
