Desert Affinity Presets/Desert Affinity Preset #8.cube
TITLE "32x32x32 Adobe/IRIDAS cube 3D LUT exported with GrossGrade v0.1.027.1 (beta) 64 bit"
LUT_3D_SIZE 8
DOMAIN_MIN 0.000000 0.000000 0.000000
DOMAIN_MAX 0.903226 0.903226 0.903226
0.236764699 0.003392079 0.000000000
0.279524505 0.016405819 0.000000000
0.339646876 0.024531066 0.000000000
0.434164554 0.023139939 0.000000000
0.555347502 0.014341732 0.000000000
0.692016184 0.001286410 0.000000000
0.832930923 0.000000000 0.000000000
0.979573190 0.000000000 0.000000000
0.193606153 0.104964681 0.000000000
0.263723224 0.112982810 0.000000000
0.305050224 0.124300271 0.000000000
0.396318048 0.124871559 0.000000000
0.518764913 0.117314711 0.000000000
0.657435536 0.106043153 0.000000000
0.801350415 0.094814040 0.000000000
0.952083528 0.083844312 0.000000000
0.152406693 0.192190990 0.000000000
0.223961771 0.216224402 0.000000000
0.323398948 0.216724440 0.000000000
0.407332748 0.219490334 0.000000000
0.511448026 0.223124921 0.000000000
0.649264157 0.219429329 0.000000000
0.796831250 0.214142367 0.000000000
0.951975882 0.207894668 0.000000000
0.102687068 0.282316923 0.000000000
0.190733910 0.322474450 0.000000000
0.293104082 0.342255920 0.000000000
0.433234841 0.338134289 0.000000000
0.559715092 0.336424023 0.000000000
0.674446404 0.341580451 0.000000000
0.807656646 0.344464540 0.000000000
0.958369017 0.343449742 0.000000000
0.063193023 0.394691080 0.000000000
0.161502942 0.441931605 0.000000000
0.265174687 0.479543924 0.000000000
0.413172215 0.483655274 0.000000000
0.581060469 0.475479662 0.000000000
0.732579589 0.470160931 0.000000000
0.855254054 0.474583179 0.000000000
0.985089958 0.480285525 0.000000000
0.038612369 0.523078799 0.000000000
0.140940085 0.572135568 0.000000000
0.246817127 0.615761697 0.000000000
0.391548365 0.634561241 0.000000000
0.569216073 0.628488600 0.000000000
0.751760960 0.617097914 0.000000000
0.912327409 0.609865069 0.000000000
0.995161295 0.610127449 0.000000000
0.028324379 0.654260457 0.000000000
0.132654145 0.703939378 0.000000000
0.241338611 0.749317050 0.000000000
0.382434070 0.777746379 0.000000000
0.557087362 0.777984977 0.000000000
0.747879624 0.765207469 0.000000000
0.931678176 0.751215696 0.000000000
0.995161295 0.739713550 0.000000000
0.025214307 0.783739865 0.000000000
0.129343793 0.832392335 0.000000000
0.239648223 0.876796901 0.000000000
0.376939565 0.907429039 0.000000000
0.546185911 0.916942418 0.000000000
0.736781001 0.905867755 0.000000000
0.928452849 0.890074372 0.000000000
0.995161295 0.873465419 0.000000000
0.234487638 0.000000000 0.037033215
0.280605108 0.013759150 0.012723262
0.340669543 0.021590289 0.015233882
0.435263664 0.020056495 0.012251904
0.556655347 0.011242408 0.010617121
0.693490624 0.000216039 0.008499762
0.834729970 0.000000000 0.006451614
0.981793702 0.000000000 0.006451614
0.140888065 0.110425338 0.006747147
0.241476208 0.115094252 0.007297061
0.301282495 0.122905299 0.007644967
0.396564335 0.122267090 0.006969732
0.519480407 0.115204915 0.006451614
0.658553243 0.104557768 0.006451614
0.802770913 0.093861073 0.006451614
0.953945518 0.083554886 0.006451614
0.086976886 0.190891027 0.006451614
0.208414540 0.210459307 0.006451614
0.301926106 0.219610021 0.006451614
0.382251233 0.226012513 0.006451614
0.506191313 0.225190982 0.006451614
0.650836110 0.220093563 0.006451614
0.800426006 0.214543939 0.006451614
0.956134498 0.208539650 0.006451614
0.034951903 0.264839947 0.006451614
0.167352125 0.309238076 0.006451614
0.272203356 0.344308287 0.006451614
0.413599044 0.342848450 0.006451614
0.530895352 0.344911456 0.006451614
0.656136215 0.349932939 0.006451614
0.802487195 0.349576831 0.006451614
0.959024608 0.346691012 0.006451614
0.000000000 0.364063978 0.006451614
0.124594651 0.418342382 0.006451614
0.247584462 0.471186429 0.006451614
0.392109066 0.489224017 0.006451614
0.562789917 0.481579125 0.006451614
0.707928419 0.478798330 0.006451614
0.829399765 0.485494733 0.006451614
0.969760299 0.488962382 0.006451614
0.000000000 0.491611749 0.006451614
0.095683791 0.542406976 0.006451614
0.225573391 0.598990619 0.006451614
0.372494996 0.635941267 0.006451614
0.549650550 0.635134935 0.006451614
0.734140515 0.623832703 0.006451614
0.890155196 0.617800653 0.006451614
0.993867874 0.620476842 0.006451614
0.000000000 0.623335421 0.006451614
0.086409606 0.674604774 0.006451614
0.216163978 0.728834748 0.006451614
0.363096267 0.769609153 0.006451614
0.536374390 0.782871544 0.006451614
0.728438973 0.771466017 0.006451614
0.913369596 0.757254064 0.006451614
0.995161295 0.746411860 0.006451614
0.000000000 0.752739012 0.006451614
0.081991091 0.802764714 0.006451614
0.210109457 0.853981137 0.006451614
0.357284546 0.893937528 0.006451614
0.526453972 0.916367054 0.006451614
0.715366900 0.911139429 0.006451614
0.908805668 0.895797610 0.006451614
0.995161295 0.879114926 0.006451614
0.222868472 0.000000000 0.297246248
0.276761085 0.000209491 0.247066393
0.332677066 0.010109824 0.240302652
0.427207083 0.008498905 0.235192865
0.548611641 0.000652324 0.222889706
0.685470581 0.000000000 0.206301719
0.826967776 0.000000000 0.189139873
0.974316597 0.000000000 0.171290785
0.120914802 0.085674547 0.250526309
0.227606401 0.097711883 0.233241215
0.293475211 0.111371055 0.204615861
0.388965636 0.110715248 0.200457990
0.512298584 0.103833131 0.190071970
0.652084649 0.093690351 0.176417544
0.797151983 0.083607636 0.162835956
0.949081481 0.073837772 0.149556056
0.020660663 0.176008970 0.155612901
0.142291248 0.202513963 0.178615004
0.272011399 0.214054495 0.186652869
0.371280342 0.217408881 0.186071470
0.499571323 0.215710014 0.180436820
0.644917905 0.211351395 0.172142401
0.795042098 0.206551582 0.163413703
0.950864732 0.200882986 0.153816685
0.000000000 0.252633482 0.047752723
0.085671261 0.291689366 0.097796910
0.247510895 0.329391479 0.165621996
0.385270566 0.338881105 0.164891005
0.498611808 0.344227880 0.182809845
0.643440485 0.344563276 0.174818665
0.796670020 0.342852950 0.169363976
0.955027163 0.339495093 0.162508562
0.000000000 0.339408845 0.012903227
0.036799382 0.380809516 0.036496747
0.210685238 0.444438845 0.132266223
0.363193214 0.483260661 0.151859403
0.535150528 0.478295207 0.145696089
0.671175838 0.479343355 0.181493133
0.803061604 0.485815883 0.178313270
0.956204295 0.485678524 0.167452008
0.000000000 0.457950830 0.012903227
0.007235338 0.489823967 0.014107805
0.172049984 0.558778763 0.097096801
0.343917042 0.616592765 0.153155446
0.519932270 0.632045031 0.120891631
0.707219243 0.621272802 0.128947169
0.856725693 0.617660105 0.168395385
0.982605100 0.622211158 0.180296242
0.000000000 0.585816205 0.012903227
0.006790168 0.623161852 0.013701913
0.153203577 0.681398749 0.081717014
0.328416198 0.739386022 0.146724015
0.507400334 0.774331450 0.136131257
0.699456632 0.768695652 0.102561831
0.886229455 0.754474342 0.113939047
0.995161295 0.744752347 0.148844883
0.000000000 0.712925851 0.012903227
0.006838799 0.753132224 0.013956293
0.146681190 0.807466030 0.078670017
0.317820460 0.859155178 0.141736507
0.495716184 0.896824598 0.149933606
0.685167849 0.906536222 0.103389636
0.879956722 0.892660499 0.084205717
0.995161295 0.875841260 0.095977746
0.218742028 0.000000000 0.449191928
0.280068129 0.000000000 0.391830415
0.335653841 0.005611380 0.362611711
0.427600473 0.005393940 0.352881819
0.548933744 0.000000000 0.340492278
0.685943961 0.000000000 0.324069798
0.827622354 0.000000000 0.307101250
0.975198388 0.000000000 0.289459854
0.113294899 0.068611197 0.406924754
0.218059987 0.084663048 0.379761606
0.297490150 0.105058804 0.332869500
0.389873862 0.108118869 0.318658978
0.513279021 0.101322331 0.308354795
0.653573096 0.091671191 0.295205384
0.799273193 0.082224384 0.282252640
0.951843679 0.073087715 0.269607335
0.003943868 0.152841508 0.320643187
0.122844890 0.178292304 0.339784175
0.265129477 0.203669652 0.335835367
0.373659849 0.216060817 0.305946141
0.502361894 0.214553639 0.300934374
0.648386359 0.210638911 0.293518931
0.799256802 0.206360728 0.285740286
0.955504239 0.200908318 0.276776612
0.000000000 0.239273816 0.207616150
0.024288807 0.280197859 0.245025337
0.186743945 0.326808959 0.288131833
0.365724981 0.343692631 0.301513672
0.497492880 0.345478088 0.299371958
0.646476865 0.344748974 0.294707030
0.800311506 0.343662381 0.289686352
0.958984613 0.340849787 0.282939702
0.000000000 0.334679276 0.101255335
0.006451614 0.369935721 0.138249606
0.129123017 0.427020669 0.206323177
0.345113277 0.474962652 0.284380227
0.515852392 0.483353972 0.282558650
0.647801757 0.487579376 0.299350947
0.799203098 0.489292145 0.292730838
0.959049940 0.487625629 0.287337989
0.000000000 0.450479478 0.034937192
0.006451614 0.462987572 0.062480174
0.080283329 0.517280221 0.145053357
0.309567809 0.592387199 0.252304703
0.499130845 0.634201586 0.274880826
0.687802970 0.626216948 0.265691817
0.827934265 0.626166582 0.300399899
0.964157641 0.630414903 0.294996560
0.000000000 0.572000802 0.019354852
0.006451614 0.586532891 0.043704011
0.052429330 0.622946084 0.114190899
0.274073333 0.698358893 0.220276505
0.484028131 0.760195851 0.280354500
0.677245975 0.773120940 0.245562762
0.866700172 0.759302139 0.250577867
0.993988454 0.752205789 0.286533445
0.000000000 0.692851841 0.019354852
0.006451614 0.713340938 0.041845266
0.053482890 0.751996398 0.115518495
0.253209651 0.810079515 0.202884689
0.464338332 0.869911373 0.269728094
0.663412809 0.905215144 0.259487569
0.858770430 0.897677004 0.224022463
0.995161295 0.881104171 0.233048081
0.215304628 0.000000000 0.594273031
0.280577391 0.000000000 0.534190834
0.341435432 0.000000000 0.489894837
0.430069774 0.002061717 0.465890288
0.549794436 0.000000000 0.451120585
0.687036455 0.000000000 0.434915245
0.828956366 0.000000000 0.418191344
0.976791263 0.000000000 0.400803685
0.109105498 0.056690324 0.554216444
0.208531722 0.071628287 0.518764675
0.298471808 0.093949437 0.467757493
0.393891454 0.104666024 0.434466422
0.515270114 0.099804871 0.420103580
0.655900359 0.090494603 0.407287478
0.802129865 0.081578739 0.394867003
0.955200851 0.072939001 0.382727176
0.000000000 0.135075882 0.478026837
0.108894765 0.154888570 0.482320696
0.251823694 0.186850905 0.471056014
0.379522920 0.211605802 0.428521931
0.506179154 0.214866623 0.414517492
0.652307987 0.211056173 0.407206088
0.803410113 0.207011700 0.399653554
0.959894061 0.201785192 0.390920699
0.000000000 0.224114329 0.373526841
0.006451614 0.251227677 0.396716356
0.161246464 0.296535581 0.435721695
0.358537525 0.333003223 0.442859054
0.502191782 0.346451849 0.414034516
0.651249111 0.345565856 0.409639359
0.805367172 0.344542533 0.405118048
0.964638233 0.342106938 0.399169117
0.000000000 0.332142413 0.269646764
0.006451614 0.352684319 0.286680818
0.060041633 0.410160065 0.340649009
0.280574232 0.468597203 0.395580053
0.497717500 0.489580303 0.413060695
0.647819400 0.489967316 0.409511566
0.803075850 0.490298897 0.405918330
0.963422835 0.489170343 0.400843024
0.000000000 0.450706184 0.182854190
0.006451614 0.454174131 0.185294002
0.012903227 0.498652726 0.231510714
0.219247058 0.566216469 0.310073853
0.479115158 0.623960614 0.397929788
0.668788493 0.631555736 0.395309538
0.804462075 0.634305418 0.410629660
0.960191846 0.633773983 0.401761264
0.000000000 0.569929719 0.123524353
0.006451614 0.572851956 0.133363038
0.012903227 0.584776044 0.160336345
0.169433802 0.643989563 0.247834295
0.443490416 0.729795158 0.365769178
0.655782461 0.774602294 0.391352952
0.846718371 0.763684750 0.379228920
0.988806367 0.760398507 0.410692811
0.000000000 0.686151922 0.085462436
0.006451614 0.691791475 0.107934095
0.012903227 0.703426421 0.145547241
0.138048559 0.737243831 0.213436216
0.401173472 0.820065200 0.326930702
0.637199938 0.888232887 0.393348187
0.836433768 0.901974678 0.359366685
0.995001316 0.886176527 0.362396061
0.212726668 0.000000000 0.732769370
0.280408233 0.000000000 0.671712816
0.346355885 0.000000000 0.618162036
0.436025411 0.000000000 0.580415726
0.552209556 0.000000000 0.556163967
0.688699961 0.000000000 0.538876772
0.830896139 0.000000000 0.522428513
0.979123235 0.000000000 0.505426586
0.109950103 0.051150937 0.697380424
0.203334391 0.062931143 0.654620230
0.296169877 0.082598962 0.599837244
0.399207234 0.096818671 0.553816617
0.519479930 0.098214082 0.527379274
0.658999085 0.090087466 0.512674510
0.805757821 0.081701174 0.500783563
0.959286094 0.073520266 0.489098340
0.001030157 0.130888417 0.634749055
0.103476539 0.141731039 0.620899796
0.238796011 0.170322612 0.599088311
0.380019009 0.200005785 0.555457234
0.513065755 0.214281708 0.525716484
0.657218516 0.212460950 0.514395773
0.808252335 0.208353415 0.506785750
0.965027034 0.203418314 0.498343080
0.000000000 0.222563654 0.543250501
0.006451614 0.232031673 0.545198679
0.141968310 0.267804146 0.565451384
0.341689974 0.312653005 0.567067742
0.509608924 0.343557596 0.530684650
0.657039165 0.347860634 0.517727852
0.810860336 0.346531779 0.512896121
0.970368803 0.344329238 0.507189691
0.000000000 0.332183599 0.443303287
0.006451614 0.336116970 0.443715274
0.028803542 0.374165893 0.477842510
0.247925535 0.431179762 0.528549671
0.489380121 0.477732748 0.545775592
0.653746903 0.492162168 0.517930627
0.808546245 0.491812617 0.514080465
0.969204903 0.490764081 0.509530008
0.000000000 0.451789171 0.349864334
0.006451614 0.452167869 0.346740574
0.012903227 0.476351351 0.367421895
0.143896446 0.543088555 0.430651248
0.410030872 0.613055170 0.497115165
0.650923491 0.638049662 0.518608153
0.804380655 0.636597693 0.513212740
0.963850439 0.634584069 0.507272005
0.000000000 0.571347356 0.274209410
0.006451614 0.571309447 0.272048861
0.012903227 0.570645809 0.270354539
0.054712646 0.616699815 0.318159312
0.343475312 0.693922222 0.406369984
0.632739902 0.761335790 0.503905118
0.827153981 0.768472373 0.500823796
0.966365695 0.768195629 0.513107181
0.000000000 0.685859680 0.214108258
0.006451614 0.685424805 0.216485918
0.012903227 0.682517827 0.220493659
0.021560121 0.687325299 0.240359351
0.283334464 0.752489090 0.333808213
0.590265870 0.851441622 0.464893520
0.814619005 0.903116107 0.497337431
0.993124366 0.890605211 0.483619273
0.211362943 0.000000000 0.855926514
0.280610234 0.000000000 0.794507921
0.350758702 0.000000000 0.735539734
0.443354189 0.000000000 0.687041998
0.558952510 0.000000000 0.652326167
0.692153513 0.000000000 0.628242850
0.833983898 0.000000000 0.611271024
0.982707381 0.000000000 0.594778717
0.111249097 0.046908733 0.823803663
0.202094898 0.058183417 0.777915716
0.295760065 0.075082541 0.720592082
0.404074669 0.088748112 0.665502131
0.527060807 0.094116360 0.627001941
0.664290369 0.090541974 0.604067266
0.810722768 0.083166704 0.591512024
0.964745760 0.075477183 0.580318689
0.006570928 0.129500926 0.772880971
0.109037027 0.140908480 0.752252817
0.234361857 0.162380055 0.719181180
0.377651006 0.188599929 0.670940757
0.520441294 0.208488688 0.630598605
0.664882004 0.214326575 0.608602226
0.814451694 0.211051896 0.598739743
0.971460581 0.206342772 0.590539277
0.000000000 0.224330947 0.694953263
0.006451614 0.234228075 0.691783130
0.136712044 0.254808903 0.687671781
0.326025248 0.293476760 0.675933123
0.509724438 0.331565887 0.640706837
0.666263282 0.349600077 0.614732862
0.818101346 0.350269884 0.605895877
0.977437615 0.347893625 0.600019038
0.000000000 0.334423989 0.601795495
0.006451614 0.339806437 0.602159619
0.018901316 0.352853715 0.607679009
0.222848281 0.396644831 0.635950446
0.468599945 0.453446120 0.649533570
0.662250042 0.490350753 0.619144976
0.816063941 0.495838940 0.607360899
0.976200283 0.494257629 0.602290034
0.000000000 0.453626662 0.508690894
0.006451614 0.455787659 0.507450700
0.012903227 0.458134800 0.506288588
0.101405911 0.500016153 0.544234693
0.369849205 0.568102956 0.606028557
0.640691698 0.624316037 0.632909596
0.811110198 0.639598727 0.605911255
0.969996214 0.636766076 0.599585533
0.000000000 0.573617220 0.427262604
0.006451614 0.573661208 0.423795372
0.012903227 0.568689048 0.415330470
0.019354852 0.589174271 0.432309508
0.261373788 0.664046407 0.503675222
0.558551729 0.745328426 0.581457198
0.809670508 0.775344491 0.607972324
0.966648221 0.770846903 0.599539101
0.000000000 0.688110948 0.354551673
0.006451614 0.686001539 0.349812806
0.012903227 0.679099679 0.340792835
0.019354852 0.668180346 0.328839242
0.160199285 0.716885149 0.379285157
0.481282979 0.806611180 0.480000764
0.789651752 0.887915790 0.591425061
0.991147995 0.896098495 0.589391053
0.210864320 0.000000000 0.967745245
0.281180650 0.000000000 0.906168759
0.354651064 0.000000000 0.843997240
0.450727016 0.000000000 0.787753880
0.567546546 0.000000000 0.743468642
0.699453056 0.000000000 0.711347520
0.838489056 0.000000000 0.689395964
0.987366021 0.000000000 0.672984958
0.112711944 0.043368887 0.937874794
0.201747283 0.054334939 0.889887393
0.296158999 0.069529153 0.831369400
0.408699840 0.082061201 0.770878792
0.535450280 0.089024477 0.722470224
0.673360288 0.089530945 0.690339804
0.817258477 0.085441150 0.671747446
0.971181393 0.078411065 0.660302997
0.011687119 0.128547594 0.895989299
0.114462502 0.140797436 0.870590389
0.235993639 0.160508424 0.833141088
0.378554493 0.182393327 0.780799270
0.526493609 0.201605991 0.731251359
0.674617231 0.212385148 0.698167205
0.822479546 0.214234293 0.680659771
0.978858709 0.210247844 0.671493709
0.000000000 0.226750433 0.830513835
0.013897005 0.239173442 0.824033141
0.147303581 0.259015471 0.811838329
0.322073907 0.286030382 0.784312665
0.506045938 0.318844050 0.742673337
0.674089909 0.344261676 0.707845390
0.827791333 0.354152709 0.689909518
0.985398531 0.352353990 0.681526542
0.000000000 0.338176489 0.746379375
0.006451614 0.347099394 0.747166574
0.031206628 0.360120058 0.747119784
0.216459423 0.382523984 0.744829595
0.448746413 0.430088103 0.741988838
0.660613716 0.476616591 0.715203166
0.826554418 0.498855650 0.693425477
0.984601736 0.499158025 0.684236288
0.000000000 0.457003474 0.656827450
0.006451614 0.461880118 0.657586813
0.012903227 0.465924829 0.656607509
0.085846446 0.475497067 0.658652902
0.337545961 0.526345491 0.693987072
0.614592254 0.594713748 0.719128311
0.819534004 0.637707829 0.694832325
0.977802634 0.641068518 0.680935562
0.000000000 0.576259255 0.574560523
0.006451614 0.577465296 0.572381675
0.012903227 0.574593961 0.566108763
0.019354852 0.567917705 0.555916846
0.210217759 0.612318337 0.596387923
0.509708703 0.691718698 0.669489026
0.796993554 0.759175718 0.707624018
0.973632574 0.774107635 0.680269480
0.000000000 0.690537751 0.496420443
0.006451614 0.688665211 0.491034299
0.012903227 0.681906044 0.480783820
0.019354852 0.665558636 0.460932523
0.089982472 0.683423877 0.475289822
0.392454743 0.770003676 0.558368623
0.710867584 0.867323399 0.652177215
0.974708557 0.903494537 0.684859157
