Desert Affinity Presets/Desert Affinity Preset #8.cube
TITLE "32x32x32 Adobe/IRIDAS cube 3D LUT exported with GrossGrade v0.1.027.1 (beta) 64 bit"
DOMAIN_MIN 0 0 0
DOMAIN_MAX 1 1 1
LUT_3D_SIZE 32
0.236764699 0.003392079 0.000000000
0.246275842 0.006628913 0.000000000
0.256683171 0.010013511 0.000000000
0.267765850 0.013403708 0.000000000
0.279524505 0.016405819 0.000000000
0.292296082 0.019100705 0.000000000
0.306298226 0.021395708 0.000000000
0.321936667 0.023218058 0.000000000
0.339646876 0.024531066 0.000000000
0.359897971 0.025229674 0.000000000
0.382639438 0.025108092 0.000000000
0.407494813 0.024374411 0.000000000
0.434164554 0.023139939 0.000000000
0.462428212 0.021491587 0.000000000
0.492165953 0.019490207 0.000000000
0.523208618 0.017110042 0.000000000
0.555347502 0.014341732 0.000000000
0.588455021 0.011296656 0.000000000
0.622342825 0.008046736 0.000000000
0.656976104 0.004733666 0.000000000
0.692016184 0.001286410 0.000000000
0.727117479 0.000023381 0.000000000
0.762229264 0.000000000 0.000000000
0.797410786 0.000000000 0.000000000
0.832930923 0.000000000 0.000000000
0.868895650 0.000000000 0.000000000
0.905222595 0.000000000 0.000000000
0.942103505 0.000000000 0.000000000
0.979573190 0.000000000 0.000000000
0.995985806 0.000000000 0.000000000
0.998387098 0.000000000 0.000000000
1.000000000 0.000000000 0.000000000
0.230318040 0.028017703 0.000000000
0.246612787 0.029956462 0.000000000
0.252551138 0.034245450 0.000000000
0.262342155 0.037713762 0.000000000
0.273937285 0.040583514 0.000000000
0.286633283 0.043158177 0.000000000
0.300641477 0.045392424 0.000000000
0.316375822 0.047264777 0.000000000
0.334010512 0.048454374 0.000000000
0.354143173 0.048970599 0.000000000
0.376890033 0.048788231 0.000000000
0.401775867 0.048040062 0.000000000
0.428537488 0.046841595 0.000000000
0.456908971 0.045239050 0.000000000
0.486622870 0.043161888 0.000000000
0.517664135 0.040720038 0.000000000
0.549864769 0.037961096 0.000000000
0.583077729 0.034960866 0.000000000
0.617141426 0.031828813 0.000000000
0.651818931 0.028506411 0.000000000
0.686890185 0.025039949 0.000000000
0.722113788 0.021586174 0.000000000
0.757389903 0.018183826 0.000000000
0.792761564 0.014823486 0.000000000
0.828456879 0.011463215 0.000000000
0.864497483 0.007995851 0.000000000
0.901007175 0.004462553 0.000000000
0.938130081 0.002513532 0.000000000
0.975812972 0.002210514 0.000000000
0.995754778 0.002099223 0.000000000
0.998387098 0.001984191 0.000000000
1.000000000 0.001870092 0.000000000
0.222333178 0.053088117 0.000000000
0.236120209 0.056078929 0.000000000
0.255500585 0.056768231 0.000000000
0.262689054 0.059885826 0.000000000
0.268631488 0.064338468 0.000000000
0.279693633 0.067433551 0.000000000
0.293292731 0.069878265 0.000000000
0.308816463 0.071650542 0.000000000
0.326431662 0.072838254 0.000000000
0.346559644 0.073366709 0.000000000
0.369316161 0.073189951 0.000000000
0.394253582 0.072486654 0.000000000
0.421075433 0.071359709 0.000000000
0.449411422 0.069721162 0.000000000
0.479189724 0.067708492 0.000000000
0.510313272 0.065342396 0.000000000
0.542586625 0.062648937 0.000000000
0.575914562 0.059770290 0.000000000
0.610054493 0.056713961 0.000000000
0.644803703 0.053456075 0.000000000
0.679993331 0.050108913 0.000000000
0.715331733 0.046778079 0.000000000
0.750820339 0.043584280 0.000000000
0.786374867 0.040401690 0.000000000
0.822172582 0.037154581 0.000000000
0.858370185 0.033837743 0.000000000
0.895046294 0.030467156 0.000000000
0.932405829 0.027089177 0.000000000
0.970466256 0.023738198 0.000000000
0.995432079 0.020218957 0.000000000
0.998387098 0.016570644 0.000000000
1.000000000 0.012940044 0.000000000
0.210279837 0.078646615 0.000000000
0.224170879 0.081687488 0.000000000
0.241326928 0.084173374 0.000000000
0.261100203 0.084207006 0.000000000
0.271405071 0.086266838 0.000000000
0.276177168 0.090773255 0.000000000
0.285399944 0.094391726 0.000000000
0.299122095 0.096807867 0.000000000
0.315984577 0.098330870 0.000000000
0.335849851 0.099043071 0.000000000
0.358654559 0.099047750 0.000000000
0.383616984 0.098394901 0.000000000
0.410411894 0.097239904 0.000000000
0.438806474 0.095679075 0.000000000
0.468679845 0.093761802 0.000000000
0.499973208 0.091565393 0.000000000
0.532459795 0.089084782 0.000000000
0.565840960 0.086253777 0.000000000
0.600022972 0.083239041 0.000000000
0.634907126 0.080115907 0.000000000
0.670293272 0.076966539 0.000000000
0.705914736 0.073916711 0.000000000
0.741525292 0.070847757 0.000000000
0.777200520 0.067781590 0.000000000
0.813223362 0.064754717 0.000000000
0.849720359 0.061747503 0.000000000
0.886696219 0.058679942 0.000000000
0.924359024 0.055605374 0.000000000
0.962581456 0.052405030 0.000000000
0.994684339 0.049222380 0.000000000
0.998387098 0.045985099 0.000000000
1.000000000 0.042743631 0.000000000
0.193606153 0.104964681 0.000000000
0.208552212 0.108310729 0.000000000
0.222965017 0.112079017 0.000000000
0.243595660 0.113122143 0.000000000
0.263723224 0.112982810 0.000000000
0.276769161 0.114277862 0.000000000
0.283082157 0.117877439 0.000000000
0.291518658 0.121678397 0.000000000
0.305050224 0.124300271 0.000000000
0.323307902 0.125746042 0.000000000
0.345144451 0.126139045 0.000000000
0.369641095 0.125778899 0.000000000
0.396318048 0.124871559 0.000000000
0.424762726 0.123496078 0.000000000
0.454765707 0.121757768 0.000000000
0.486188024 0.119705036 0.000000000
0.518764913 0.117314711 0.000000000
0.552350461 0.114694856 0.000000000
0.586754084 0.111902840 0.000000000
0.621810257 0.108953208 0.000000000
0.657435536 0.106043153 0.000000000
0.693259299 0.103194721 0.000000000
0.729114771 0.100368336 0.000000000
0.765064657 0.097582400 0.000000000
0.801350415 0.094814040 0.000000000
0.838214636 0.092169248 0.000000000
0.875568748 0.089479528 0.000000000
0.913540542 0.086713552 0.000000000
0.952083528 0.083844312 0.000000000
0.991209626 0.080950610 0.000000000
0.998294055 0.078106560 0.000000000
1.000000000 0.075480990 0.000000000
0.182745457 0.128041446 0.000000000
0.198826924 0.131980941 0.000000000
0.212883547 0.136351377 0.000000000
0.230971038 0.139233142 0.000000000
0.253132015 0.139301777 0.000000000
0.273949713 0.138974428 0.000000000
0.289508730 0.139727831 0.000000000
0.298936725 0.142362997 0.000000000
0.308507055 0.145873472 0.000000000
0.322502911 0.148490757 0.000000000
0.341619134 0.149842247 0.000000000
0.364634573 0.150177747 0.000000000
0.390457720 0.149799243 0.000000000
0.418485522 0.148928910 0.000000000
0.448270261 0.147567868 0.000000000
0.479593128 0.145746171 0.000000000
0.512237012 0.143566906 0.000000000
0.546005189 0.141173735 0.000000000
0.580699980 0.138700366 0.000000000
0.616122901 0.136125803 0.000000000
0.651946545 0.133421391 0.000000000
0.687951028 0.130743310 0.000000000
0.724093139 0.128204882 0.000000000
0.760455549 0.125833586 0.000000000
0.797230184 0.123563610 0.000000000
0.834361315 0.121179417 0.000000000
0.871989131 0.118762702 0.000000000
0.910333097 0.116366595 0.000000000
0.949384928 0.113997295 0.000000000
0.988943756 0.111536890 0.000000000
0.998210371 0.109130234 0.000000000
1.000000000 0.106565788 0.000000000
0.172891825 0.149901733 0.000000000
0.190189883 0.154721349 0.000000000
0.204983160 0.159596905 0.000000000
0.221153483 0.163811356 0.000000000
0.242392614 0.165261328 0.000000000
0.265565515 0.164952308 0.000000000
0.287579358 0.164521813 0.000000000
0.305794418 0.164863348 0.000000000
0.318908960 0.166596696 0.000000000
0.331008971 0.169215754 0.000000000
0.346466005 0.171609133 0.000000000
0.366152048 0.173118085 0.000000000
0.389791727 0.173709050 0.000000000
0.416447759 0.173496082 0.000000000
0.445444047 0.172669098 0.000000000
0.476380497 0.171421781 0.000000000
0.508850634 0.169791341 0.000000000
0.542562544 0.167844325 0.000000000
0.577309549 0.165709406 0.000000000
0.612886012 0.163433447 0.000000000
0.649054885 0.161135852 0.000000000
0.685466290 0.158895537 0.000000000
0.721944451 0.156707227 0.000000000
0.758703709 0.154728219 0.000000000
0.795815170 0.152788386 0.000000000
0.833359182 0.150819108 0.000000000
0.871380746 0.148800924 0.000000000
0.910028994 0.146706998 0.000000000
0.949418068 0.144680083 0.000000000
0.989254177 0.142510563 0.000000000
0.998214543 0.140205979 0.000000000
1.000000000 0.137858450 0.000000000
0.163004518 0.171173573 0.000000000
0.181328744 0.176817819 0.000000000
0.197401255 0.182359934 0.000000000
0.213081032 0.187577799 0.000000000
0.232571706 0.190864190 0.000000000
0.256072074 0.191395253 0.000000000
0.280430168 0.190919861 0.000000000
0.304061681 0.190271318 0.000000000
0.325054824 0.190125704 0.000000000
0.342295468 0.191058040 0.000000000
0.357928663 0.192863390 0.000000000
0.375184804 0.195030004 0.000000000
0.395621091 0.196661979 0.000000000
0.419580311 0.197522640 0.000000000
0.446696728 0.197621167 0.000000000
0.476510853 0.197132200 0.000000000
0.508433342 0.196229726 0.000000000
0.541890621 0.194973588 0.000000000
0.576425195 0.193376452 0.000000000
0.611893535 0.191566274 0.000000000
0.648114085 0.189743951 0.000000000
0.684788287 0.188054428 0.000000000
0.721672416 0.186423704 0.000000000
0.758665860 0.184745833 0.000000000
0.795956671 0.183016151 0.000000000
0.833718061 0.181283027 0.000000000
0.872059882 0.179569200 0.000000000
0.911045909 0.177828461 0.000000000
0.950549126 0.175912336 0.000000000
0.990528047 0.173879996 0.000000000
0.998251021 0.171756357 0.000000000
1.000000000 0.169673741 0.000000000
0.152406693 0.192190990 0.000000000
0.171872765 0.198827773 0.000000000
0.189321011 0.205161214 0.000000000
0.205404282 0.211273149 0.000000000
0.223961771 0.216224402 0.000000000
0.246414289 0.218289852 0.000000000
0.271702439 0.218272686 0.000000000
0.297552913 0.217552036 0.000000000
0.323398948 0.216724440 0.000000000
0.347658932 0.216201395 0.000000000
0.369104296 0.216536060 0.000000000
0.388126105 0.217720762 0.000000000
0.407332748 0.219490334 0.000000000
0.428921819 0.221265405 0.000000000
0.453488022 0.222522959 0.000000000
0.481145889 0.223139867 0.000000000
0.511448026 0.223124921 0.000000000
0.543869615 0.222591907 0.000000000
0.577937603 0.221761301 0.000000000
0.613212645 0.220690072 0.000000000
0.649264157 0.219429329 0.000000000
0.685757101 0.218146235 0.000000000
0.722472250 0.216835916 0.000000000
0.759443939 0.215507656 0.000000000
0.796831250 0.214142367 0.000000000
0.834709048 0.212685004 0.000000000
0.873246074 0.211244568 0.000000000
0.912321568 0.209630415 0.000000000
0.951975882 0.207894668 0.000000000
0.992154300 0.206056491 0.000000000
0.998303890 0.204119757 0.000000000
1.000000000 0.202298567 0.000000000
0.140746638 0.213442191 0.000000000
0.161437541 0.221169010 0.000000000
0.180295199 0.228443742 0.000000000
0.197422460 0.235511094 0.000000000
0.215504393 0.241510570 0.000000000
0.236962199 0.245479450 0.000000000
0.262095124 0.246705934 0.000000000
0.289346159 0.246444166 0.000000000
0.317322403 0.245589584 0.000000000
0.345981359 0.244585469 0.000000000
0.373590291 0.243704751 0.000000000
0.398519367 0.243601829 0.000000000
0.420866042 0.244491950 0.000000000
0.442482769 0.246034339 0.000000000
0.465514302 0.247913674 0.000000000
0.490897059 0.249452069 0.000000000
0.518944681 0.250456154 0.000000000
0.549438894 0.250861526 0.000000000
0.582050025 0.250822216 0.000000000
0.616343558 0.250426531 0.000000000
0.651804745 0.249762267 0.000000000
0.687814415 0.248892888 0.000000000
0.724165678 0.247946560 0.000000000
0.760890484 0.246980444 0.000000000
0.798191428 0.246030137 0.000000000
0.836053729 0.244974792 0.000000000
0.874429524 0.243715733 0.000000000
0.913455606 0.242287681 0.000000000
0.953163564 0.240754634 0.000000000
0.993539453 0.239202827 0.000000000
0.998350203 0.237542808 0.000000000
1.000000000 0.235803023 0.000000000
0.128143385 0.235395327 0.000000000
0.149981633 0.244169876 0.000000000
0.170256764 0.252471864 0.000000000
0.188608229 0.260423481 0.000000000
0.206980616 0.267552882 0.000000000
0.227939710 0.273189992 0.000000000
0.252313763 0.276078820 0.000000000
0.280173957 0.276884079 0.000000000
0.309738427 0.276484787 0.000000000
0.340419680 0.275472879 0.000000000
0.371931523 0.274139255 0.000000000
0.402469158 0.273149163 0.000000000
0.430499554 0.272858948 0.000000000
0.455940723 0.273556560 0.000000000
0.479943752 0.274822026 0.000000000
0.504378080 0.276457280 0.000000000
0.530656815 0.278097749 0.000000000
0.558991253 0.279323012 0.000000000
0.589513123 0.280114949 0.000000000
0.621977627 0.280443251 0.000000000
0.655961335 0.280356437 0.000000000
0.691008985 0.280080765 0.000000000
0.726806760 0.279722095 0.000000000
0.763094902 0.279194206 0.000000000
0.800029218 0.278583556 0.000000000
0.837567985 0.277801692 0.000000000
0.875747442 0.276862919 0.000000000
0.914678931 0.275770247 0.000000000
0.954331756 0.274551809 0.000000000
0.994338810 0.273300111 0.000000000
0.998387098 0.271773905 0.000000000
1.000000000 0.270189345 0.000000000
0.115324393 0.258325696 0.000000000
0.138122514 0.267969191 0.000000000
0.159639150 0.277219743 0.000000000
0.179402173 0.286156625 0.000000000
0.198676005 0.294519842 0.000000000
0.219632402 0.301563203 0.000000000
0.243669227 0.306497812 0.000000000
0.270993233 0.308435857 0.000000000
0.301370203 0.308751583 0.000000000
0.333708227 0.308197886 0.000000000
0.367286891 0.307024956 0.000000000
0.401276976 0.305544734 0.000000000
0.434246004 0.304435700 0.000000000
0.464796990 0.303840756 0.000000000
0.492728740 0.304046243 0.000000000
0.519087732 0.305029899 0.000000000
0.545124590 0.306424409 0.000000000
0.572228074 0.308022320 0.000000000
0.600848079 0.309354067 0.000000000
0.631245732 0.310360104 0.000000000
0.663312137 0.310991704 0.000000000
0.696780980 0.311446190 0.000000000
0.731309295 0.311695039 0.000000000
0.766704321 0.311749607 0.000000000
0.802917838 0.311518252 0.000000000
0.839947701 0.311075032 0.000000000
0.877770782 0.310477674 0.000000000
0.916524529 0.309790224 0.000000000
0.956028402 0.308934182 0.000000000
0.994436979 0.307818949 0.000000000
0.998387098 0.306499213 0.000000000
1.000000000 0.305115998 0.000000000
0.102687068 0.282316923 0.000000000
0.126475394 0.292869598 0.000000000
0.149227068 0.303127944 0.000000000
0.170375958 0.313041568 0.000000000
0.190733910 0.322474450 0.000000000
0.212059855 0.330775052 0.000000000
0.235889345 0.337401778 0.000000000
0.262766331 0.341017306 0.000000000
0.293104082 0.342255920 0.000000000
0.326280802 0.342096597 0.000000000
0.361365020 0.341206729 0.000000000
0.397210777 0.339796513 0.000000000
0.433234841 0.338134289 0.000000000
0.468065262 0.336678416 0.000000000
0.500899971 0.335883588 0.000000000
0.531223595 0.335750431 0.000000000
0.559715092 0.336424023 0.000000000
0.587271273 0.337480903 0.000000000
0.615077198 0.338848919 0.000000000
0.644138515 0.340327293 0.000000000
0.674446404 0.341580451 0.000000000
0.706036031 0.342691600 0.000000000
0.738807082 0.343571126 0.000000000
0.772633255 0.344144821 0.000000000
0.807656646 0.344464540 0.000000000
0.843894422 0.344623417 0.000000000
0.881064951 0.344439685 0.000000000
0.919315457 0.344084084 0.000000000
0.958369017 0.343449742 0.000000000
0.994558513 0.342616558 0.000000000
0.998387098 0.341567516 0.000000000
1.000000000 0.340492517 0.000000000
0.090946294 0.307847232 0.000000000
0.115473807 0.319078237 0.000000000
0.139343008 0.330279142 0.000000000
0.161807060 0.341104805 0.000000000
0.183180317 0.351358652 0.000000000
0.204859957 0.360592216 0.000000000
0.228634149 0.368422151 0.000000000
0.255383700 0.373986870 0.000000000
0.285227120 0.376395196 0.000000000
0.318704337 0.376938701 0.000000000
0.354606539 0.376232892 0.000000000
0.391726285 0.374886513 0.000000000
0.429530919 0.373311847 0.000000000
0.467360139 0.371527046 0.000000000
0.503989697 0.369890869 0.000000000
0.538827717 0.368850231 0.000000000
0.571215689 0.368375391 0.000000000
0.601474762 0.368605196 0.000000000
0.630570590 0.369492143 0.000000000
0.659318268 0.370794803 0.000000000
0.688655436 0.372318894 0.000000000
0.718730807 0.373794913 0.000000000
0.749714315 0.375177413 0.000000000
0.781808853 0.376352668 0.000000000
0.815322340 0.377345175 0.000000000
0.850195110 0.378025770 0.000000000
0.886248469 0.378374785 0.000000000
0.923508346 0.378349364 0.000000000
0.961855173 0.378041476 0.000000000
0.994739056 0.377499133 0.000000000
0.998387098 0.376842856 0.000000000
1.000000000 0.376068383 0.000000000
0.080474734 0.335167199 0.000000000
0.105480820 0.346830815 0.000000000
0.130004942 0.358561069 0.000000000
0.153366551 0.369907081 0.000000000
0.175695553 0.380831838 0.000000000
0.197968379 0.390937626 0.000000000
0.221853361 0.399760157 0.000000000
0.248469830 0.406844586 0.000000000
0.278056979 0.410878718 0.000000000
0.311164707 0.412227601 0.000000000
0.347511202 0.411991149 0.000000000
0.385612041 0.410900384 0.000000000
0.424617082 0.409346521 0.000000000
0.464102179 0.407616824 0.000000000
0.503529429 0.405676454 0.000000000
0.541810513 0.403845370 0.000000000
0.578221083 0.402431726 0.000000000
0.612489641 0.401786178 0.000000000
0.644410849 0.401769191 0.000000000
0.674843788 0.402463138 0.000000000
0.704383910 0.403596103 0.000000000
0.733751357 0.405071765 0.000000000
0.763672888 0.406792670 0.000000000
0.794296026 0.408439130 0.000000000
0.826156437 0.409931481 0.000000000
0.859362960 0.411093056 0.000000000
0.893880427 0.411898226 0.000000000
0.929865360 0.412336200 0.000000000
0.967204154 0.412571788 0.000000000
0.995004654 0.412413001 0.000000000
0.998387098 0.412064612 0.000000000
1.000000000 0.411425352 0.000000000
0.071236037 0.364190817 0.000000000
0.096384212 0.375940830 0.000000000
0.121162511 0.387815803 0.000000000
0.145199373 0.399520308 0.000000000
0.168350562 0.410959899 0.000000000
0.191354826 0.421817988 0.000000000
0.215430751 0.431495726 0.000000000
0.241927743 0.439623833 0.000000000
0.271373332 0.445310116 0.000000000
0.304017037 0.447788417 0.000000000
0.340437204 0.448328018 0.000000000
0.379138798 0.447620392 0.000000000
0.419101894 0.446234494 0.000000000
0.459676921 0.444459707 0.000000000
0.500548005 0.442428708 0.000000000
0.541439772 0.440325737 0.000000000
0.581216276 0.438385397 0.000000000
0.619106531 0.436797887 0.000000000
0.654853463 0.435926318 0.000000000
0.688168883 0.435658038 0.000000000
0.719610631 0.436079234 0.000000000
0.749846458 0.437190980 0.000000000
0.779431224 0.438765377 0.000000000
0.809199274 0.440547705 0.000000000
0.839791298 0.442246079 0.000000000
0.871407092 0.443783224 0.000000000
0.904358506 0.445044309 0.000000000
0.938926280 0.446046293 0.000000000
0.974878788 0.446738869 0.000000000
0.995415270 0.446994871 0.000000000
0.998387098 0.446886003 0.000000000
1.000000000 0.446538031 0.000000000
0.063193023 0.394691080 0.000000000
0.088237673 0.406297535 0.000000000
0.113182142 0.418223619 0.000000000
0.137669414 0.430129737 0.000000000
0.161502942 0.441931605 0.000000000
0.185092241 0.453253537 0.000000000
0.209372699 0.463554204 0.000000000
0.235793144 0.472471148 0.000000000
0.265174687 0.479543924 0.000000000
0.297692746 0.483565450 0.000000000
0.333666354 0.484913677 0.000000000
0.372592986 0.484798819 0.000000000
0.413172215 0.483655274 0.000000000
0.454630703 0.481933206 0.000000000
0.496603280 0.479921132 0.000000000
0.538913727 0.477755666 0.000000000
0.581060469 0.475479662 0.000000000
0.622029901 0.473399818 0.000000000
0.661118329 0.471654534 0.000000000
0.698001504 0.470484436 0.000000000
0.732579589 0.470160931 0.000000000
0.764832556 0.470479250 0.000000000
0.795569599 0.471473515 0.000000000
0.825348556 0.472937435 0.000000000
0.855254054 0.474583179 0.000000000
0.885973036 0.476321429 0.000000000
0.917653680 0.477925509 0.000000000
0.950702369 0.479273498 0.000000000
0.985089958 0.480285525 0.000000000
0.995960534 0.480909705 0.000000000
0.998387098 0.481175065 0.000000000
1.000000000 0.481250644 0.000000000
0.055924464 0.426047981 0.000000000
0.081099570 0.437744707 0.000000000
0.106179371 0.449715853 0.000000000
0.131052122 0.461798728 0.000000000
0.155364946 0.473776162 0.000000000
0.179314032 0.485254526 0.000000000
0.203831673 0.495984316 0.000000000
0.230256245 0.505582809 0.000000000
0.259528428 0.513630807 0.000000000
0.292036980 0.519240201 0.000000000
0.327604145 0.521646619 0.000000000
0.366192967 0.522073627 0.000000000
0.407070071 0.521327436 0.000000000
0.449335009 0.519924462 0.000000000
0.492203772 0.517983079 0.000000000
0.535493553 0.515745044 0.000000000
0.578951538 0.513374865 0.000000000
0.622065544 0.510876119 0.000000000
0.663978934 0.508641720 0.000000000
0.704145670 0.506873369 0.000000000
0.742003798 0.505582631 0.000000000
0.777277708 0.505094826 0.000000000
0.810123265 0.505246222 0.000000000
0.841271698 0.506039798 0.000000000
0.871683419 0.507347822 0.000000000
0.902064085 0.508954227 0.000000000
0.932942152 0.510558009 0.000000000
0.964849710 0.511989236 0.000000000
0.991428852 0.513218343 0.000000000
0.996672273 0.514166892 0.000000000
0.998387098 0.514863849 0.000000000
1.000000000 0.515308440 0.000000000
0.049306776 0.457913429 0.000000000
0.074817635 0.469915271 0.000000000
0.100112602 0.482020140 0.000000000
0.125243112 0.494194359 0.000000000
0.149847224 0.506166697 0.000000000
0.174220622 0.517837763 0.000000000
0.199058130 0.528937817 0.000000000
0.225507870 0.539025664 0.000000000
0.254588604 0.547702789 0.000000000
0.286901414 0.554443717 0.000000000
0.322297871 0.558194757 0.000000000
0.360415965 0.559377491 0.000000000
0.401326686 0.559216797 0.000000000
0.443905681 0.558057368 0.000000000
0.487531573 0.556313992 0.000000000
0.531639755 0.554079533 0.000000000
0.576006472 0.551589191 0.000000000
0.620382547 0.549001098 0.000000000
0.664414048 0.546490490 0.000000000
0.707090199 0.544114292 0.000000000
0.747914910 0.542200446 0.000000000
0.786272526 0.540806413 0.000000000
0.822008550 0.540100276 0.000000000
0.855596960 0.540236115 0.000000000
0.887473822 0.540816724 0.000000000
0.918572068 0.541830063 0.000000000
0.949346125 0.543109417 0.000000000
0.980585158 0.544422925 0.000000000
0.993390858 0.545730889 0.000000000
0.996774197 0.546913624 0.000000000
0.998387098 0.547803223 0.000000000
1.000000000 0.548434913 0.000000000
0.043527972 0.490335464 0.000000000
0.069212750 0.502485216 0.000000000
0.094699271 0.514697671 0.000000000
0.119992159 0.526910901 0.000000000
0.144980326 0.538973629 0.000000000
0.169780046 0.550827205 0.000000000
0.194993451 0.562228382 0.000000000
0.221501425 0.572703362 0.000000000
0.250311047 0.581754684 0.000000000
0.282300502 0.589184105 0.000000000
0.317753941 0.594412684 0.000000000
0.355582595 0.596661747 0.000000000
0.396032244 0.597015083 0.000000000
0.438740671 0.596281290 0.000000000
0.482687533 0.594640970 0.000000000
0.527449846 0.592464447 0.000000000
0.572739840 0.590102434 0.000000000
0.618032098 0.587440729 0.000000000
0.663141370 0.584689498 0.000000000
0.707744896 0.581987143 0.000000000
0.750869632 0.579462707 0.000000000
0.791953981 0.577407241 0.000000000
0.830765545 0.576065063 0.000000000
0.867071271 0.575248063 0.000000000
0.901307225 0.575038671 0.000000000
0.933955312 0.575266182 0.000000000
0.965720415 0.575888574 0.000000000
0.988832951 0.576856971 0.000000000
0.994906008 0.578033864 0.000000000
0.996774197 0.579117596 0.000000000
0.998387098 0.579965532 0.000000000
1.000000000 0.580680251 0.000000000
0.038612369 0.523078799 0.000000000
0.064373404 0.535273790 0.000000000
0.089943647 0.547525406 0.000000000
0.115483589 0.559863687 0.000000000
0.140940085 0.572135568 0.000000000
0.166113555 0.584110081 0.000000000
0.191597372 0.595644474 0.000000000
0.218115315 0.606296659 0.000000000
0.246817127 0.615761697 0.000000000
0.278633952 0.623777688 0.000000000
0.313865155 0.630001545 0.000000000
0.351632327 0.633545697 0.000000000
0.391548365 0.634561241 0.000000000
0.433933228 0.634202540 0.000000000
0.478053391 0.632847548 0.000000000
0.523388028 0.630936563 0.000000000
0.569216073 0.628488600 0.000000000
0.615291893 0.625831485 0.000000000
0.661228180 0.622945487 0.000000000
0.706860721 0.620002270 0.000000000
0.751760960 0.617097914 0.000000000
0.795183539 0.614660144 0.000000000
