Desert Affinity Presets/Desert Affinity Preset #2.cube
TITLE "32x32x32 Adobe/IRIDAS cube 3D LUT exported with GrossGrade v0.1.027.1 (beta) 64 bit"
DOMAIN_MIN 0 0 0
DOMAIN_MAX 1 1 1
LUT_3D_SIZE 32
0.002087435 0.001710532 0.002957198
0.026095351 0.006415684 0.006204788
0.049414936 0.011275173 0.009445362
0.071915336 0.015348962 0.012318362
0.093751661 0.018839300 0.014733113
0.115236096 0.021912910 0.016916912
0.137588605 0.024306180 0.018761177
0.161463767 0.026662041 0.020488083
0.188013494 0.028622275 0.021935809
0.217381790 0.030094314 0.023013247
0.249755993 0.030157892 0.023112366
0.284867406 0.028374890 0.022491377
0.320068032 0.024727479 0.021427060
0.355058312 0.019790400 0.019654796
0.389210492 0.014259462 0.017361613
0.421029896 0.009901299 0.014615297
0.449173689 0.007604358 0.011480420
0.475875169 0.006716825 0.008052343
0.502096534 0.006965596 0.004389975
0.530107141 0.006453089 0.001519750
0.562068641 0.003192882 0.000274023
0.595774651 0.000861351 0.000018705
0.629439890 0.000134674 0.000000000
0.662374496 0.000000000 0.000000000
0.694692612 0.000000000 0.000000000
0.725500286 0.000000000 0.000000000
0.755808711 0.000000000 0.000000000
0.786205173 0.000000000 0.000000000
0.816583931 0.000000000 0.000000000
0.846794546 0.000000000 0.001044178
0.877311051 0.000000000 0.008046247
0.908021986 0.000000000 0.024483876
0.009616509 0.023161504 0.010613948
0.028712118 0.026208993 0.010618572
0.055311121 0.029517338 0.012372129
0.080946378 0.030815978 0.013861998
0.104342826 0.032990828 0.015902631
0.126520559 0.034570426 0.017981164
0.149756134 0.036214583 0.019843219
0.174857482 0.038112126 0.021508450
0.202950656 0.039589796 0.022884160
0.233944103 0.040268328 0.023551926
0.267899662 0.039174076 0.023156811
0.303536773 0.036506843 0.022087827
0.338642836 0.031868543 0.020508202
0.372983694 0.026469901 0.018248694
0.405563653 0.021314913 0.015491152
0.435470641 0.017813891 0.012508235
0.463417739 0.016077176 0.009140486
0.490457743 0.015566533 0.005563693
0.517941475 0.015055888 0.002286641
0.548685849 0.011923340 0.000555526
0.582313061 0.007181267 0.000092588
0.616297185 0.003982782 0.000000000
0.649618983 0.002096887 0.000000000
0.682247818 0.001612904 0.000000000
0.713852286 0.001612904 0.000000000
0.744445503 0.001612904 0.000000000
0.774955988 0.001612904 0.000000000
0.805643618 0.001612904 0.000000000
0.835911810 0.001612904 0.000212297
0.866493881 0.001625997 0.005529072
0.897379279 0.001701750 0.018162193
0.928355038 0.004352191 0.041333020
0.016618576 0.043450084 0.017070718
0.031742286 0.045436017 0.017182482
0.053225987 0.048514832 0.016776191
0.079700626 0.049382694 0.016646136
0.106385514 0.049552947 0.017182022
0.131889790 0.050272588 0.018397400
0.157328576 0.051317208 0.020261323
0.185296208 0.052701347 0.021851620
0.215945706 0.053791858 0.023081496
0.249320626 0.053639896 0.023314370
0.285102010 0.051771287 0.022635359
0.320733339 0.047648799 0.021040315
0.355978787 0.042343199 0.018928576
0.389089048 0.036604665 0.016201487
0.420807809 0.031749871 0.013251765
0.450267226 0.028551813 0.009981244
0.478688449 0.026712257 0.006516219
0.506557763 0.025613358 0.002970298
0.536582232 0.022606563 0.000779984
0.570066988 0.017229451 0.000145896
0.604279220 0.012003399 0.000000000
0.638180971 0.006559908 0.000000000
0.671308517 0.003642919 0.000000000
0.703515768 0.003225807 0.000000000
0.734431505 0.003225807 0.000000000
0.765067756 0.003225807 0.000000000
0.796000183 0.003225807 0.000000000
0.826784313 0.003225807 0.000099135
0.857371390 0.003225807 0.003513657
0.888307571 0.003940322 0.013356930
0.919685245 0.007335201 0.035366625
0.948003113 0.038294110 0.060765225
0.021587921 0.061884012 0.021664618
0.035054848 0.063864842 0.022362296
0.053660925 0.066692069 0.022186445
0.077476196 0.069918543 0.021202600
0.104398757 0.070848219 0.020675173
0.132936165 0.071639456 0.019999417
0.160761431 0.072513409 0.020908909
0.190948591 0.073670723 0.022085425
0.223972782 0.074469388 0.023037499
0.259690404 0.074120551 0.023112832
0.295848578 0.071500503 0.021869902
0.331556708 0.067136772 0.019657586
0.366343349 0.061688595 0.016975395
0.399580300 0.056022026 0.013824581
0.431059480 0.051433779 0.010681265
0.461782217 0.047685806 0.007312101
0.492213666 0.044779588 0.003887757
0.523520231 0.041283235 0.001276126
0.556588888 0.035741508 0.000178162
0.591331601 0.028782479 0.000011223
0.626134396 0.020299003 0.000000000
0.660181403 0.010955587 0.000000000
0.693208098 0.005954911 0.000000000
0.724849045 0.004857417 0.000000000
0.755755842 0.004838713 0.000000000
0.786852121 0.004838713 0.000000000
0.817793131 0.004838713 0.000079962
0.848700166 0.004838713 0.001898053
0.880099177 0.006233143 0.010274407
0.912111342 0.012394898 0.030379476
0.941691697 0.034400374 0.055327311
0.964957714 0.092407666 0.085902736
0.026385618 0.079680167 0.026516566
0.039071698 0.081461780 0.026832266
0.056510527 0.084359989 0.026628787
0.078468010 0.088310435 0.025810977
0.102791518 0.091868974 0.025123132
0.131513923 0.093811430 0.023624405
0.162282810 0.094902880 0.022321574
0.193807036 0.096266419 0.022300592
0.227527976 0.096887469 0.022697104
0.264495611 0.096474059 0.022312270
0.301099151 0.093956448 0.020797161
0.337150931 0.090011172 0.018178061
0.372013479 0.085391112 0.015138563
0.405546308 0.080467626 0.011788604
0.438206792 0.076180518 0.008268384
0.470725089 0.072711267 0.004886113
0.504232705 0.069235943 0.001857836
0.539022565 0.064606570 0.000296936
0.574739575 0.058484528 0.000054711
0.610378444 0.049647998 0.000000000
0.645886183 0.036356557 0.000000000
0.680651426 0.017533671 0.000000000
0.713702261 0.008266426 0.000000000
0.745605528 0.006861244 0.000000000
0.777158558 0.006749016 0.000000000
0.808783412 0.006758370 0.000016834
0.840266109 0.006821964 0.001241050
0.871890068 0.008265965 0.007937767
0.904599905 0.023635542 0.025351727
0.935923040 0.042310681 0.050293386
0.960994840 0.092057392 0.079073228
0.972793102 0.158218727 0.129306510
0.029646367 0.098006055 0.030055957
0.042506278 0.099824227 0.030033547
0.060207032 0.102734603 0.029908191
0.080671892 0.106754795 0.029809996
0.103450909 0.111710675 0.029550003
0.129937306 0.116265863 0.028752740
0.161083668 0.118350297 0.026472606
0.195350990 0.120156698 0.023179648
0.229339629 0.120839097 0.022171481
0.265159518 0.120028690 0.020981859
0.300737202 0.117418557 0.018690115
0.336689383 0.113777108 0.015825463
0.372454613 0.109936506 0.012721464
0.407757819 0.105920091 0.009528143
0.442427635 0.102029458 0.005974253
0.477266937 0.098725237 0.002983388
0.514313936 0.095198929 0.000860880
0.552684605 0.090298891 0.000006547
0.590264082 0.084040329 0.000000000
0.626748323 0.072818950 0.000000000
0.662953436 0.054176066 0.000000000
0.698718488 0.030036395 0.000000000
0.732663333 0.017487912 0.000000000
0.765458286 0.014992700 0.000000000
0.797903419 0.014945939 0.000000000
0.830300808 0.015716571 0.000420853
0.862665772 0.017317673 0.005237285
0.895693004 0.029098798 0.019651983
0.928892374 0.059945948 0.044369664
0.955506563 0.100134589 0.072740257
0.970492601 0.157237381 0.117996819
0.978344917 0.222408265 0.182278275
0.031786148 0.116894320 0.033265658
0.045089401 0.119123727 0.033390537
0.063771188 0.122060940 0.033202115
0.083505586 0.125933781 0.033601463
0.105452240 0.131524235 0.033761367
0.130609512 0.137464494 0.033326946
0.159363583 0.142501116 0.032205593
0.194320261 0.144938514 0.027223656
0.230372682 0.145669639 0.021785239
0.265507877 0.144584402 0.019368637
0.299829215 0.141891241 0.016489035
0.334575325 0.138682917 0.013132060
0.370462984 0.135610729 0.010071011
0.407236904 0.132521302 0.007267678
0.443567336 0.129388511 0.003955095
0.480923414 0.126457229 0.001453351
0.521288574 0.123156637 0.000280569
0.562858164 0.118510462 0.000000000
0.602428377 0.111704171 0.000000000
0.640207589 0.100060903 0.000000000
0.677332938 0.082071722 0.000000000
0.714206994 0.060262684 0.000000000
0.749752104 0.047258254 0.000000000
0.784070432 0.044450216 0.000000000
0.817567945 0.046747163 0.000072948
0.850972414 0.052434295 0.002149157
0.884861648 0.061579950 0.012043885
0.919128656 0.082865670 0.035821211
0.948398948 0.114196114 0.063980959
0.967725217 0.158078149 0.103115372
0.975938678 0.218538314 0.164384365
0.982667446 0.272051930 0.230755121
0.033938106 0.137654990 0.036987904
0.048233200 0.140172705 0.036750332
0.067857727 0.142970547 0.036137789
0.087316729 0.147118643 0.036355674
0.108535483 0.153076187 0.037079576
0.132541284 0.159712583 0.037241314
0.160007551 0.166031808 0.036668036
0.192205101 0.171152592 0.034008224
0.227685928 0.171989262 0.025960131
0.263663530 0.170344159 0.017595878
0.298447400 0.167478681 0.013759568
0.333407283 0.164483577 0.010219719
0.369024575 0.161785752 0.006879553
0.405305117 0.159402803 0.004407741
0.442756385 0.157279521 0.002271675
0.482675195 0.155229256 0.000605096
0.525807440 0.152508497 0.000070142
0.569924474 0.147680566 0.000000000
0.611276448 0.140460998 0.000000000
0.650517702 0.129817858 0.000000000
0.689044833 0.115154296 0.000000000
0.727316797 0.099677950 0.000000000
0.764656007 0.089227200 0.000000000
0.800446510 0.086611852 0.000000000
0.834997237 0.090180680 0.000435817
0.869550407 0.099240758 0.004541472
0.904878259 0.114456214 0.023420502
0.937956452 0.135578528 0.051264662
0.962348342 0.165447399 0.085303165
0.973104358 0.214232504 0.141110808
0.980171680 0.267194092 0.209483296
0.984773338 0.300247401 0.252092659
0.033242293 0.161458910 0.040766254
0.050620403 0.163518608 0.039829154
0.070549265 0.166150600 0.038969621
0.090953723 0.170353577 0.038961701
0.112022541 0.176786214 0.039875910
0.134980798 0.183540449 0.040484723
0.160526812 0.189927042 0.040408034
0.190345138 0.195840776 0.038637679
0.222888976 0.198817059 0.033499490
0.259636492 0.197411299 0.020354837
0.296221346 0.195081294 0.010657444
0.331655920 0.192299441 0.007075487
0.368028045 0.190000698 0.004146344
0.404268324 0.188069806 0.002084630
0.441284299 0.186220795 0.000687396
0.482465863 0.184696898 0.000058919
0.527656376 0.182755455 0.000014028
0.573968232 0.178399920 0.000000000
0.616995335 0.171250969 0.000000000
0.657535434 0.161690891 0.000000000
0.697496831 0.150722504 0.000000000
0.737051606 0.141380325 0.000000000
0.776006401 0.136700407 0.000000000
0.813397169 0.136415079 0.000000000
0.849303424 0.140088573 0.000635955
0.885126770 0.148213565 0.008430158
0.921476841 0.161572427 0.034028318
0.951979339 0.180346578 0.064494438
0.969520748 0.213489279 0.110107198
0.977282941 0.260824472 0.176158994
0.983111680 0.304821849 0.240308866
0.985536516 0.313902140 0.252365798
0.033552311 0.186075091 0.043910470
0.052688181 0.188054919 0.042610981
0.072766244 0.190911114 0.041695386
0.093159981 0.195699632 0.041542433
0.114583679 0.202041522 0.042127892
0.137381300 0.208947882 0.042485170
0.161118969 0.215127960 0.042383235
0.187600657 0.220457256 0.041499004
0.217787728 0.223943189 0.037650522
0.251881897 0.225009099 0.029113268
0.291222245 0.224177212 0.013006723
0.329318285 0.222229943 0.003887755
0.366081148 0.220160887 0.001609067
0.403908730 0.218430609 0.000687392
0.441248775 0.216814294 0.000166939
0.481987834 0.214756310 0.000000000
0.526987493 0.212642148 0.000000000
0.574292541 0.209355637 0.000000000
0.619750082 0.203711897 0.000000000
0.661491334 0.195828304 0.000000000
0.702563405 0.187883019 0.000000000
0.743349135 0.182249472 0.000000000
0.783599675 0.179959804 0.000000000
0.822614014 0.180854276 0.000000000
0.860222578 0.185122415 0.000286180
0.897601664 0.193192855 0.013341511
0.933954656 0.205383077 0.042330399
0.962304175 0.223164961 0.076389171
0.973835588 0.257095844 0.132531255
0.980430245 0.300784945 0.206155345
0.984808683 0.329681426 0.251232445
0.986534238 0.331073850 0.252822310
0.036535725 0.212101519 0.045679029
0.054709204 0.214472413 0.044311691
0.074351490 0.217722923 0.043311447
0.094157882 0.222489700 0.043088395
0.115214296 0.228637397 0.043386701
0.137460455 0.234893531 0.043463450
0.161006868 0.241013840 0.043065984
0.186200202 0.246455148 0.042102199
0.213622928 0.249884263 0.040297206
0.245648578 0.252150476 0.034785889
0.283075124 0.253597766 0.023185791
0.324540734 0.253229469 0.006580283
0.363736421 0.251856744 0.000197333
0.402995884 0.250545889 0.000016834
0.442975640 0.248925477 0.000000000
0.483743995 0.246841788 0.000000000
0.526926219 0.244075701 0.000000000
0.573197424 0.241121799 0.000000000
0.619673431 0.236764595 0.000000000
0.663440466 0.230867907 0.000000000
0.705603719 0.225592539 0.000000000
0.747594893 0.222763449 0.000000000
0.788887024 0.222218469 0.000000000
0.829401076 0.224180400 0.000000000
0.868873894 0.228874192 0.000117839
0.907489657 0.236496583 0.017564973
0.943191111 0.247335538 0.048353728
0.968628407 0.264791727 0.088004559
0.977296591 0.297354817 0.151676446
0.983099580 0.336642444 0.228541255
0.986062884 0.350534081 0.252527237
0.987736702 0.351400733 0.253338277
0.037821658 0.240153909 0.046819981
0.054801770 0.242769286 0.045456413
0.073496655 0.246065006 0.044338822
0.092718065 0.249968961 0.043431152
0.113289930 0.254877448 0.042954169
0.135407358 0.260492921 0.042686705
0.159000024 0.266727984 0.042303313
0.184470341 0.272595167 0.041525137
0.211852267 0.276956707 0.039925884
0.241934955 0.279815167 0.037907708
0.276750237 0.282299757 0.030691490
0.316464484 0.284228235 0.017232591
0.359466910 0.283996820 0.003438376
0.401796341 0.283331245 0.000000000
0.444434226 0.282355398 0.000000000
0.486666977 0.280401945 0.000000000
0.529471517 0.277661085 0.000000000
0.573706090 0.274248451 0.000000000
0.619460583 0.270358801 0.000000000
0.664112031 0.266270012 0.000000000
0.707564294 0.263420343 0.000000000
0.750671625 0.262818485 0.000000000
0.792982101 0.263837039 0.000000000
0.834593952 0.266507655 0.000000000
0.875510693 0.271338314 0.000267476
0.915266812 0.278686076 0.020316424
0.950876176 0.288319409 0.052397188
0.972769320 0.305515081 0.098253652
0.980151296 0.335088849 0.168280780
0.985340118 0.368927985 0.242862254
0.987496734 0.374300271 0.253544897
0.989140391 0.374834627 0.253865093
0.038150840 0.269023240 0.046760090
0.053428378 0.271642208 0.045456398
0.070379540 0.274716735 0.044148948
0.089645371 0.278295517 0.043014992
0.110341862 0.282899112 0.042263992
0.132825777 0.287816525 0.041590627
0.157056674 0.293865889 0.041160453
0.182809323 0.299933612 0.040261678
0.210432544 0.304821581 0.038741894
0.240436733 0.308523297 0.036669418
0.273048997 0.311022967 0.034474459
0.310224831 0.313907385 0.025890954
0.352927923 0.316939861 0.011331260
0.399866343 0.317136675 0.001655356
0.445902973 0.316936821 0.000000000
0.489450395 0.315436333 0.000000000
0.532514691 0.312965006 0.000000000
0.576679468 0.309576392 0.000000000
0.621580243 0.305585772 0.000000000
0.665776849 0.302443177 0.000000000
0.709293485 0.301661611 0.000000000
0.753083825 0.302758366 0.000000000
0.796275914 0.305061638 0.000000000
0.838560998 0.308357894 0.000000000
0.880214810 0.313192844 0.001273783
0.921063304 0.320241570 0.021519123
0.957310855 0.328756958 0.054572061
0.976119578 0.345088869 0.105595507
0.982756615 0.371995538 0.181061029
0.987228215 0.398747206 0.249931872
0.989046335 0.400740355 0.254478037
0.990679502 0.401163459 0.254483998
0.035810426 0.297567666 0.045993667
0.048786383 0.300141275 0.044628266
0.065796010 0.302745789 0.042822346
0.085075356 0.306255341 0.041281518
0.106311046 0.310864985 0.040488478
0.129267409 0.316197902 0.039828200
0.154267594 0.322203994 0.039257701
0.180848658 0.328118652 0.038292069
0.208896682 0.333141476 0.036656342
0.239103630 0.337630212 0.034651693
0.271743983 0.341372043 0.032477267
0.307144672 0.344130754 0.030257987
0.348201871 0.347944796 0.020642888
0.395438790 0.352425158 0.004820182
0.446582884 0.352810651 0.000532612
0.491919547 0.351635426 0.000000000
0.535457850 0.349497199 0.000000000
0.579777896 0.346620023 0.000000000
0.625174582 0.342989177 0.000000000
0.669919252 0.341212511 0.000000000
0.712847888 0.341057241 0.000000000
0.755878747 0.342968524 0.000000000
0.799024165 0.345967174 0.000000000
0.841582596 0.349814951 0.000000000
0.883602679 0.354747891 0.002225380
0.925230980 0.361447245 0.020909810
0.962855756 0.368832976 0.055047609
0.979156077 0.383752823 0.110300787
0.985054433 0.407977760 0.191154271
0.988711476 0.427365780 0.251259208
0.990465641 0.428790718 0.255112469
0.992107451 0.429251164 0.255120724
0.029189007 0.326409936 0.044776011
0.040669523 0.329287022 0.043141719
0.059303638 0.331464648 0.040522598
0.080478266 0.334933460 0.039423674
0.103143536 0.339362204 0.038791008
0.125349730 0.344722390 0.038193412
0.150579944 0.350452363 0.037443370
0.178222850 0.356376737 0.036159735
0.207111046 0.361656189 0.034177076
0.238003299 0.366638720 0.032179397
0.271106958 0.371362686 0.030241169
0.307383150 0.375985622 0.028326273
0.347222716 0.379823655 0.026200939
0.392704874 0.384815603 0.015799798
0.442842603 0.389368951 0.000667756
0.492564946 0.388432533 0.000000000
0.537844718 0.386366487 0.000000000
0.582724512 0.384281397 0.000000000
0.628566563 0.382056594 0.000000000
0.674615860 0.381324202 0.000000000
0.718128920 0.382090092 0.000000000
0.759893417 0.383525163 0.000000000
0.801737010 0.386220396 0.000000000
0.843866110 0.390202284 0.000000000
0.885950208 0.395268917 0.002223977
0.927763700 0.401568383 0.017704783
0.966194808 0.408173770 0.054214325
0.981643677 0.421257943 0.112848125
0.986904025 0.442500204 0.198914602
0.989970267 0.456952572 0.252297431
0.991682172 0.458113074 0.255622208
0.993317664 0.458488107 0.255622208
0.019050643 0.354723066 0.044276629
0.030459147 0.357823610 0.042594131
0.051001087 0.359825820 0.039450821
0.075502366 0.363220125 0.038201362
0.099991038 0.367436171 0.037580334
0.121821985 0.372791201 0.037283909
0.146446213 0.378477633 0.036716226
0.174670547 0.384171218 0.035569619
0.205451518 0.389887422 0.033470988
0.237899691 0.396084994 0.030994967
0.272220463 0.401877880 0.028834557
0.309180170 0.407732964 0.026782658
0.349210441 0.413101107 0.024842979
0.392265856 0.417633623 0.023107225
0.439927876 0.422704965 0.012179062
0.489666790 0.425702900 0.000196398
0.538390934 0.423975229 0.000000000
0.585168839 0.422194839 0.000000000
0.632037878 0.421641320 0.000000000
0.679032087 0.422201991 0.000000000
0.723100781 0.423359424 0.000000000
0.764759064 0.424555719 0.000000000
0.805397034 0.426514626 0.000000000
0.846012652 0.429720670 0.000000000
0.887434483 0.434539795 0.001075982
0.928900182 0.440349549 0.011872232
0.967271328 0.446598589 0.051950585
0.983129025 0.457966596 0.113544479
0.988445461 0.476368427 0.204987094
0.991191924 0.487382501 0.252600670
0.992888808 0.488360852 0.255490810
0.994516432 0.488715559 0.255490810
0.007072207 0.382148027 0.045900185
0.020490529 0.385199100 0.043980613
0.043568823 0.387679458 0.040808771
0.071234465 0.391209096 0.038304698
0.096190169 0.395661950 0.037329700
0.117973231 0.400880158 0.037036058
0.142436787 0.406841904 0.036776058
0.171077773 0.412969410 0.035865627
0.204475030 0.419082195 0.034069497
0.239474177 0.426155746 0.031940922
0.275202811 0.433267742 0.029390112
0.313009351 0.439988971 0.026619906
0.352867275 0.446218401 0.024006881
0.395313740 0.451822460 0.021348502
0.439536542 0.456642568 0.019422421
0.487307400 0.460641861 0.009251771
0.536305010 0.462353289 0.000196399
0.586088896 0.461123109 0.000000000
0.634979010 0.461478919 0.000000000
0.682997048 0.463021427 0.000000000
0.727703989 0.464611560 0.000000000
0.769158721 0.465874821 0.000000000
0.809613287 0.467367381 0.000000000
0.849293292 0.469610840 0.000000000
0.888846636 0.472969800 0.000160859
0.929030359 0.477843136 0.006573244
0.967160106 0.483819544 0.046849862
0.984142482 0.493882120 0.111786284
0.989685774 0.509923339 0.209620267
0.992205560 0.518287599 0.252504021
0.993883669 0.519198000 0.254982293
0.995503962 0.519634545 0.254981816
0.001505249 0.412795216 0.048199896
0.017345797 0.415267706 0.045094490
0.041068479 0.418137670 0.041385364
0.068337113 0.421967983 0.038854584
0.093660034 0.425925553 0.037985787
0.117214695 0.430704147 0.037706628
0.141867921 0.436891437 0.037404541
0.170473084 0.443299085 0.036705934
0.205391571 0.449816883 0.035000965
0.242500260 0.457203180 0.032734923
0.279576242 0.464837581 0.030173358
0.317759424 0.472062767 0.027164716
0.357554525 0.478702843 0.023973685
0.399656624 0.485024661 0.020650351
0.443214566 0.490532517 0.018269239
0.487609982 0.495429724 0.014786000
0.534877002 0.499116480 0.006250140
0.584801018 0.501339257 0.000000000
0.636507273 0.501817286 0.000000000
0.686271727 0.503557026 0.000000000
0.731640995 0.505347192 0.000000000
0.773135364 0.506854117 0.000000000
0.813342690 0.508413732 0.000000000
0.852890611 0.510116935 0.000000000
0.891405940 0.512107313 0.000000000
0.929261029 0.514851511 0.004070581
0.966214597 0.520165801 0.039015468
0.984607041 0.529281259 0.106617510
0.990468979 0.543420315 0.211378887
0.992891729 0.549827039 0.251798242
0.994548082 0.550661027 0.253961384
0.996161461 0.551134586 0.253944755
0.004087420 0.446026593 0.049276348
0.019839611 0.449061126 0.045700956
0.041484654 0.452519596 0.042097982
0.067222767 0.456350565 0.040126976
0.094017252 0.458947390 0.039143629
0.119997315 0.463028491 0.038436130
0.145354614 0.468716323 0.037948862
0.173810706 0.474778295 0.037016902
0.208835110 0.481413215 0.035455503
0.246599972 0.488630831 0.033246960
0.284548730 0.496394753 0.030357596
0.323283613 0.503841758 0.027100170
0.363300323 0.510808885 0.024062563
0.404937655 0.517435908 0.021030081
0.448187500 0.523708105 0.017997099
0.491775900 0.529791057 0.017123131
0.536455631 0.535685360 0.011580002
0.584373832 0.540367782 0.003846608
0.635421038 0.543146551 0.000050502
0.687769830 0.544476271 0.000000000
0.735198796 0.545912266 0.000000000
0.777085066 0.547450066 0.000000000
0.816775918 0.549167275 0.000000000
0.855785310 0.550718725 0.000000000
0.893648386 0.551863432 0.000000000
0.930615067 0.553087175 0.003111034
0.965457618 0.556371689 0.029344251
0.984863698 0.564361453 0.098027647
0.990880311 0.576852381 0.210535750
0.993280709 0.581909835 0.250107348
0.994929135 0.582731128 0.252112776
0.996542096 0.583232641 0.252074659
0.006003710 0.479494125 0.049970757
0.020126278 0.483944386 0.046958379
0.040084623 0.488109797 0.044319145
0.066838391 0.490603179 0.042207390
0.097374305 0.492176354 0.040363140
0.125640050 0.495933831 0.039275475
0.151134968 0.501226604 0.038381390
0.178540930 0.506684780 0.036922425
0.212862730 0.513091326 0.035094984
0.251629651 0.520154238 0.032850914
0.290356010 0.527864993 0.029933937
0.329772085 0.535675764 0.026376327
0.369914889 0.543018937 0.022958975
0.411550343 0.550361395 0.021269949
0.454726785 0.557569146 0.018955247
0.497832894 0.564640880 0.018274862
0.540801764 0.571632743 0.018951971
0.586413503 0.578143358 0.011610411
0.635203898 0.582883000 0.003264429
0.686259389 0.585491896 0.000033668
0.736937582 0.586690784 0.000000000
0.780745745 0.587862492 0.000000000
0.820441723 0.589444697 0.000000000
0.858316839 0.590637147 0.000000000
0.895451427 0.591270506 0.000000000
0.931936920 0.592023909 0.003600630
0.965608418 0.593737304 0.023827767
0.985090852 0.599502504 0.088276483
0.991150737 0.610274374 0.209432915
0.993436933 0.614308894 0.248386472
0.995082557 0.615151823 0.250363261
0.996695459 0.615583718 0.250362873
0.005053519 0.511829555 0.051416621
0.016207205 0.517159581 0.049733192
0.034479782 0.521829009 0.048276130
0.068797745 0.522832394 0.043830056
0.103000648 0.524707913 0.040928025
0.132478133 0.528835595 0.039455041
0.158337861 0.534000456 0.038182180
0.185525015 0.539332867 0.036174227
0.218455240 0.545452714 0.033826813
0.258074015 0.552410543 0.031396136
0.297589242 0.560049832 0.028259855
0.337140501 0.567982376 0.024799522
0.377897799 0.575666785 0.021124078
0.419328988 0.583900332 0.019454673
0.462490290 0.592447400 0.019725863
0.505328417 0.600317240 0.019661350
0.547320366 0.607650757 0.022041958
0.590046644 0.614330232 0.024552573
0.636697829 0.620355427 0.015590718
0.685772777 0.624746025 0.005076882
0.736081243 0.627271414 0.000102875
0.782828808 0.628009439 0.000000000
