LutGeneration/SavedLut_{21B9225E-803C-4C4F-95D8-C1251993102F}.3dl
0 33 66 99 132 165 198 231 264 297 330 363 396 429 462 495 528 561 594 627 660 693 726 759 792 825 858 891 924 957 990 1023 
403 403 403
406 407 492
411 411 587
417 416 686
425 422 788
435 430 893
448 440 1001
465 452 1110
487 467 1220
515 486 1331
551 510 1444
594 540 1557
646 576 1670
707 620 1784
776 671 1898
853 731 2012
938 799 2126
1028 874 2241
1124 957 2356
1224 1046 2470
1327 1140 2585
1434 1239 2700
1542 1341 2815
1652 1446 2930
1763 1554 3044
1875 1663 3159
1987 1773 3274
2101 1885 3389
2214 1998 3504
2328 2111 3619
2443 2224 3734
2557 2338 3849
428 510 428
432 511 512
435 515 603
441 520 698
448 525 798
457 531 901
469 538 1007
485 548 1114
506 560 1224
533 576 1334
566 595 1446
608 619 1558
658 649 1671
717 686 1785
784 730 1898
860 782 2013
943 842 2127
1032 911 2241
1127 987 2356
1226 1070 2470
1329 1159 2585
1435 1254 2700
1543 1352 2815
1652 1455 2930
1763 1560 3044
1875 1668 3159
1988 1777 3274
2101 1888 3389
2214 2000 3504
2328 2112 3619
2443 2225 3734
2557 2339 3849
460 619 459
462 621 537
466 622 623
471 626 714
477 630 811
485 635 911
496 641 1014
511 648 1120
530 658 1228
555 670 1338
587 686 1448
626 705 1560
673 730 1673
730 760 1786
795 797 1899
869 842 2013
950 894 2127
1038 955 2242
1131 1023 2356
1230 1100 2471
1332 1183 2585
1437 1273 2700
1544 1367 2815
1653 1467 2930
1764 1569 3045
1876 1675 3159
1988 1783 3274
2101 1892 3389
2215 2003 3504
2329 2115 3619
2443 2227 3734
2557 2340 3849
499 730 495
501 731 568
504 732 648
508 734 734
513 737 827
521 741 923
531 746 1024
544 752 1128
561 760 1234
584 769 1342
613 781 1452
649 797 1563
694 817 1675
747 841 1787
809 872 1901
880 909 2014
959 954 2128
1045 1007 2242
1137 1068 2357
1234 1137 2471
1335 1213 2586
1439 1297 2700
1546 1387 2815
1655 1482 2930
1765 1581 3045
1876 1684 3159
1989 1789 3274
2102 1897 3389
2215 2007 3504
2329 2117 3619
2443 2229 3734
2557 2342 3849
546 842 539
548 843 605
550 844 679
553 845 759
558 846 847
564 850 939
573 853 1037
585 858 1138
600 864 1242
620 872 1348
646 881 1457
679 893 1566
720 909 1678
770 929 1789
828 954 1902
896 984 2015
971 1022 2129
1055 1067 2243
1144 1120 2357
1240 1181 2471
1339 1250 2586
1442 1327 2700
1548 1411 2815
1657 1501 2930
1766 1596 3045
1877 1695 3160
1989 1798 3274
2102 1904 3389
2215 2012 3504
2329 2121 3619
2443 2232 3734
2557 2344 3849
602 954 591
603 955 650
605 956 716
608 957 791
611 958 872
617 960 960
624 963 1053
634 966 1150
647 971 1252
664 977 1356
687 984 1463
717 994 1571
753 1006 1681
799 1022 1792
853 1042 1904
916 1067 2017
988 1097 2130
1068 1135 2244
1154 1180 2358
1247 1233 2472
1345 1295 2586
1447 1364 2701
1552 1441 2815
1659 1525 2930
1768 1615 3045
1879 1710 3160
1991 1810 3274
2103 1913 3389
2216 2019 3504
2330 2127 3619
2444 2236 3734
2558 2347 3849
666 1067 650
667 1068 701
668 1068 761
671 1069 828
674 1070 903
678 1072 985
684 1073 1073
692 1076 1167
703 1080 1264
718 1084 1366
737 1090 1470
763 1098 1577
795 1107 1686
835 1120 1796
884 1135 1907
942 1155 2019
1009 1180 2132
1085 1211 2245
1168 1249 2359
1258 1294 2473
1353 1347 2587
1453 1409 2701
1556 1478 2816
1662 1555 2930
1771 1640 3045
1881 1730 3160
1992 1825 3275
2104 1925 3389
2217 2028 3504
2330 2133 3619
2444 2241 3734
2558 2351 3849
738 1181 717
739 1181 761
740 1182 813
742 1182 873
744 1183 941
748 1184 1016
752 1186 1098
759 1187 1187
768 1190 1281
780 1194 1379
796 1198 1480
818 1204 1585
845 1211 1692
880 1221 1800
924 1233 1911
976 1249 2022
1037 1269 2134
1107 1294 2247
1186 1325 2360
1272 1363 2474
1364 1408 2588
1461 1461 2702
1562 1523 2816
1667 1593 2931
1774 1670 3045
1883 1754 3160
1994 1844 3275
2105 1940 3389
2218 2039 3504
2331 2142 3619
2445 2248 3734
2558 2356 3849
818 1295 791
818 1295 829
819 1296 873
821 1296 926
823 1297 986
825 1297 1054
829 1298 1130
834 1300 1212
841 1302 1301
851 1304 1395
864 1308 1493
882 1312 1595
905 1318 1700
934 1325 1806
972 1335 1915
1017 1347 2025
1072 1363 2137
1136 1383 2249
1209 1408 2361
1290 1439 2475
1378 1477 2588
1472 1522 2702
1571 1576 2817
1673 1637 2931
1779 1707 3046
1887 1784 3160
1996 1869 3275
2107 1959 3390
2219 2054 3504
2332 2154 3619
2445 2257 3734
2559 2363 3849
904 1409 873
905 1409 904
906 1410 941
907 1410 986
908 1410 1039
910 1411 1099
913 1412 1168
917 1413 1244
922 1414 1326
930 1416 1415
940 1419 1509
954 1422 1608
973 1427 1710
997 1432 1814
1029 1440 1921
1068 1449 2030
1116 1461 2140
1173 1477 2251
1239 1497 2364
1314 1522 2476
1397 1553 2590
1486 1591 2703
1582 1637 2817
1682 1690 2932
1785 1752 3046
1891 1822 3160
2000 1899 3275
2110 1983 3390
2221 2074 3504
2333 2169 3619
2446 2269 3734
2560 2372 3849
997 1523 961
997 1524 986
998 1524 1017
998 1524 1054
999 1524 1099
1001 1525 1152
1003 1525 1213
1006 1526 1282
1010 1527 1358
1016 1529 1441
1024 1531 1530
1035 1533 1624
1050 1537 1722
1069 1541 1824
1095 1547 1929
1127 1554 2036
1168 1564 2145
1218 1576 2255
1277 1592 2366
1345 1612 2478
1421 1637 2591
1505 1668 2705
1596 1706 2818
1693 1751 2932
1793 1805 3046
1898 1867 3161
2005 1936 3275
2113 2014 3390
2224 2098 3505
2335 2189 3619
2448 2284 3734
2561 2384 3849
1094 1638 1054
1094 1638 1074
1095 1638 1099
1095 1638 1130
1096 1639 1168
1097 1639 1213
1099 1639 1266
1101 1640 1327
1104 1641 1396
1108 1642 1472
1114 1643 1555
1123 1645 1644
1134 1648 1739
1150 1651 1837
1170 1656 1939
1196 1661 2044
1230 1669 2151
1272 1678 2260
1323 1690 2370
1383 1706 2481
1452 1726 2593
1530 1751 2706
1616 1782 2819
1707 1820 2933
1805 1866 3047
1906 1919 3161
2011 1981 3276
2118 2051 3390
2227 2129 3505
2338 2213 3620
2450 2303 3734
2562 2399 3849
1195 1753 1152
1195 1753 1168
1196 1753 1188
1196 1753 1213
1197 1753 1244
1197 1753 1282
1199 1754 1327
1200 1754 1380
1203 1755 1441
1206 1756 1510
1210 1757 1587
1216 1758 1670
1225 1760 1759
1237 1762 1853
1253 1766 1952
1274 1770 2054
1301 1776 2159
1335 1783 2266
1378 1793 2374
1430 1805 2485
1492 1821 2596
1562 1841 2708
1641 1866 2821
1727 1897 2934
1820 1935 3048
1917 1981 3162
2019 2034 3276
2124 2096 3391
2232 2166 3505
2341 2243 3620
2452 2328 3735
2564 2418 3849
1299 1867 1254
1299 1867 1266
1300 1867 1282
1300 1867 1302
1300 1868 1327
1301 1868 1358
1302 1868 1396
1303 1868 1441
1305 1869 1495
1307 1870 1556
1311 1870 1625
1315 1871 1701
1322 1873 1785
1330 1875 1874
1342 1877 1968
1359 1881 2067
1380 1885 2169
1408 1891 2273
1443 1898 2380
1487 1907 2489
1540 1920 2600
1602 1935 2711
1673 1955 2823
1752 1981 2936
1839 2012 3049
1932 2050 3163
2031 2095 3277
2133 2149 3391
2238 2211 3506
2346 2281 3620
2456 2358 3735
2567 2443 3849
1406 1982 1359
1406 1982 1368
1406 1982 1380
1407 1982 1396
1407 1982 1416
1407 1982 1441
1408 1983 1472
1409 1983 1510
1410 1983 1556
1412 1984 1609
1414 1984 1670
1418 1985 1740
1422 1986 1816
1429 1988 1899
1438 1989 1989
1450 1992 2083
1467 1995 2181
1488 2000 2283
1517 2005 2388
1552 2013 2495
1597 2022 2604
1650 2034 2714
1713 2050 2826
1785 2070 2938
1865 2095 3051
1952 2126 3164
2046 2164 3278
2144 2210 3392
2247 2264 3506
2353 2326 3621
2461 2396 3735
2570 2473 3850
1515 2097 1466
1515 2097 1473
1515 2097 1482
1515 2097 1495
1516 2097 1510
1516 2097 1530
1516 2097 1555
1517 2097 1587
1518 2098 1625
1519 2098 1670
1521 2099 1724
1523 2099 1785
1527 2100 1854
1531 2101 1931
1538 2102 2014
1547 2104 2103
1560 2107 2198
1576 2110 2296
1598 2114 2398
1627 2120 2503
1663 2127 2610
1708 2137 2719
1762 2149 2829
1825 2165 2941
1897 2185 3053
1978 2210 3166
2065 2241 3279
2159 2279 3393
2258 2325 3507
2361 2379 3621
2467 2440 3735
2575 2510 3850
1625 2212 1575
1625 2212 1580
1625 2212 1587
1625 2212 1597
1626 2212 1609
1626 2212 1625
1626 2212 1645
1627 2212 1670
1627 2212 1701
1628 2213 1739
1629 2213 1785
1631 2213 1838
1634 2214 1900
1637 2215 1969
1642 2216 2046
1649 2217 2129
1658 2219 2218
1670 2222 2313
1687 2225 2411
1710 2229 2513
1738 2235 2618
1775 2242 2725
1820 2252 2834
1874 2264 2944
1938 2280 3056
2010 2300 3168
2091 2325 3281
2179 2356 3394
2273 2394 3508
2372 2440 3622
2475 2493 3736
2581 2555 3850
1736 2326 1685
1737 2326 1689
1737 2326 1695
1737 2327 1702
1737 2327 1711
1737 2327 1724
1737 2327 1739
1738 2327 1759
1738 2327 1785
1739 2327 1816
1740 2327 1854
1741 2328 1900
1743 2328 1953
1745 2329 2015
1749 2330 2084
1754 2331 2160
1760 2332 2244
1770 2334 2333
1782 2337 2427
1799 2340 2526
1822 2344 2628
1851 2350 2733
1887 2357 2840
1933 2367 2949
1987 2379 3059
2051 2395 3171
2124 2415 3283
2205 2440 3396
2293 2471 3509
2388 2509 3623
2487 2555 3737
2590 2608 3851
1849 2441 1796
1849 2441 1800
1849 2441 1804
1849 2441 1809
1849 2441 1816
1849 2441 1826
1849 2442 1838
1850 2442 1854
1850 2442 1874
1850 2442 1899
1851 2442 1931
1852 2442 1969
1853 2443 2014
1855 2443 2068
1857 2444 2129
1861 2445 2199
1866 2446 2275
1873 2447 2359
1882 2449 2448
1895 2451 2542
1912 2455 2641
1934 2459 2743
1964 2465 2848
2000 2472 2955
2046 2481 3064
2101 2494 3174
2165 2510 3285
2238 2530 3398
2319 2555 3511
2408 2586 3624
2502 2624 3738
2601 2670 3852
1962 2556 1909
1962 2556 1911
1962 2556 1914
1962 2556 1918
1962 2556 1924
1962 2556 1931
1962 2556 1941
1962 2556 1953
1963 2557 1969
1963 2557 1989
1963 2557 2014
1964 2557 2045
1965 2557 2083
1966 2558 2129
1968 2558 2183
1970 2559 2244
1974 2559 2314
1979 2561 2390
1986 2562 2474
1995 2564 2563
2008 2566 2657
2025 2570 2756
2048 2574 2858
2077 2580 2963
2114 2587 3070
2160 2596 3179
2215 2609 3289
2279 2624 3400
2352 2644 3513
2433 2670 3625
2522 2701 3739
2617 2739 3852
2075 2671 2022
2075 2671 2024
2075 2671 2026
2075 2671 2029
2075 2671 2033
2075 2671 2039
2075 2671 2046
2076 2671 2055
2076 2671 2068
2076 2671 2083
2076 2672 2104
2077 2672 2129
2077 2672 2160
2078 2672 2198
2080 2672 2244
2081 2673 2297
2084 2674 2359
2087 2674 2428
2092 2675 2505
2099 2677 2588
2109 2679 2678
2122 2681 2772
2139 2685 2871
2162 2689 2973
2191 2694 3078
2228 2702 3185
2274 2711 3294
2329 2724 3404
2393 2739 3515
2466 2759 3628
2548 2784 3740
2637 2816 3854
2189 2786 2135
2189 2786 2137
2189 2786 2138
2189 2786 2141
2189 2786 2144
2189 2786 2148
2189 2786 2154
2189 2786 2161
2189 2786 2170
2190 2786 2182
2190 2786 2198
2190 2786 2218
2191 2787 2244
2191 2787 2275
2192 2787 2313
2193 2787 2359
2195 2788 2412
2198 2788 2474
2201 2789 2543
2206 2790 2620
2213 2792 2703
2223 2794 2793
2236 2796 2887
2253 2799 2986
2276 2804 3088
2305 2809 3193
2342 2817 3300
2388 2826 3409
2443 2838 3519
2508 2854 3630
2581 2874 3742
2663 2899 3855
2303 2901 2249
2303 2901 2250
2303 2901 2251
2303 2901 2253
2303 2901 2256
2303 2901 2259
2303 2901 2263
2303 2901 2268
2303 2901 2276
2303 2901 2285
2304 2901 2297
2304 2901 2313
2304 2901 2333
2305 2901 2358
2305 2902 2390
2306 2902 2428
2308 2902 2474
2309 2903 2527
2312 2903 2589
2315 2904 2658
2320 2905 2735
2327 2907 2818
2337 2909 2908
2350 2911 3002
2367 2914 3101
2390 2919 3203
2419 2924 3308
2456 2932 3415
2502 2941 3524
2558 2953 3634
2622 2969 3745
2696 2989 3857
2417 3016 2363
2417 3016 2364
2417 3016 2365
2417 3016 2366
2417 3016 2368
2417 3016 2370
2417 3016 2374
2417 3016 2378
2417 3016 2383
2418 3016 2390
2418 3016 2400
2418 3016 2412
2418 3016 2428
2418 3016 2448
2419 3016 2473
2420 3017 2505
2421 3017 2543
2422 3017 2589
2424 3018 2642
2426 3018 2704
2430 3019 2773
2435 3020 2850
2442 3022 2933
2451 3024 3023
2464 3026 3117
2481 3029 3216
2504 3034 3318
2534 3039 3422
2571 3046 3530
2617 3056 3638
2672 3068 3749
2737 3084 3860
2532 3131 2477
2532 3131 2478
2532 3131 2479
2532 3131 2480
2532 3131 2481
2532 3131 2483
2532 3131 2485
2532 3131 2488
2532 3131 2493
2532 3131 2498
2532 3131 2505
2532 3131 2515
2532 3131 2527
2533 3131 2543
2533 3131 2563
2533 3131 2588
2534 3132 2620
2535 3132 2658
2536 3132 2703
2538 3133 2757
2541 3133 2819
2544 3134 2888
2549 3135 2965
2556 3137 3048
2566 3138 3137
2579 3141 3232
2596 3144 3330
2619 3148 3433
2648 3154 3537
2686 3161 3645
2732 3171 3753
2787 3183 3864
2646 3246 2592
2646 3246 2592
2646 3246 2593
2646 3246 2594
2646 3246 2595
2646 3246 2596
2646 3246 2598
2646 3246 2600
2646 3246 2603
2646 3246 2607
2647 3246 2613
2647 3246 2620
2647 3246 2630
2647 3246 2642
2647 3246 2658
2648 3246 2678
2648 3246 2703
2649 3246 2734
2650 3247 2773
2651 3247 2818
2653 3248 2872
2655 3248 2933
2659 3249 3003
2664 3250 3080
2671 3251 3163
2680 3253 3252
2693 3256 3347
2711 3259 3445
2733 3263 3547
2763 3269 3652
2800 3276 3759
2846 3286 3868
2761 3361 2706
2761 3361 2707
2761 3361 2707
2761 3361 2708
2761 3361 2709
2761 3361 2710
2761 3361 2711
2761 3361 2713
2761 3361 2715
2761 3361 2718
2761 3361 2722
2761 3361 2728
2761 3361 2735
2761 3361 2745
2762 3361 2757
2762 3361 2773
2762 3361 2793
2763 3361 2818
2763 3361 2849
2764 3362 2888
2766 3362 2933
2767 3362 2987
2770 3363 3048
2773 3364 3118
2778 3365 3195
2785 3366 3278
2795 3368 3367
2808 3371 3462
2825 3374 3560
2848 3378 3662
2878 3384 3767
2915 3391 3874
2876 3475 2821
2876 3475 2821
2876 3475 2822
2876 3475 2822
2876 3475 2823
2876 3475 2823
2876 3475 2824
2876 3476 2826
2876 3476 2828
2876 3476 2830
2876 3476 2833
2876 3476 2837
2876 3476 2843
2876 3476 2850
2876 3476 2859
2876 3476 2872
2877 3476 2888
2877 3476 2908
2877 3476 2933
2878 3476 2964
2879 3477 3002
2880 3477 3048
2882 3477 3102
2885 3478 3163
2888 3479 3233
2893 3480 3309
2900 3481 3393
2910 3483 3482
2923 3486 3577
2940 3489 3675
2963 3493 3777
2992 3499 3882
2990 3590 2936
2990 3590 2936
2990 3590 2936
2990 3590 2937
